(G-code generated by FlatCAM Evo vUnstable - Version Date: 2023/6/31)

(Name: 8bots.drl Mounting Hole_edit_exc_cnc_cnc)
(Type: G-code from Geometry)
(Units: MM)

(Created on Thursday, 06 March 2025 at 14:08)

(This preprocessor is the default preprocessor.)
(It is made to work with MACH3 compatible motion controllers.)

(TOOL DIAMETER: 2.0 mm)
(Feedrate_XY: 120.0 mm/min)
(Feedrate_Z: 60.0 mm/min)
(Feedrate rapids 1500.0 mm/min)

(Z_Cut: -1.6 mm)
(Z_Move: 5.0 mm)
(Z Start: None mm)
(Z End: 15.0 mm)
(X,Y End: None mm)
(Steps per circle: 16)
(Preprocessor Geometry: default)

(X range:    4.9400 ...   95.9400  mm)
(Y range:    4.9600 ...   72.9600  mm)

(Spindle Speed: 12000.0 RPM)
G21
G90
G94

G01 F120.00
G00 Z5.0000

M03 S12000.0
G01 F120.00
G00 X5.9388 Y5.9600
G01 F60.00
G01 Z-1.6000
G01 F120.00
G01 X5.9400 Y5.9612
G01 X5.9412 Y5.9600
G01 X5.9400 Y5.9588
G01 X5.9388 Y5.9600
G00 Z5.0000
G00 X5.9388 Y71.9600
G01 F60.00
G01 Z-1.6000
G01 F120.00
G01 X5.9400 Y71.9612
G01 X5.9412 Y71.9600
G01 X5.9400 Y71.9588
G01 X5.9388 Y71.9600
G00 Z5.0000
G00 X94.9388 Y71.9600
G01 F60.00
G01 Z-1.6000
G01 F120.00
G01 X94.9400 Y71.9612
G01 X94.9412 Y71.9600
G01 X94.9400 Y71.9588
G01 X94.9388 Y71.9600
G00 Z5.0000
G00 X94.9388 Y5.9600
G01 F60.00
G01 Z-1.6000
G01 F120.00
G01 X94.9400 Y5.9612
G01 X94.9412 Y5.9600
G01 X94.9400 Y5.9588
G01 X94.9388 Y5.9600
G00 Z5.0000
M05
G00 Z5.0000
G00 Z15.00


