(G-code generated by FlatCAM Evo vUnstable - Version Date: 2023/6/31)

(Name: 8bots.drl Merged_cnc)
(Type: G-code from Excellon)
(Units: MM)

(Created on Wednesday, 05 March 2025 at 22:46)

(This preprocessor is the default preprocessor.)
(It is made to work with MACH3 compatible motion controllers.)


(TOOLS DIAMETER: )
(Tool: 2 -> Dia: 2.0)

(FEEDRATE Z: )
(Tool: 2 -> Feedrate: 100.0)

(FEEDRATE RAPIDS: )
(Tool: 2 -> Feedrate Rapids: 1500)

(Z_CUT: )
(Tool: 2 -> Z_Cut: -1.7)

(Tools Offset: )
(Tool: 2 -> Offset Z: 0.0)

(Z_MOVE: )
(Tool: 2 -> Z_Move: 2)

(Z Start: None mm)
(Z End: 15 mm)
(X,Y End: None mm)
(Steps per circle: 16)
(Preprocessor Excellon: default)

(X range:    6.0280 ...   93.9280  mm)
(Y range:    4.0000 ...   72.7850  mm)

(Spindle Speed: 12000 RPM)
G21
G90
G94

G01 F100.00
G00 Z2.0000

M03 S12000
G00 X18.2280 Y56.5410
G01 Z-1.7000
G01 Z0
G00 Z2.0000
G00 X7.0280 Y56.5410
G01 Z-1.7000
G01 Z0
G00 Z2.0000
G00 X84.7280 Y28.3510
G01 Z-1.7000
G01 Z0
G00 Z2.0000
G00 X92.9280 Y28.3510
G01 Z-1.7000
G01 Z0
G00 Z2.0000
M05
G00 Z15.00


