(G-code generated by FlatCAM Evo vUnstable - Version Date: 2023/6/31)

(Name: 8bots-B_Cu.gbr_iso_combined_cnc)
(Type: G-code from Geometry)
(Units: MM)

(Created on Wednesday, 05 March 2025 at 22:48)

(This preprocessor is the default preprocessor.)
(It is made to work with MACH3 compatible motion controllers.)

(TOOL DIAMETER: 0.1804 mm)
(Feedrate_XY: 120.0 mm/min)
(Feedrate_Z: 60.0 mm/min)
(Feedrate rapids 1500.0 mm/min)

(Z_Cut: -0.15 mm)
(Z_Move: 4.0 mm)
(Z Start: None mm)
(Z End: 15.0 mm)
(X,Y End: None mm)
(Steps per circle: 16)
(Preprocessor Geometry: default)

(X range:    2.0997 ...   97.8704  mm)
(Y range:    2.0096 ...   74.5267  mm)

(Spindle Speed: 12000.0 RPM)
G21
G90
G94

G01 F120.00
G00 Z4.0000

M03 S12000.0
G01 F120.00
G00 X9.8873 Y9.7504
G01 F60.00
G01 Z-0.1500
G01 F120.00
G01 X9.8630 Y9.8721
G01 X9.8634 Y10.0031
G01 X9.8862 Y10.1176
G01 X9.9069 Y10.1769
G01 X9.9662 Y10.2894
G01 X10.0473 Y10.3887
G01 X10.1466 Y10.4698
G01 X10.2591 Y10.5291
G01 X10.3184 Y10.5498
G01 X10.4222 Y10.5710
G01 X10.3144 Y10.5933
G01 X10.1944 Y10.6436
G01 X10.0970 Y10.7087
G01 X10.0080 Y10.7965
G01 X9.9376 Y10.9004
G01 X9.9069 Y10.9651
G01 X9.8725 Y11.0791
G01 X9.8598 Y11.2060
G01 X9.8725 Y11.3329
G01 X9.9069 Y11.4469
G01 X9.9376 Y11.5116
G01 X10.0080 Y11.6155
G01 X10.0970 Y11.7033
G01 X10.1944 Y11.7684
G01 X10.3144 Y11.8187
G01 X10.4222 Y11.8410
G01 X10.3144 Y11.8633
G01 X10.1944 Y11.9136
G01 X10.0970 Y11.9787
G01 X10.0080 Y12.0665
G01 X9.9376 Y12.1704
G01 X9.9069 Y12.2351
G01 X9.8725 Y12.3491
G01 X9.8599 Y12.4716
G01 X9.8634 Y12.5431
G01 X9.8873 Y12.6616
G01 X9.9103 Y12.7250
G01 X9.9662 Y12.8294
G01 X10.0443 Y12.9255
G01 X10.0970 Y12.9733
G01 X10.1944 Y13.0384
G01 X10.2595 Y13.0692
G01 X10.2597 Y14.3854
G01 X10.2701 Y14.4918
G01 X10.2838 Y14.5481
G01 X10.3315 Y14.6632
G01 X10.3911 Y14.7525
G01 X10.4325 Y14.7985
G01 X16.5745 Y20.9359
G01 X16.6638 Y20.9955
G01 X16.7704 Y21.0406
G01 X16.8352 Y21.0569
G01 X16.9460 Y21.0675
G01 X25.8454 Y21.0675
G01 X31.5523 Y26.7743
G01 X31.5538 Y26.9098
G01 X31.5661 Y26.9963
G01 X31.6185 Y27.1698
G01 X31.6571 Y27.2505
G01 X31.7491 Y27.3882
G01 X31.8738 Y27.5139
G01 X32.0165 Y27.6099
G01 X32.1819 Y27.6789
G01 X32.3516 Y27.7128
G01 X32.5284 Y27.7128
G01 X32.6981 Y27.6789
G01 X32.8635 Y27.6099
G01 X33.0062 Y27.5139
G01 X33.1309 Y27.3882
G01 X33.2229 Y27.2505
G01 X33.2905 Y27.0896
G01 X33.3139 Y26.9963
G01 X33.3301 Y26.8226
G01 X33.3127 Y26.6514
G01 X33.2615 Y26.4842
G01 X33.1817 Y26.3347
G01 X33.0725 Y26.2007
G01 X32.9323 Y26.0853
G01 X32.7765 Y26.0030
G01 X32.6093 Y25.9531
G01 X32.5228 Y25.9408
G01 X32.3873 Y25.9393
G01 X26.5075 Y20.0595
G01 X26.4157 Y19.9846
G01 X26.3200 Y19.9333
G01 X26.2072 Y19.8983
G01 X26.0900 Y19.8865
G01 X17.1906 Y19.8865
G01 X11.4405 Y14.1364
G01 X11.4405 Y13.0692
G01 X11.5056 Y13.0384
G01 X11.6030 Y12.9733
G01 X11.6920 Y12.8855
G01 X11.7347 Y12.8279
G01 X11.7897 Y12.7250
G01 X11.8138 Y12.6576
G01 X11.8370 Y12.5399
G01 X11.8374 Y12.4177
G01 X11.8138 Y12.2944
G01 X11.7897 Y12.2270
G01 X11.7338 Y12.1226
G01 X11.6527 Y12.0233
G01 X11.5593 Y11.9462
G01 X11.4978 Y11.9094
G01 X11.3856 Y11.8633
G01 X11.2778 Y11.8410
G01 X11.3816 Y11.8198
G01 X11.4473 Y11.7965
G01 X11.4944 Y11.7965
G01 X12.5455 Y12.8476
G01 X12.5481 Y14.6885
G01 X12.5579 Y14.7545
G01 X12.5914 Y14.8631
G01 X12.6175 Y14.9172
G01 X12.6771 Y15.0065
G01 X17.0365 Y19.3705
G01 X17.1223 Y19.4414
G01 X17.1796 Y19.4757
G01 X17.2322 Y19.5001
G01 X17.3345 Y19.5311
G01 X17.4540 Y19.5435
G01 X28.6394 Y19.5435
G01 X31.5523 Y22.4563
G01 X31.5538 Y22.5918
G01 X31.5673 Y22.6846
G01 X31.5895 Y22.7716
G01 X31.6529 Y22.9247
G01 X31.7548 Y23.0771
G01 X31.8719 Y23.1942
G01 X31.9477 Y23.2507
G01 X32.0243 Y23.2961
G01 X32.1774 Y23.3595
G01 X32.3516 Y23.3948
G01 X32.4444 Y23.3991
G01 X32.6093 Y23.3829
G01 X32.7828 Y23.3305
G01 X32.8635 Y23.2919
G01 X33.0012 Y23.1999
G01 X33.1269 Y23.0752
G01 X33.1825 Y22.9998
G01 X33.2606 Y22.8537
G01 X33.3139 Y22.6783
G01 X33.3301 Y22.5134
G01 X33.3262 Y22.4262
G01 X33.2919 Y22.2509
G01 X33.2229 Y22.0855
G01 X33.1309 Y21.9478
G01 X33.0695 Y21.8795
G01 X32.9323 Y21.7673
G01 X32.7765 Y21.6850
G01 X32.6093 Y21.6351
G01 X32.5228 Y21.6228
G01 X32.3873 Y21.6213
G01 X29.3015 Y18.5355
G01 X29.2555 Y18.4941
G01 X29.1662 Y18.4345
G01 X29.0551 Y18.3879
G01 X28.9463 Y18.3659
G01 X28.8840 Y18.3625
G01 X17.6986 Y18.3625
G01 X13.7265 Y14.3904
G01 X13.7239 Y12.5495
G01 X13.7141 Y12.4835
G01 X13.6806 Y12.3749
G01 X13.6545 Y12.3208
G01 X13.5949 Y12.2315
G01 X12.1565 Y10.7885
G01 X12.0707 Y10.7176
G01 X11.9671 Y10.6614
G01 X11.8498 Y10.6261
G01 X11.7434 Y10.6157
G01 X11.4473 Y10.6155
G01 X11.3816 Y10.5922
G01 X11.2778 Y10.5710
G01 X11.3816 Y10.5498
G01 X11.4471 Y10.5266
G01 X11.5519 Y10.4707
G01 X11.6112 Y10.4264
G01 X14.3392 Y10.4264
G01 X14.3112 Y10.5353
G01 X14.2947 Y10.6476
G01 X14.2947 Y10.8524
G01 X14.3112 Y10.9647
G01 X14.3375 Y11.0688
G01 X14.3746 Y11.1712
G01 X14.4712 Y11.3519
G01 X14.5348 Y11.4385
G01 X14.6091 Y11.5209
G01 X14.6915 Y11.5952
G01 X14.7781 Y11.6588
G01 X14.9588 Y11.7554
G01 X15.0612 Y11.7925
G01 X15.1717 Y11.8200
G01 X15.3756 Y11.8401
G01 X15.4870 Y11.8349
G01 X15.5970 Y11.8183
G01 X15.7931 Y11.7588
G01 X15.8952 Y11.7108
G01 X15.9893 Y11.6539
G01 X16.1477 Y11.5239
G01 X16.2252 Y11.4385
G01 X16.2888 Y11.3519
G01 X16.3854 Y11.1712
G01 X16.4225 Y11.0688
G01 X16.4500 Y10.9583
G01 X16.4701 Y10.7544
G01 X16.4649 Y10.6430
G01 X16.4483 Y10.5330
G01 X16.3888 Y10.3369
G01 X16.3408 Y10.2348
G01 X16.2839 Y10.1407
G01 X16.1539 Y9.9823
G01 X16.0685 Y9.9048
G01 X15.9819 Y9.8412
G01 X15.8012 Y9.7446
G01 X15.6988 Y9.7075
G01 X15.5947 Y9.6812
G01 X15.4870 Y9.6651
G01 X15.3844 Y9.6599
G01 X15.2730 Y9.6651
G01 X15.1717 Y9.6800
G01 X15.0390 Y9.7154
G01 X14.9096 Y9.5862
G01 X14.8421 Y9.5308
G01 X14.7558 Y9.4838
G01 X14.6573 Y9.4543
G01 X14.5660 Y9.4456
G01 X11.6112 Y9.4456
G01 X11.5519 Y9.4013
G01 X11.4490 Y9.3463
G01 X11.3128 Y9.3062
G01 X11.7590 Y9.3058
G01 X11.8040 Y9.2883
G01 X11.8305 Y9.2565
G01 X16.0514 Y9.2565
G01 X16.6645 Y9.8696
G01 X16.6674 Y10.9330
G01 X16.6888 Y11.0421
G01 X16.7104 Y11.1031
G01 X16.7365 Y11.1572
G01 X16.7961 Y11.2465
G01 X19.9625 Y14.4175
G01 X20.0085 Y14.4589
G01 X20.0978 Y14.5185
G01 X20.2129 Y14.5662
G01 X20.3177 Y14.5871
G01 X20.3800 Y14.5905
G01 X30.6354 Y14.5905
G01 X31.5955 Y15.5506
G01 X31.5955 Y17.2720
G01 X31.4951 Y17.3758
G01 X31.4031 Y17.5135
G01 X31.3620 Y17.6005
G01 X31.3133 Y17.7614
G01 X31.2998 Y17.8542
G01 X31.3002 Y18.0254
G01 X31.3330 Y18.1911
G01 X31.3645 Y18.2798
G01 X31.4443 Y18.4293
G01 X31.5535 Y18.5633
G01 X31.6878 Y18.6746
G01 X31.7703 Y18.7241
G01 X31.9279 Y18.7889
G01 X32.0944 Y18.8224
G01 X32.1904 Y18.8271
G01 X32.3616 Y18.8097
G01 X32.5225 Y18.7610
G01 X32.6095 Y18.7199
G01 X32.7522 Y18.6239
G01 X32.8712 Y18.5051
G01 X32.9285 Y18.4278
G01 X33.0075 Y18.2798
G01 X33.0390 Y18.1911
G01 X33.0718 Y18.0254
G01 X33.0714 Y17.8454
G01 X33.0390 Y17.6829
G01 X33.0100 Y17.6005
G01 X32.9236 Y17.4388
G01 X32.8712 Y17.3689
G01 X32.7765 Y17.2720
G01 X32.7765 Y15.3060
G01 X32.7647 Y15.1888
G01 X32.7496 Y15.1304
G01 X32.7087 Y15.0316
G01 X32.6744 Y14.9743
G01 X32.6066 Y14.8917
G01 X31.2515 Y13.5411
G01 X31.1622 Y13.4815
G01 X31.0556 Y13.4364
G01 X30.9908 Y13.4201
G01 X30.8800 Y13.4095
G01 X20.6246 Y13.4095
G01 X17.8455 Y10.6304
G01 X17.8429 Y9.5715
G01 X17.8201 Y9.4539
G01 X17.7735 Y9.3428
G01 X17.7139 Y9.2535
G01 X17.6725 Y9.2075
G01 X16.7103 Y8.2454
G01 X16.6277 Y8.1776
G01 X16.5704 Y8.1433
G01 X16.4716 Y8.1024
G01 X16.4068 Y8.0861
G01 X16.2960 Y8.0755
G01 X11.8305 Y8.0755
G01 X11.7978 Y8.0395
G01 X11.7500 Y8.0258
G01 X9.9281 Y8.0285
G01 X9.9022 Y8.0395
G01 X9.8778 Y8.0619
G01 X9.8599 Y8.1114
G01 X9.8598 Y9.2160
G01 X9.8651 Y9.2465
G01 X9.8959 Y9.2882
G01 X9.9410 Y9.3058
G01 X10.3872 Y9.3062
G01 X10.2510 Y9.3463
G01 X10.1481 Y9.4013
G01 X10.0905 Y9.4440
G01 X10.0080 Y9.5265
G01 X9.9662 Y9.5826
G01 X9.9103 Y9.6870
G01 X9.8873 Y9.7504
G00 Z4.0000
G00 X14.3100 Y4.2917
G01 F60.00
G01 Z-0.1500
G01 F120.00
G01 X14.2947 Y4.3976
G01 X14.2947 Y4.6024
G01 X14.3112 Y4.7147
G01 X14.3356 Y4.8122
G01 X14.3712 Y4.9131
G01 X14.4192 Y5.0152
G01 X14.5348 Y5.1885
G01 X14.6091 Y5.2709
G01 X14.6915 Y5.3452
G01 X14.7781 Y5.4088
G01 X14.8700 Y5.4635
G01 X14.9669 Y5.5088
G01 X15.1630 Y5.5683
G01 X15.2730 Y5.5849
G01 X15.3800 Y5.5902
G01 X15.4870 Y5.5849
G01 X15.5947 Y5.5688
G01 X15.6988 Y5.5425
G01 X15.8012 Y5.5054
G01 X15.9819 Y5.4088
G01 X16.0681 Y5.3455
G01 X16.1509 Y5.2709
G01 X16.2198 Y5.1950
G01 X16.2839 Y5.1093
G01 X16.3435 Y5.0100
G01 X16.4219 Y4.8207
G01 X16.4488 Y4.7147
G01 X16.4653 Y4.6024
G01 X16.4653 Y4.3976
G01 X16.4488 Y4.2853
G01 X16.4146 Y4.1590
G01 X17.5831 Y2.9904
G01 X82.8180 Y2.9904
G01 X91.1744 Y11.3468
G01 X91.2524 Y11.4101
G01 X91.3765 Y11.4685
G01 X91.4298 Y11.4817
G01 X91.5212 Y11.4904
G01 X96.8896 Y11.4904
G01 X96.8896 Y61.0469
G01 X92.7379 Y65.1986
G01 X85.2072 Y65.1986
G01 X85.1116 Y65.0586
G01 X84.9784 Y64.9254
G01 X84.8944 Y64.8633
G01 X84.7290 Y64.7751
G01 X84.6312 Y64.7403
G01 X84.4495 Y64.7041
G01 X84.2026 Y64.6988
G01 X84.0643 Y64.6452
G01 X83.9609 Y64.6193
G01 X83.8593 Y64.6041
G01 X83.7480 Y64.5983
G01 X80.7245 Y64.6032
G01 X80.6099 Y64.6202
G01 X80.5107 Y64.6452
G01 X80.4075 Y64.6822
G01 X80.2248 Y64.7797
G01 X80.1329 Y64.8477
G01 X78.4048 Y66.5688
G01 X78.3302 Y66.6516
G01 X78.2246 Y66.8081
G01 X67.5983 Y66.8081
G01 X66.8246 Y66.0415
G01 X66.7364 Y65.9759
G01 X66.6485 Y65.9231
G01 X66.5500 Y65.8760
G01 X66.4469 Y65.8390
G01 X66.3434 Y65.8131
G01 X66.2418 Y65.7979
G01 X66.1305 Y65.7921
G01 X64.1392 Y65.7921
G01 X64.0322 Y65.7974
G01 X63.9263 Y65.8131
G01 X63.8229 Y65.8390
G01 X63.7178 Y65.8769
G01 X63.5370 Y65.9735
G01 X63.4508 Y66.0370
G01 X63.3680 Y66.1116
G01 X63.2979 Y66.1887
G01 X63.2323 Y66.2769
G01 X63.1753 Y66.3726
G01 X63.1324 Y66.4633
G01 X63.0943 Y66.5705
G01 X63.0687 Y66.6744
G01 X63.0486 Y66.8784
G01 X63.0538 Y66.9898
G01 X63.0687 Y67.0912
G01 X63.0954 Y67.1991
G01 X63.1324 Y67.3023
G01 X63.1795 Y67.4008
G01 X63.2349 Y67.4924
G01 X63.3649 Y67.6508
G01 X63.4439 Y67.7230
G01 X63.5333 Y67.7897
G01 X63.6290 Y67.8467
G01 X63.7197 Y67.8896
G01 X63.8229 Y67.9266
G01 X63.9263 Y67.9525
G01 X64.0367 Y67.9686
G01 X65.6788 Y67.9735
G01 X66.3753 Y68.6700
G01 X66.4581 Y68.7446
G01 X66.6285 Y68.8585
G01 X66.7270 Y68.9056
G01 X66.8342 Y68.9437
G01 X67.0352 Y68.9837
G01 X67.1465 Y68.9895
G01 X78.0853 Y68.9895
G01 X78.0854 Y70.9004
G01 X78.0906 Y71.0030
G01 X78.1063 Y71.1089
G01 X78.1322 Y71.2124
G01 X78.1692 Y71.3155
G01 X78.2667 Y71.4982
G01 X78.3358 Y71.5913
G01 X78.4819 Y71.7373
G01 X78.5701 Y71.8029
G01 X78.6580 Y71.8557
G01 X78.7565 Y71.9028
G01 X78.8552 Y71.9383
G01 X78.9676 Y71.9665
G01 X79.0690 Y71.9814
G01 X79.1760 Y71.9867
G01 X79.2830 Y71.9814
G01 X79.3844 Y71.9665
G01 X79.4968 Y71.9383
G01 X79.6862 Y71.8599
G01 X79.7856 Y71.8003
G01 X79.8701 Y71.7373
G01 X79.9472 Y71.6672
G01 X80.0218 Y71.5844
G01 X80.1357 Y71.4140
G01 X80.1853 Y71.3093
G01 X80.2198 Y71.2124
G01 X80.2457 Y71.1089
G01 X80.2614 Y71.0030
G01 X80.2667 Y70.8960
G01 X80.2667 Y67.7918
G01 X81.2788 Y66.7797
G01 X83.7480 Y66.7797
G01 X83.8550 Y66.7744
G01 X83.9564 Y66.7595
G01 X84.0643 Y66.7328
G01 X84.2026 Y66.6792
G01 X84.4495 Y66.6739
G01 X84.6312 Y66.6377
G01 X84.7310 Y66.6020
G01 X84.8944 Y66.5147
G01 X84.9784 Y66.4526
G01 X85.1116 Y66.3194
G01 X85.2072 Y66.1794
G01 X92.9410 Y66.1794
G01 X93.0323 Y66.1707
G01 X93.0857 Y66.1575
G01 X93.2097 Y66.0991
G01 X93.2878 Y66.0358
G01 X97.7268 Y61.5968
G01 X97.7852 Y61.5261
G01 X97.8145 Y61.4772
G01 X97.8485 Y61.3947
G01 X97.8617 Y61.3413
G01 X97.8704 Y61.2500
G01 X97.8704 Y11.0000
G01 X97.8505 Y10.8619
G01 X97.8118 Y10.7675
G01 X97.7562 Y10.6855
G01 X97.6561 Y10.5948
G01 X97.6072 Y10.5655
G01 X97.5247 Y10.5315
G01 X97.4713 Y10.5183
G01 X97.3800 Y10.5096
G01 X91.7243 Y10.5096
G01 X83.3679 Y2.1532
G01 X83.2913 Y2.0908
G01 X83.2129 Y2.0487
G01 X83.1592 Y2.0295
G01 X83.0648 Y2.0116
G01 X17.3756 Y2.0097
G01 X17.2824 Y2.0194
G01 X17.1965 Y2.0453
G01 X17.1450 Y2.0697
G01 X17.0674 Y2.1222
G01 X15.7210 Y3.4654
G01 X15.5947 Y3.4312
G01 X15.4824 Y3.4147
G01 X15.2776 Y3.4147
G01 X15.1717 Y3.4300
G01 X15.0612 Y3.4575
G01 X14.9588 Y3.4946
G01 X14.7781 Y3.5912
G01 X14.6919 Y3.6545
G01 X14.6091 Y3.7291
G01 X14.5402 Y3.8050
G01 X14.4712 Y3.8981
G01 X14.4192 Y3.9848
G01 X14.3712 Y4.0869
G01 X14.3375 Y4.1812
G01 X14.3100 Y4.2917
G00 Z4.0000
G00 X19.5281 Y8.6219
G01 F60.00
G01 Z-0.1500
G01 F120.00
G01 X19.4942 Y8.7916
G01 X19.4938 Y8.9628
G01 X19.5079 Y9.0580
G01 X19.5585 Y9.2228
G01 X19.6375 Y9.3708
G01 X19.6948 Y9.4481
G01 X19.8138 Y9.5669
G01 X19.9565 Y9.6629
G01 X20.1174 Y9.7305
G01 X20.2107 Y9.7539
G01 X20.3800 Y9.7702
G01 X20.5556 Y9.7527
G01 X20.7228 Y9.7015
G01 X20.8708 Y9.6225
G01 X20.9481 Y9.5652
G01 X21.0669 Y9.4462
G01 X21.1629 Y9.3035
G01 X21.2305 Y9.1426
G01 X21.2539 Y9.0493
G01 X21.2701 Y8.8756
G01 X21.2527 Y8.7044
G01 X21.2015 Y8.5372
G01 X21.1176 Y8.3818
G01 X21.0652 Y8.3119
G01 X20.9705 Y8.2150
G01 X20.9705 Y6.3456
G01 X23.1246 Y4.1915
G01 X44.2364 Y4.1915
G01 X44.7287 Y4.6836
G01 X44.8113 Y4.7514
G01 X44.8707 Y4.7867
G01 X46.9993 Y6.9154
G01 X46.9939 Y7.0194
G01 X47.0123 Y7.2004
G01 X47.0357 Y7.2921
G01 X47.1037 Y7.4560
G01 X47.1548 Y7.5410
G01 X47.2692 Y7.6798
G01 X47.3410 Y7.7445
G01 X47.4869 Y7.8420
G01 X47.5721 Y7.8827
G01 X47.6653 Y7.9159
G01 X47.8375 Y7.9501
G01 X47.9384 Y7.9551
G01 X48.1131 Y7.9379
G01 X48.2093 Y7.9140
G01 X48.2978 Y7.8818
G01 X48.4540 Y7.7982
G01 X48.5338 Y7.7389
G01 X48.6579 Y7.6148
G01 X48.7172 Y7.5350
G01 X48.7652 Y7.4543
G01 X48.8323 Y7.2921
G01 X48.8557 Y7.2004
G01 X48.8700 Y7.1027
G01 X48.8700 Y6.9273
G01 X48.8349 Y6.7463
G01 X48.8008 Y6.6512
G01 X48.7172 Y6.4950
G01 X48.5956 Y6.3471
G01 X48.5270 Y6.2855
G01 X48.3811 Y6.1880
G01 X48.2111 Y6.1167
G01 X48.0273 Y6.0794
G01 X47.9340 Y6.0748
G01 X47.8344 Y6.0803
G01 X45.5995 Y3.8455
G01 X45.5137 Y3.7746
G01 X45.4543 Y3.7393
G01 X44.8953 Y3.1804
G01 X44.8127 Y3.1126
G01 X44.7554 Y3.0783
G01 X44.6566 Y3.0374
G01 X44.5918 Y3.0211
G01 X44.4810 Y3.0105
G01 X22.8265 Y3.0131
G01 X22.7605 Y3.0229
G01 X22.6500 Y3.0573
G01 X22.5543 Y3.1086
G01 X22.4657 Y3.1804
G01 X19.9625 Y5.6835
G01 X19.9211 Y5.7295
G01 X19.8615 Y5.8188
G01 X19.8138 Y5.9339
G01 X19.8001 Y5.9902
G01 X19.7897 Y6.0966
G01 X19.7895 Y8.2150
G01 X19.6931 Y8.3138
G01 X19.6383 Y8.3877
G01 X19.5594 Y8.5353
G01 X19.5281 Y8.6219
G00 Z4.0000
G00 X24.5281 Y6.6219
G01 F60.00
G01 Z-0.1500
G01 F120.00
G01 X24.5061 Y6.7107
G01 X24.4899 Y6.8756
G01 X24.5073 Y7.0556
G01 X24.5594 Y7.2247
G01 X24.5971 Y7.3035
G01 X24.6891 Y7.4412
G01 X24.8138 Y7.5669
G01 X24.9643 Y7.6671
G01 X25.1174 Y7.7305
G01 X25.2020 Y7.7521
G01 X25.3800 Y7.7702
G01 X25.5556 Y7.7527
G01 X25.7228 Y7.7015
G01 X25.8723 Y7.6217
G01 X26.0095 Y7.5095
G01 X26.1217 Y7.3723
G01 X26.2040 Y7.2165
G01 X26.2539 Y7.0493
G01 X26.2662 Y6.9628
G01 X26.2677 Y6.8273
G01 X27.0406 Y6.0545
G01 X43.5984 Y6.0545
G01 X44.4593 Y6.9154
G01 X44.4538 Y7.0150
G01 X44.4584 Y7.1083
G01 X44.4950 Y7.2903
G01 X44.5637 Y7.4560
G01 X44.6701 Y7.6148
G01 X44.8006 Y7.7442
G01 X44.9530 Y7.8453
G01 X45.1187 Y7.9140
G01 X45.3063 Y7.9510
G01 X45.4905 Y7.9501
G01 X45.6627 Y7.9159
G01 X45.7497 Y7.8852
G01 X45.9140 Y7.7982
G01 X46.0556 Y7.6829
G01 X46.1772 Y7.5350
G01 X46.2617 Y7.3769
G01 X46.3157 Y7.2004
G01 X46.3342 Y7.0150
G01 X46.3157 Y6.8296
G01 X46.2608 Y6.6512
G01 X46.1732 Y6.4890
G01 X46.1179 Y6.4152
G01 X45.9938 Y6.2911
G01 X45.8350 Y6.1847
G01 X45.6693 Y6.1160
G01 X45.4873 Y6.0794
G01 X45.3940 Y6.0748
G01 X45.2944 Y6.0803
G01 X44.2209 Y5.0105
G01 X44.1252 Y4.9455
G01 X44.0648 Y4.9169
G01 X43.9602 Y4.8853
G01 X43.8430 Y4.8735
G01 X26.7380 Y4.8764
G01 X26.6289 Y4.8978
G01 X26.5679 Y4.9194
G01 X26.4717 Y4.9707
G01 X26.4181 Y5.0105
G01 X25.4327 Y5.9923
G01 X25.2916 Y5.9942
G01 X25.1219 Y6.0281
G01 X24.9643 Y6.0929
G01 X24.8188 Y6.1891
G01 X24.7475 Y6.2537
G01 X24.6383 Y6.3877
G01 X24.5594 Y6.5353
G01 X24.5281 Y6.6219
G00 Z4.0000
G00 X37.5053 Y6.1141
G01 F60.00
G01 Z-0.1500
G01 F120.00
G01 X37.3330 Y6.1847
G01 X37.1806 Y6.2858
G01 X37.0448 Y6.4216
G01 X36.9437 Y6.5740
G01 X36.8750 Y6.7397
G01 X36.8384 Y6.9217
G01 X36.8384 Y7.1083
G01 X36.8750 Y7.2903
G01 X36.9437 Y7.4560
G01 X37.0448 Y7.6084
G01 X37.1806 Y7.7442
G01 X37.3330 Y7.8453
G01 X37.4987 Y7.9140
G01 X37.6807 Y7.9506
G01 X37.8673 Y7.9506
G01 X38.0493 Y7.9140
G01 X38.2150 Y7.8453
G01 X38.3674 Y7.7442
G01 X38.5032 Y7.6084
G01 X38.6043 Y7.4560
G01 X38.6730 Y7.2903
G01 X38.7096 Y7.1083
G01 X38.7096 Y6.9217
G01 X38.6730 Y6.7397
G01 X38.6043 Y6.5740
G01 X38.5032 Y6.4216
G01 X38.3674 Y6.2858
G01 X38.2150 Y6.1847
G01 X38.0493 Y6.1160
G01 X37.8673 Y6.0794
G01 X37.6807 Y6.0794
G01 X37.5053 Y6.1141
G00 Z4.0000
G00 X37.5863 Y8.6338
G01 F60.00
G01 Z-0.1500
G01 F120.00
G01 X37.4121 Y8.6873
G01 X37.2540 Y8.7718
G01 X37.1092 Y8.8902
G01 X36.9908 Y9.0350
G01 X36.9063 Y9.1931
G01 X36.8523 Y9.3696
G01 X36.8338 Y9.5550
G01 X36.8523 Y9.7404
G01 X36.9063 Y9.9169
G01 X36.9908 Y10.0750
G01 X37.1092 Y10.2198
G01 X37.2540 Y10.3382
G01 X37.4121 Y10.4227
G01 X37.5886 Y10.4767
G01 X37.7740 Y10.4952
G01 X37.9594 Y10.4767
G01 X38.1359 Y10.4227
G01 X38.2940 Y10.3382
G01 X38.4388 Y10.2198
G01 X38.5572 Y10.0750
G01 X38.6417 Y9.9169
G01 X38.6957 Y9.7404
G01 X38.7142 Y9.5550
G01 X38.6957 Y9.3696
G01 X38.6417 Y9.1931
G01 X38.5572 Y9.0350
G01 X38.4388 Y8.8902
G01 X38.2940 Y8.7718
G01 X38.1359 Y8.6873
G01 X37.9594 Y8.6333
G01 X37.7740 Y8.6148
G01 X37.5863 Y8.6338
G00 Z4.0000
G00 X40.0453 Y8.6541
G01 F60.00
G01 Z-0.1500
G01 F120.00
G01 X39.8730 Y8.7247
G01 X39.7206 Y8.8258
G01 X39.5848 Y8.9616
G01 X39.4837 Y9.1140
G01 X39.4150 Y9.2797
G01 X39.3784 Y9.4617
G01 X39.3784 Y9.6483
G01 X39.4150 Y9.8303
G01 X39.4837 Y9.9960
G01 X39.5848 Y10.1484
G01 X39.7206 Y10.2842
G01 X39.8730 Y10.3853
G01 X40.0387 Y10.4540
G01 X40.2207 Y10.4906
G01 X40.4073 Y10.4906
G01 X40.5893 Y10.4540
G01 X40.7550 Y10.3853
G01 X40.9074 Y10.2842
G01 X41.0432 Y10.1484
G01 X41.1443 Y9.9960
G01 X41.2130 Y9.8303
G01 X41.2496 Y9.6483
G01 X41.2496 Y9.4617
G01 X41.2130 Y9.2797
G01 X41.1443 Y9.1140
G01 X41.0432 Y8.9616
G01 X40.9074 Y8.8258
G01 X40.7550 Y8.7247
G01 X40.5893 Y8.6560
G01 X40.4073 Y8.6194
G01 X40.2207 Y8.6194
G01 X40.0453 Y8.6541
G00 Z4.0000
G00 X40.1263 Y6.0938
G01 F60.00
G01 Z-0.1500
G01 F120.00
G01 X39.9521 Y6.1473
G01 X39.7940 Y6.2318
G01 X39.6492 Y6.3502
G01 X39.5308 Y6.4950
G01 X39.4463 Y6.6531
G01 X39.3923 Y6.8296
G01 X39.3738 Y7.0150
G01 X39.3923 Y7.2004
G01 X39.4463 Y7.3769
G01 X39.5308 Y7.5350
G01 X39.6492 Y7.6798
G01 X39.7940 Y7.7982
G01 X39.9521 Y7.8827
G01 X40.1286 Y7.9367
G01 X40.3140 Y7.9552
G01 X40.4994 Y7.9367
G01 X40.6759 Y7.8827
G01 X40.8340 Y7.7982
G01 X40.9788 Y7.6798
G01 X41.0972 Y7.5350
G01 X41.1817 Y7.3769
G01 X41.2357 Y7.2004
G01 X41.2542 Y7.0150
G01 X41.2357 Y6.8296
G01 X41.1817 Y6.6531
G01 X41.0972 Y6.4950
G01 X40.9788 Y6.3502
G01 X40.8340 Y6.2318
G01 X40.6759 Y6.1473
G01 X40.4994 Y6.0933
G01 X40.3140 Y6.0748
G01 X40.1263 Y6.0938
G00 Z4.0000
G00 X42.5853 Y6.1141
G01 F60.00
G01 Z-0.1500
G01 F120.00
G01 X42.4130 Y6.1847
G01 X42.2606 Y6.2858
G01 X42.1248 Y6.4216
G01 X42.0237 Y6.5740
G01 X41.9550 Y6.7397
G01 X41.9184 Y6.9217
G01 X41.9184 Y7.1083
G01 X41.9550 Y7.2903
G01 X42.0237 Y7.4560
G01 X42.1248 Y7.6084
G01 X42.2606 Y7.7442
G01 X42.4130 Y7.8453
G01 X42.5787 Y7.9140
G01 X42.7607 Y7.9506
G01 X42.9473 Y7.9506
G01 X43.1293 Y7.9140
G01 X43.2950 Y7.8453
G01 X43.4474 Y7.7442
G01 X43.5832 Y7.6084
G01 X43.6843 Y7.4560
G01 X43.7530 Y7.2903
G01 X43.7896 Y7.1083
G01 X43.7896 Y6.9217
G01 X43.7530 Y6.7397
G01 X43.6843 Y6.5740
G01 X43.5832 Y6.4216
G01 X43.4474 Y6.2858
G01 X43.2950 Y6.1847
G01 X43.1293 Y6.1160
G01 X42.9473 Y6.0794
G01 X42.7607 Y6.0794
G01 X42.5853 Y6.1141
G00 Z4.0000
G00 X42.6663 Y8.6338
G01 F60.00
G01 Z-0.1500
G01 F120.00
G01 X42.4921 Y8.6873
G01 X42.3340 Y8.7718
G01 X42.1892 Y8.8902
G01 X42.0708 Y9.0350
G01 X41.9863 Y9.1931
G01 X41.9323 Y9.3696
G01 X41.9138 Y9.5550
G01 X41.9323 Y9.7404
G01 X41.9863 Y9.9169
G01 X42.0708 Y10.0750
G01 X42.1892 Y10.2198
G01 X42.3340 Y10.3382
G01 X42.4921 Y10.4227
G01 X42.6686 Y10.4767
G01 X42.8540 Y10.4952
G01 X43.0394 Y10.4767
G01 X43.2159 Y10.4227
G01 X43.3740 Y10.3382
G01 X43.5188 Y10.2198
G01 X43.6372 Y10.0750
G01 X43.7217 Y9.9169
G01 X43.7757 Y9.7404
G01 X43.7942 Y9.5550
G01 X43.7757 Y9.3696
G01 X43.7217 Y9.1931
G01 X43.6372 Y9.0350
G01 X43.5188 Y8.8902
G01 X43.3740 Y8.7718
G01 X43.2159 Y8.6873
G01 X43.0394 Y8.6333
G01 X42.8540 Y8.6148
G01 X42.6663 Y8.6338
G00 Z4.0000
G00 X45.2063 Y8.6338
G01 F60.00
G01 Z-0.1500
G01 F120.00
G01 X45.0321 Y8.6873
G01 X44.8740 Y8.7718
G01 X44.7292 Y8.8902
G01 X44.6108 Y9.0350
G01 X44.5263 Y9.1931
G01 X44.4723 Y9.3696
G01 X44.4538 Y9.5550
G01 X44.4723 Y9.7404
G01 X44.5263 Y9.9169
G01 X44.6108 Y10.0750
G01 X44.7292 Y10.2198
G01 X44.8740 Y10.3382
G01 X45.0321 Y10.4227
G01 X45.2086 Y10.4767
G01 X45.3940 Y10.4952
G01 X45.5794 Y10.4767
G01 X45.7559 Y10.4227
G01 X45.9140 Y10.3382
G01 X46.0588 Y10.2198
G01 X46.1772 Y10.0750
G01 X46.2617 Y9.9169
G01 X46.3157 Y9.7404
G01 X46.3342 Y9.5550
G01 X46.3157 Y9.3696
G01 X46.2617 Y9.1931
G01 X46.1772 Y9.0350
G01 X46.0588 Y8.8902
G01 X45.9140 Y8.7718
G01 X45.7559 Y8.6873
G01 X45.5794 Y8.6333
G01 X45.3940 Y8.6148
G01 X45.2063 Y8.6338
G00 Z4.0000
G00 X49.9078 Y4.8099
G01 F60.00
G01 Z-0.1500
G01 F120.00
G01 X49.8869 Y4.9147
G01 X49.8835 Y4.9770
G01 X49.8835 Y6.2836
G01 X49.8092 Y6.3502
G01 X49.7445 Y6.4220
G01 X49.6470 Y6.5679
G01 X49.6038 Y6.6593
G01 X49.5528 Y6.8273
G01 X49.5384 Y6.9217
G01 X49.5339 Y7.0194
G01 X49.5511 Y7.1941
G01 X49.5757 Y7.2921
G01 X49.6437 Y7.4560
G01 X49.7445 Y7.6080
G01 X49.8124 Y7.6829
G01 X49.9540 Y7.7982
G01 X50.1102 Y7.8818
G01 X50.2053 Y7.9159
G01 X50.3775 Y7.9501
G01 X50.4784 Y7.9551
G01 X50.6594 Y7.9367
G01 X50.8297 Y7.8852
G01 X50.9211 Y7.8420
G01 X51.0674 Y7.7442
G01 X51.1979 Y7.6148
G01 X51.3010 Y7.4621
G01 X51.3442 Y7.3707
G01 X51.3952 Y7.2027
G01 X51.4100 Y7.1027
G01 X51.4096 Y6.9217
G01 X51.3749 Y6.7463
G01 X51.3408 Y6.6512
G01 X51.2572 Y6.4950
G01 X51.1419 Y6.3534
G01 X51.0645 Y6.2836
G01 X51.0645 Y5.2216
G01 X51.7346 Y4.5515
G01 X61.5264 Y4.5515
G01 X63.5995 Y6.6246
G01 X63.6029 Y50.8923
G01 X63.6249 Y51.0011
G01 X63.6673 Y51.1044
G01 X63.7016 Y51.1617
G01 X63.7694 Y51.2443
G01 X65.9315 Y53.4065
G01 X66.0173 Y53.4774
G01 X66.0746 Y53.5117
G01 X66.1779 Y53.5541
G01 X66.2955 Y53.5769
G01 X67.1145 Y53.5795
G01 X67.2048 Y53.6860
G01 X67.2776 Y53.7526
G01 X67.4399 Y53.8616
G01 X67.6182 Y53.9358
G01 X67.8108 Y53.9744
G01 X69.1124 Y53.9791
G01 X69.3031 Y53.9598
G01 X69.4828 Y53.9054
G01 X69.5786 Y53.8601
G01 X69.7327 Y53.7572
G01 X69.8082 Y53.6892
G01 X69.8762 Y53.6137
G01 X69.9791 Y53.4596
G01 X70.0219 Y53.3700
G01 X70.0567 Y53.2722
G01 X70.0934 Y53.0862
G01 X70.0981 Y52.9846
G01 X70.0799 Y52.8002
G01 X70.0548 Y52.6992
G01 X70.0210 Y52.6060
G01 X69.9337 Y52.4426
G01 X69.8716 Y52.3586
G01 X69.8050 Y52.2858
G01 X69.6617 Y52.1682
G01 X69.5761 Y52.1164
G01 X69.4828 Y52.0726
G01 X69.3055 Y52.0188
G01 X69.2052 Y52.0036
G01 X67.8108 Y52.0036
G01 X67.6182 Y52.0422
G01 X67.4399 Y52.1164
G01 X67.2776 Y52.2254
G01 X67.2048 Y52.2920
G01 X67.1145 Y52.3985
G01 X66.5936 Y52.3985
G01 X64.7805 Y50.5854
G01 X64.7805 Y6.3800
G01 X64.7687 Y6.2628
G01 X64.7371 Y6.1582
G01 X64.6824 Y6.0543
G01 X64.6075 Y5.9625
G01 X62.1885 Y3.5435
G01 X62.1027 Y3.4726
G01 X62.0454 Y3.4383
G01 X61.9421 Y3.3959
G01 X61.8290 Y3.3734
G01 X51.4320 Y3.3734
G01 X51.3229 Y3.3948
G01 X51.2600 Y3.4173
G01 X51.1643 Y3.4686
G01 X51.0757 Y3.5404
G01 X50.0534 Y4.5627
G01 X50.0149 Y4.6059
G01 X49.9555 Y4.6948
G01 X49.9078 Y4.8099
G00 Z4.0000
G00 X53.0140 Y6.0748
G01 F60.00
G01 Z-0.1500
G01 F120.00
G01 X52.8286 Y6.0933
G01 X52.6583 Y6.1448
G01 X52.5669 Y6.1880
G01 X52.4142 Y6.2911
G01 X52.2848 Y6.4216
G01 X52.1837 Y6.5740
G01 X52.1150 Y6.7397
G01 X52.0784 Y6.9217
G01 X52.0784 Y7.1083
G01 X52.1131 Y7.2837
G01 X52.1472 Y7.3788
G01 X52.2348 Y7.5410
G01 X52.3492 Y7.6798
G01 X52.4940 Y7.7982
G01 X52.6521 Y7.8827
G01 X52.8286 Y7.9367
G01 X52.9263 Y7.9510
G01 X53.1017 Y7.9510
G01 X53.2893 Y7.9140
G01 X53.3778 Y7.8818
G01 X53.5326 Y7.7991
G01 X53.6788 Y7.6798
G01 X53.7981 Y7.5336
G01 X53.8808 Y7.3788
G01 X53.9123 Y7.2921
G01 X53.9496 Y7.1083
G01 X53.9542 Y7.0150
G01 X53.9487 Y6.9154
G01 X54.8888 Y5.9752
G01 X60.4102 Y5.9752
G01 X62.3295 Y7.8946
G01 X62.3329 Y52.1623
G01 X62.3549 Y52.2711
G01 X62.3973 Y52.3744
G01 X62.4316 Y52.4317
G01 X62.5025 Y52.5175
G01 X65.9315 Y55.9465
G01 X66.0247 Y56.0223
G01 X66.1190 Y56.0727
G01 X66.1734 Y56.0926
G01 X66.2910 Y56.1166
G01 X67.1145 Y56.1195
G01 X67.2048 Y56.2260
G01 X67.2776 Y56.2926
G01 X67.4399 Y56.4016
G01 X67.6182 Y56.4758
G01 X67.8065 Y56.5139
G01 X69.1080 Y56.5192
G01 X69.2968 Y56.5009
G01 X69.3978 Y56.4758
G01 X69.4910 Y56.4420
G01 X69.6558 Y56.3538
G01 X69.7395 Y56.2915
G01 X69.8705 Y56.1605
G01 X69.9328 Y56.0768
G01 X69.9833 Y55.9918
G01 X70.0542 Y55.8206
G01 X70.0788 Y55.7241
G01 X70.0938 Y55.6216
G01 X70.0934 Y55.4318
G01 X70.0782 Y55.3315
G01 X70.0244 Y55.1542
G01 X69.9791 Y55.0584
G01 X69.8762 Y54.9043
G01 X69.8082 Y54.8288
G01 X69.7327 Y54.7608
G01 X69.5786 Y54.6579
G01 X69.4890 Y54.6151
G01 X69.3912 Y54.5803
G01 X69.2052 Y54.5436
G01 X67.8154 Y54.5432
G01 X67.7129 Y54.5582
G01 X67.6182 Y54.5822
G01 X67.4399 Y54.6564
G01 X67.2776 Y54.7654
G01 X67.2048 Y54.8320
G01 X67.1145 Y54.9385
G01 X66.5936 Y54.9385
G01 X63.5105 Y51.8554
G01 X63.5105 Y7.6500
G01 X63.5071 Y7.5877
G01 X63.4851 Y7.4789
G01 X63.4385 Y7.3678
G01 X63.3789 Y7.2785
G01 X63.3375 Y7.2325
G01 X61.0722 Y4.9672
G01 X60.9864 Y4.8963
G01 X60.9291 Y4.8620
G01 X60.8259 Y4.8196
G01 X60.7170 Y4.7977
G01 X54.6443 Y4.7943
G01 X54.5334 Y4.8049
G01 X54.4143 Y4.8410
G01 X54.3200 Y4.8914
G01 X54.2663 Y4.9312
G01 X53.1136 Y6.0803
G01 X53.0140 Y6.0748
G00 Z4.0000
G00 X55.2853 Y6.1141
G01 F60.00
G01 Z-0.1500
G01 F120.00
G01 X55.1130 Y6.1847
G01 X54.9606 Y6.2858
G01 X54.8248 Y6.4216
G01 X54.7237 Y6.5740
G01 X54.6550 Y6.7397
G01 X54.6184 Y6.9217
G01 X54.6184 Y7.1083
G01 X54.6550 Y7.2903
G01 X54.7237 Y7.4560
G01 X54.8248 Y7.6084
G01 X54.9606 Y7.7442
G01 X55.1130 Y7.8453
G01 X55.2787 Y7.9140
G01 X55.4607 Y7.9506
G01 X55.6473 Y7.9506
G01 X55.8293 Y7.9140
G01 X55.9950 Y7.8453
G01 X56.1474 Y7.7442
G01 X56.2832 Y7.6084
G01 X56.3843 Y7.4560
G01 X56.4530 Y7.2903
G01 X56.4896 Y7.1083
G01 X56.4896 Y6.9217
G01 X56.4530 Y6.7397
G01 X56.3843 Y6.5740
G01 X56.2832 Y6.4216
G01 X56.1474 Y6.2858
G01 X55.9950 Y6.1847
G01 X55.8293 Y6.1160
G01 X55.6473 Y6.0794
G01 X55.4607 Y6.0794
G01 X55.2853 Y6.1141
G00 Z4.0000
G00 X57.2155 Y6.0794
G01 F60.00
G01 Z-0.1500
G01 F120.00
G01 X57.1717 Y6.1110
G01 X57.1538 Y6.1650
G01 X57.1538 Y7.8650
G01 X57.1616 Y7.9016
G01 X57.1802 Y7.9288
G01 X57.2074 Y7.9474
G01 X57.2440 Y7.9552
G01 X58.9440 Y7.9552
G01 X58.9806 Y7.9474
G01 X59.0078 Y7.9288
G01 X59.0264 Y7.9016
G01 X59.0342 Y7.8650
G01 X59.0342 Y6.1650
G01 X59.0264 Y6.1284
G01 X59.0078 Y6.1012
G01 X58.9806 Y6.0826
G01 X58.9440 Y6.0748
G01 X57.2155 Y6.0794
G00 Z4.0000
G00 X57.8253 Y8.6541
G01 F60.00
G01 Z-0.1500
G01 F120.00
G01 X57.6530 Y8.7247
G01 X57.5006 Y8.8258
G01 X57.3648 Y8.9616
G01 X57.2637 Y9.1140
G01 X57.1950 Y9.2797
G01 X57.1584 Y9.4617
G01 X57.1584 Y9.6483
G01 X57.1950 Y9.8303
G01 X57.2637 Y9.9960
G01 X57.3648 Y10.1484
G01 X57.5006 Y10.2842
G01 X57.6530 Y10.3853
G01 X57.8187 Y10.4540
G01 X58.0007 Y10.4906
G01 X58.1873 Y10.4906
G01 X58.3693 Y10.4540
G01 X58.5350 Y10.3853
G01 X58.6874 Y10.2842
G01 X58.8232 Y10.1484
G01 X58.9243 Y9.9960
G01 X58.9930 Y9.8303
G01 X59.0296 Y9.6483
G01 X59.0296 Y9.4617
G01 X58.9930 Y9.2797
G01 X58.9243 Y9.1140
G01 X58.8232 Y8.9616
G01 X58.6874 Y8.8258
G01 X58.5350 Y8.7247
G01 X58.3693 Y8.6560
G01 X58.1873 Y8.6194
G01 X58.0007 Y8.6194
G01 X57.8253 Y8.6541
G00 Z4.0000
G00 X55.2853 Y8.6541
G01 F60.00
G01 Z-0.1500
G01 F120.00
G01 X55.1130 Y8.7247
G01 X54.9606 Y8.8258
G01 X54.8248 Y8.9616
G01 X54.7237 Y9.1140
G01 X54.6550 Y9.2797
G01 X54.6184 Y9.4617
G01 X54.6184 Y9.6483
G01 X54.6550 Y9.8303
G01 X54.7237 Y9.9960
G01 X54.8248 Y10.1484
G01 X54.9606 Y10.2842
G01 X55.1130 Y10.3853
G01 X55.2787 Y10.4540
G01 X55.4607 Y10.4906
G01 X55.6473 Y10.4906
G01 X55.8293 Y10.4540
G01 X55.9950 Y10.3853
G01 X56.1474 Y10.2842
G01 X56.2832 Y10.1484
G01 X56.3843 Y9.9960
G01 X56.4530 Y9.8303
G01 X56.4896 Y9.6483
G01 X56.4896 Y9.4617
G01 X56.4530 Y9.2797
G01 X56.3843 Y9.1140
G01 X56.2832 Y8.9616
G01 X56.1474 Y8.8258
G01 X55.9950 Y8.7247
G01 X55.8293 Y8.6560
G01 X55.6473 Y8.6194
G01 X55.4607 Y8.6194
G01 X55.2853 Y8.6541
G00 Z4.0000
G00 X51.2532 Y10.0810
G01 F60.00
G01 Z-0.1500
G01 F120.00
G01 X51.3417 Y9.9169
G01 X51.3957 Y9.7404
G01 X51.4142 Y9.5550
G01 X51.3957 Y9.3696
G01 X51.3417 Y9.1931
G01 X51.2572 Y9.0350
G01 X51.1388 Y8.8902
G01 X50.9940 Y8.7718
G01 X50.8359 Y8.6873
G01 X50.6594 Y8.6333
G01 X50.4740 Y8.6148
G01 X50.2886 Y8.6333
G01 X50.1121 Y8.6873
G01 X49.9540 Y8.7718
G01 X49.8092 Y8.8902
G01 X49.6908 Y9.0350
G01 X49.6063 Y9.1931
G01 X49.5523 Y9.3696
G01 X49.5338 Y9.5550
G01 X49.5511 Y9.7341
G01 X49.6063 Y9.9169
G01 X49.6899 Y10.0736
G01 X49.8061 Y10.2166
G01 X49.8835 Y10.2864
G01 X49.8837 Y10.5044
G01 X49.8953 Y10.6172
G01 X49.9294 Y10.7281
G01 X49.9856 Y10.8317
G01 X50.0565 Y10.9175
G01 X53.8525 Y14.7089
G01 X53.9418 Y14.7685
G01 X54.0022 Y14.7971
G01 X54.1068 Y14.8287
G01 X54.2196 Y14.8403
G01 X58.1354 Y14.8405
G01 X59.7895 Y16.4946
G01 X59.7895 Y62.2600
G01 X59.8001 Y62.3708
G01 X59.8164 Y62.4356
G01 X59.8615 Y62.5422
G01 X59.9209 Y62.6311
G01 X59.9594 Y62.6743
G01 X60.8515 Y63.5665
G01 X60.9373 Y63.6374
G01 X60.9946 Y63.6717
G01 X61.0934 Y63.7126
G01 X61.1582 Y63.7289
G01 X61.2690 Y63.7395
G01 X67.1145 Y63.7395
G01 X67.2078 Y63.8492
G01 X67.3602 Y63.9738
G01 X67.5270 Y64.0629
G01 X67.6182 Y64.0958
G01 X67.7192 Y64.1209
G01 X67.9080 Y64.1392
G01 X69.1080 Y64.1392
G01 X69.2968 Y64.1209
G01 X69.3978 Y64.0958
G01 X69.5708 Y64.0243
G01 X69.6617 Y63.9698
G01 X69.8082 Y63.8492
G01 X69.9288 Y63.7027
G01 X69.9833 Y63.6118
G01 X70.0548 Y63.4388
G01 X70.0929 Y63.2505
G01 X70.0981 Y63.1446
G01 X70.0788 Y62.9538
G01 X70.0244 Y62.7742
G01 X69.9791 Y62.6784
G01 X69.8716 Y62.5186
G01 X69.7395 Y62.3865
G01 X69.6544 Y62.3233
G01 X69.4890 Y62.2351
G01 X69.3055 Y62.1788
G01 X69.2052 Y62.1636
G01 X69.1080 Y62.1588
G01 X67.9080 Y62.1588
G01 X67.7192 Y62.1771
G01 X67.6182 Y62.2022
G01 X67.5270 Y62.2351
G01 X67.3602 Y62.3242
G01 X67.2078 Y62.4488
G01 X67.1145 Y62.5585
G01 X61.5136 Y62.5585
G01 X60.9705 Y62.0154
G01 X60.9705 Y16.2500
G01 X60.9587 Y16.1328
G01 X60.9271 Y16.0282
G01 X60.8985 Y15.9678
G01 X60.8389 Y15.8785
G01 X60.7975 Y15.8325
G01 X58.7975 Y13.8325
G01 X58.7057 Y13.7576
G01 X58.6018 Y13.7029
G01 X58.4972 Y13.6713
G01 X58.3800 Y13.6595
G01 X54.4686 Y13.6595
G01 X51.0812 Y10.2722
G01 X51.1979 Y10.1548
G01 X51.2532 Y10.0810
G00 Z4.0000
G00 X55.6333 Y12.9924
G01 F60.00
G01 Z-0.1500
G01 F120.00
G01 X55.7290 Y13.0437
G01 X55.7879 Y13.0651
G01 X55.8482 Y13.0799
G01 X55.9546 Y13.0903
G01 X59.1354 Y13.0905
G01 X61.0595 Y15.0146
G01 X61.0595 Y59.7200
G01 X61.0629 Y59.7823
G01 X61.0849 Y59.8911
G01 X61.1315 Y60.0022
G01 X61.1909 Y60.0911
G01 X61.2294 Y60.1343
G01 X62.1215 Y61.0265
G01 X62.1675 Y61.0679
G01 X62.2568 Y61.1275
G01 X62.3172 Y61.1561
G01 X62.4218 Y61.1877
G01 X62.5390 Y61.1995
G01 X67.1145 Y61.1995
G01 X67.2078 Y61.3092
G01 X67.3602 Y61.4338
G01 X67.5270 Y61.5229
G01 X67.6182 Y61.5558
G01 X67.7192 Y61.5809
G01 X67.9080 Y61.5992
G01 X69.1080 Y61.5992
G01 X69.2095 Y61.5939
G01 X69.3912 Y61.5577
G01 X69.4910 Y61.5220
G01 X69.6558 Y61.4338
G01 X69.8050 Y61.3122
G01 X69.8762 Y61.2337
G01 X69.9806 Y61.0771
G01 X70.0542 Y60.9006
G01 X70.0799 Y60.7978
G01 X70.0982 Y60.6090
G01 X70.0799 Y60.4202
G01 X70.0542 Y60.3174
G01 X69.9806 Y60.1409
G01 X69.8762 Y59.9843
G01 X69.8050 Y59.9058
G01 X69.6558 Y59.7842
G01 X69.4910 Y59.6960
G01 X69.3912 Y59.6603
G01 X69.2095 Y59.6241
G01 X69.1080 Y59.6188
G01 X67.9080 Y59.6188
G01 X67.7192 Y59.6371
G01 X67.6182 Y59.6622
G01 X67.5270 Y59.6951
G01 X67.3602 Y59.7842
G01 X67.2078 Y59.9088
G01 X67.1145 Y60.0185
G01 X62.7836 Y60.0185
G01 X62.2405 Y59.4754
G01 X62.2371 Y14.7077
G01 X62.2151 Y14.5989
G01 X62.1727 Y14.4956
G01 X62.1384 Y14.4383
G01 X62.0706 Y14.3557
G01 X59.7975 Y12.0825
G01 X59.7515 Y12.0411
G01 X59.6622 Y11.9815
G01 X59.5471 Y11.9338
G01 X59.4423 Y11.9129
G01 X59.3800 Y11.9095
G01 X56.2036 Y11.9095
G01 X53.9487 Y9.6546
G01 X53.9542 Y9.5550
G01 X53.9491 Y9.4585
G01 X53.9149 Y9.2863
G01 X53.8817 Y9.1931
G01 X53.8410 Y9.1079
G01 X53.7432 Y8.9616
G01 X53.6074 Y8.8258
G01 X53.4550 Y8.7247
G01 X53.2911 Y8.6567
G01 X53.1931 Y8.6321
G01 X53.0140 Y8.6148
G01 X52.8349 Y8.6321
G01 X52.7369 Y8.6567
G01 X52.5730 Y8.7247
G01 X52.4206 Y8.8258
G01 X52.2848 Y8.9616
G01 X52.1837 Y9.1140
G01 X52.1150 Y9.2797
G01 X52.0784 Y9.4617
G01 X52.0784 Y9.6483
G01 X52.1150 Y9.8303
G01 X52.1837 Y9.9960
G01 X52.2848 Y10.1484
G01 X52.4206 Y10.2842
G01 X52.5669 Y10.3820
G01 X52.6521 Y10.4227
G01 X52.7453 Y10.4559
G01 X52.9175 Y10.4901
G01 X53.0140 Y10.4952
G01 X53.1136 Y10.4897
G01 X55.5415 Y12.9175
G01 X55.6333 Y12.9924
G00 Z4.0000
G00 X54.2300 Y21.7917
G01 F60.00
G01 Z-0.1500
G01 F120.00
G01 X54.2099 Y21.9956
G01 X54.2151 Y22.1070
G01 X54.2312 Y22.2147
G01 X54.2556 Y22.3122
G01 X54.2946 Y22.4212
G01 X54.3912 Y22.6019
G01 X54.4602 Y22.6950
G01 X54.6050 Y22.8398
G01 X54.7095 Y22.9157
G01 X54.7095 Y24.8050
G01 X54.6091 Y24.9088
G01 X54.5129 Y25.0543
G01 X54.4481 Y25.2119
G01 X54.4138 Y25.3872
G01 X54.4138 Y25.5528
G01 X54.4273 Y25.6456
G01 X54.4495 Y25.7326
G01 X54.5129 Y25.8857
G01 X54.5624 Y25.9682
G01 X54.6705 Y26.0995
G01 X54.7388 Y26.1609
G01 X54.8765 Y26.2529
G01 X54.9635 Y26.2940
G01 X55.1244 Y26.3427
G01 X55.2172 Y26.3562
G01 X55.3527 Y26.3577
G01 X57.5035 Y28.5086
G01 X57.5035 Y34.0148
G01 X57.2244 Y34.0169
G01 X57.1802 Y34.0412
G01 X57.1559 Y34.0854
G01 X57.1584 Y35.8335
G01 X57.1899 Y35.8772
G01 X57.2394 Y35.8951
G01 X58.9725 Y35.8906
G01 X59.0162 Y35.8591
G01 X59.0341 Y35.8096
G01 X59.0333 Y34.0921
G01 X59.0105 Y34.0440
G01 X58.9636 Y34.0169
G01 X58.6845 Y34.0148
G01 X58.6845 Y28.2640
G01 X58.6739 Y28.1532
G01 X58.6576 Y28.0884
G01 X58.6377 Y28.0340
G01 X58.5873 Y27.9397
G01 X58.5115 Y27.8465
G01 X56.1877 Y25.5227
G01 X56.1862 Y25.3872
G01 X56.1739 Y25.3007
G01 X56.1215 Y25.1272
G01 X56.0376 Y24.9718
G01 X55.9852 Y24.9019
G01 X55.8905 Y24.8050
G01 X55.8905 Y22.9157
G01 X55.9885 Y22.8452
G01 X56.0709 Y22.7709
G01 X56.1452 Y22.6885
G01 X56.2088 Y22.6019
G01 X56.3054 Y22.4212
G01 X56.3419 Y22.3207
G01 X56.3688 Y22.2147
G01 X56.3849 Y22.1070
G01 X56.3902 Y22.0000
G01 X56.3849 Y21.8930
G01 X56.3688 Y21.7853
G01 X56.3444 Y21.6878
G01 X56.3054 Y21.5788
G01 X56.2608 Y21.4848
G01 X56.2039 Y21.3907
G01 X56.0739 Y21.2323
G01 X55.9885 Y21.1548
G01 X55.8178 Y21.0407
G01 X55.7131 Y20.9912
G01 X55.5170 Y20.9317
G01 X55.4070 Y20.9151
G01 X55.3000 Y20.9098
G01 X55.1976 Y20.9147
G01 X55.0853 Y20.9312
G01 X54.8869 Y20.9912
G01 X54.7848 Y21.0392
G01 X54.6119 Y21.1545
G01 X54.5291 Y21.2291
G01 X54.4545 Y21.3119
G01 X54.3392 Y21.4848
G01 X54.2946 Y21.5788
G01 X54.2581 Y21.6793
G01 X54.2300 Y21.7917
G00 Z4.0000
G00 X46.8281 Y22.2509
G01 F60.00
G01 Z-0.1500
G01 F120.00
G01 X46.8061 Y22.3397
G01 X46.7899 Y22.5046
G01 X46.8073 Y22.6846
G01 X46.8295 Y22.7716
G01 X46.8929 Y22.9247
G01 X46.9931 Y23.0752
G01 X47.1188 Y23.1999
G01 X47.2565 Y23.2919
G01 X47.3372 Y23.3305
G01 X47.5107 Y23.3829
G01 X47.5972 Y23.3952
G01 X47.7327 Y23.3967
G01 X48.5905 Y24.2546
G01 X48.5905 Y30.4154
G01 X47.5134 Y31.4927
G01 X47.4749 Y31.5359
G01 X47.4155 Y31.6248
G01 X47.3704 Y31.7314
G01 X47.3541 Y31.7962
G01 X47.3435 Y31.9070
G01 X47.3435 Y34.2236
G01 X47.2692 Y34.2902
G01 X47.2048 Y34.3616
G01 X47.1028 Y34.5157
G01 X47.0331 Y34.6863
G01 X46.9989 Y34.8585
G01 X46.9939 Y34.9506
G01 X47.0123 Y35.1404
G01 X47.0663 Y35.3169
G01 X47.1508 Y35.4750
G01 X47.2724 Y35.6229
G01 X47.3410 Y35.6845
G01 X47.4869 Y35.7820
G01 X47.6569 Y35.8533
G01 X47.8407 Y35.8906
G01 X48.0273 Y35.8906
G01 X48.2093 Y35.8540
G01 X48.3733 Y35.7862
G01 X48.4600 Y35.7342
G01 X48.5988 Y35.6198
G01 X48.7132 Y35.4810
G01 X48.7652 Y35.3943
G01 X48.8330 Y35.2303
G01 X48.8691 Y35.0515
G01 X48.8742 Y34.9550
G01 X48.8691 Y34.8585
G01 X48.8349 Y34.6863
G01 X48.8017 Y34.5931
G01 X48.7610 Y34.5079
G01 X48.6632 Y34.3616
G01 X48.5988 Y34.2902
G01 X48.5245 Y34.2236
G01 X48.5245 Y32.1516
G01 X49.6345 Y31.0379
G01 X49.6743 Y30.9843
G01 X49.7256 Y30.8881
G01 X49.7472 Y30.8271
G01 X49.7681 Y30.7223
G01 X49.7686 Y23.9520
G01 X49.7472 Y23.8429
G01 X49.7256 Y23.7819
G01 X49.6743 Y23.6857
G01 X49.6345 Y23.6321
G01 X48.5677 Y22.5617
G01 X48.5662 Y22.4262
G01 X48.5527 Y22.3334
G01 X48.5040 Y22.1725
G01 X48.4629 Y22.0855
G01 X48.3709 Y21.9478
G01 X48.3095 Y21.8795
G01 X48.2412 Y21.8181
G01 X48.1035 Y21.7261
G01 X47.9381 Y21.6571
G01 X47.7628 Y21.6228
G01 X47.6756 Y21.6189
G01 X47.5107 Y21.6351
G01 X47.3372 Y21.6875
G01 X47.1818 Y21.7714
G01 X47.0537 Y21.8765
G01 X46.9948 Y21.9409
G01 X46.8971 Y22.0855
G01 X46.8281 Y22.2509
G00 Z4.0000
G00 X46.5741 Y17.6789
G01 F60.00
G01 Z-0.1500
G01 F120.00
G01 X46.5406 Y17.8454
G01 X46.5358 Y17.9370
G01 X46.5406 Y18.0286
G01 X46.5741 Y18.1951
G01 X46.6054 Y18.2817
G01 X46.6843 Y18.4293
G01 X46.7408 Y18.5051
G01 X46.8598 Y18.6239
G01 X47.0025 Y18.7199
G01 X47.1679 Y18.7889
G01 X47.3376 Y18.8228
G01 X47.5088 Y18.8232
G01 X47.6841 Y18.7889
G01 X47.8417 Y18.7241
G01 X47.9872 Y18.6279
G01 X48.0910 Y18.5275
G01 X48.3128 Y18.5275
G01 X52.4235 Y22.6382
G01 X52.4235 Y34.2236
G01 X52.3492 Y34.2902
G01 X52.2848 Y34.3616
G01 X52.1870 Y34.5079
G01 X52.1463 Y34.5931
G01 X52.0911 Y34.7759
G01 X52.0780 Y34.8673
G01 X52.0780 Y35.0427
G01 X52.1150 Y35.2303
G01 X52.1870 Y35.4021
G01 X52.2845 Y35.5480
G01 X52.3461 Y35.6166
G01 X52.4954 Y35.7391
G01 X52.6502 Y35.8218
G01 X52.7369 Y35.8533
G01 X52.9207 Y35.8906
G01 X53.1105 Y35.8901
G01 X53.2827 Y35.8559
G01 X53.3697 Y35.8252
G01 X53.4611 Y35.7820
G01 X53.6074 Y35.6842
G01 X53.6819 Y35.6166
G01 X53.7972 Y35.4750
G01 X53.8808 Y35.3188
G01 X53.9130 Y35.2303
G01 X53.9369 Y35.1341
G01 X53.9542 Y34.9550
G01 X53.9352 Y34.7673
G01 X53.8842 Y34.5993
G01 X53.8452 Y34.5157
G01 X53.7432 Y34.3616
G01 X53.6788 Y34.2902
G01 X53.6045 Y34.2236
G01 X53.6045 Y22.3936
G01 X53.5927 Y22.2765
G01 X53.5611 Y22.1718
G01 X53.5064 Y22.0679
G01 X53.4315 Y21.9761
G01 X48.9749 Y17.5195
G01 X48.8831 Y17.4446
G01 X48.8318 Y17.4143
G01 X48.7330 Y17.3734
G01 X48.6154 Y17.3494
G01 X48.0910 Y17.3465
G01 X47.9941 Y17.2518
G01 X47.9242 Y17.1994
G01 X47.7625 Y17.1130
G01 X47.6801 Y17.0840
G01 X47.5176 Y17.0516
G01 X47.3376 Y17.0512
G01 X47.1719 Y17.0840
G01 X47.0832 Y17.1155
G01 X46.9352 Y17.1945
G01 X46.8598 Y17.2501
G01 X46.7408 Y17.3689
G01 X46.6843 Y17.4447
G01 X46.6054 Y17.5923
G01 X46.5741 Y17.6789
G00 Z4.0000
G00 X42.2878 Y31.4859
G01 F60.00
G01 Z-0.1500
G01 F120.00
G01 X42.2669 Y31.5907
G01 X42.2635 Y31.6530
G01 X42.2635 Y34.2236
G01 X42.1892 Y34.2902
G01 X42.1245 Y34.3620
G01 X42.0270 Y34.5079
G01 X41.9838 Y34.5993
G01 X41.9328 Y34.7673
G01 X41.9184 Y34.8617
G01 X41.9139 Y34.9594
G01 X41.9311 Y35.1341
G01 X41.9863 Y35.3169
G01 X42.0708 Y35.4750
G01 X42.1892 Y35.6198
G01 X42.3340 Y35.7382
G01 X42.4921 Y35.8227
G01 X42.6686 Y35.8767
G01 X42.8540 Y35.8952
G01 X43.0331 Y35.8779
G01 X43.1311 Y35.8533
G01 X43.2950 Y35.7853
G01 X43.4470 Y35.6845
G01 X43.5219 Y35.6166
G01 X43.6372 Y35.4750
G01 X43.7208 Y35.3188
G01 X43.7549 Y35.2237
G01 X43.7896 Y35.0483
G01 X43.7941 Y34.9506
G01 X43.7769 Y34.7759
G01 X43.7217 Y34.5931
G01 X43.6810 Y34.5079
G01 X43.5832 Y34.3616
G01 X43.5188 Y34.2902
G01 X43.4445 Y34.2236
G01 X43.4445 Y31.8976
G01 X47.6273 Y27.7147
G01 X47.7628 Y27.7132
G01 X47.8493 Y27.7009
G01 X48.0228 Y27.6485
G01 X48.1035 Y27.6099
G01 X48.2412 Y27.5179
G01 X48.3669 Y27.3932
G01 X48.4629 Y27.2505
G01 X48.5040 Y27.1635
G01 X48.5527 Y27.0026
G01 X48.5702 Y26.8270
G01 X48.5527 Y26.6514
G01 X48.5040 Y26.4905
G01 X48.4629 Y26.4035
G01 X48.3669 Y26.2608
G01 X48.2462 Y26.1401
G01 X48.0957 Y26.0399
G01 X47.9381 Y25.9751
G01 X47.7684 Y25.9412
G01 X47.5916 Y25.9412
G01 X47.4219 Y25.9751
G01 X47.2565 Y26.0441
G01 X47.1138 Y26.1401
G01 X46.9891 Y26.2658
G01 X46.8971 Y26.4035
G01 X46.8585 Y26.4842
G01 X46.8061 Y26.6577
G01 X46.7938 Y26.7442
G01 X46.7923 Y26.8797
G01 X42.4365 Y31.2355
G01 X42.3951 Y31.2815
G01 X42.3355 Y31.3708
G01 X42.2878 Y31.4859
G00 Z4.0000
G00 X45.2063 Y34.0338
G01 F60.00
G01 Z-0.1500
G01 F120.00
G01 X45.0321 Y34.0873
G01 X44.8740 Y34.1718
G01 X44.7292 Y34.2902
G01 X44.6108 Y34.4350
G01 X44.5263 Y34.5931
G01 X44.4723 Y34.7696
G01 X44.4538 Y34.9550
G01 X44.4723 Y35.1404
G01 X44.5263 Y35.3169
G01 X44.6108 Y35.4750
G01 X44.7292 Y35.6198
G01 X44.8740 Y35.7382
G01 X45.0321 Y35.8227
G01 X45.2086 Y35.8767
G01 X45.3940 Y35.8952
G01 X45.5794 Y35.8767
G01 X45.7559 Y35.8227
G01 X45.9140 Y35.7382
G01 X46.0588 Y35.6198
G01 X46.1772 Y35.4750
G01 X46.2617 Y35.3169
G01 X46.3157 Y35.1404
G01 X46.3342 Y34.9550
G01 X46.3157 Y34.7696
G01 X46.2617 Y34.5931
G01 X46.1772 Y34.4350
G01 X46.0588 Y34.2902
G01 X45.9140 Y34.1718
G01 X45.7559 Y34.0873
G01 X45.5794 Y34.0333
G01 X45.3940 Y34.0148
G01 X45.2063 Y34.0338
G00 Z4.0000
G00 X40.1263 Y36.5738
G01 F60.00
G01 Z-0.1500
G01 F120.00
G01 X39.9521 Y36.6273
G01 X39.7940 Y36.7118
G01 X39.6492 Y36.8302
G01 X39.5308 Y36.9750
G01 X39.4463 Y37.1331
G01 X39.3923 Y37.3096
G01 X39.3738 Y37.4950
G01 X39.3923 Y37.6804
G01 X39.4463 Y37.8569
G01 X39.5308 Y38.0150
G01 X39.6492 Y38.1598
G01 X39.7940 Y38.2782
G01 X39.9521 Y38.3627
G01 X40.1286 Y38.4167
G01 X40.3140 Y38.4352
G01 X40.4994 Y38.4167
G01 X40.6759 Y38.3627
G01 X40.8340 Y38.2782
G01 X40.9788 Y38.1598
G01 X41.0972 Y38.0150
G01 X41.1817 Y37.8569
G01 X41.2357 Y37.6804
G01 X41.2542 Y37.4950
G01 X41.2357 Y37.3096
G01 X41.1817 Y37.1331
G01 X41.0972 Y36.9750
G01 X40.9788 Y36.8302
G01 X40.8340 Y36.7118
G01 X40.6759 Y36.6273
G01 X40.4994 Y36.5733
G01 X40.3140 Y36.5548
G01 X40.1263 Y36.5738
G00 Z4.0000
G00 X37.5863 Y36.5738
G01 F60.00
G01 Z-0.1500
G01 F120.00
G01 X37.4121 Y36.6273
G01 X37.2540 Y36.7118
G01 X37.1092 Y36.8302
G01 X36.9908 Y36.9750
G01 X36.9063 Y37.1331
G01 X36.8523 Y37.3096
G01 X36.8338 Y37.4950
G01 X36.8523 Y37.6804
G01 X36.9063 Y37.8569
G01 X36.9908 Y38.0150
G01 X37.1092 Y38.1598
G01 X37.2540 Y38.2782
G01 X37.4121 Y38.3627
G01 X37.5886 Y38.4167
G01 X37.7740 Y38.4352
G01 X37.9594 Y38.4167
G01 X38.1359 Y38.3627
G01 X38.2940 Y38.2782
G01 X38.4388 Y38.1598
G01 X38.5572 Y38.0150
G01 X38.6417 Y37.8569
G01 X38.6957 Y37.6804
G01 X38.7142 Y37.4950
G01 X38.6957 Y37.3096
G01 X38.6417 Y37.1331
G01 X38.5572 Y36.9750
G01 X38.4388 Y36.8302
G01 X38.2940 Y36.7118
G01 X38.1359 Y36.6273
G01 X37.9594 Y36.5733
G01 X37.7740 Y36.5548
G01 X37.5863 Y36.5738
G00 Z4.0000
G00 X37.5863 Y34.0338
G01 F60.00
G01 Z-0.1500
G01 F120.00
G01 X37.4121 Y34.0873
G01 X37.2540 Y34.1718
G01 X37.1092 Y34.2902
G01 X36.9908 Y34.4350
G01 X36.9063 Y34.5931
G01 X36.8523 Y34.7696
G01 X36.8338 Y34.9550
G01 X36.8523 Y35.1404
G01 X36.9063 Y35.3169
G01 X36.9908 Y35.4750
G01 X37.1092 Y35.6198
G01 X37.2540 Y35.7382
G01 X37.4121 Y35.8227
G01 X37.5886 Y35.8767
G01 X37.7740 Y35.8952
G01 X37.9594 Y35.8767
G01 X38.1359 Y35.8227
G01 X38.2940 Y35.7382
G01 X38.4388 Y35.6198
G01 X38.5572 Y35.4750
G01 X38.6417 Y35.3169
G01 X38.6957 Y35.1404
G01 X38.7142 Y34.9550
G01 X38.6957 Y34.7696
G01 X38.6417 Y34.5931
G01 X38.5572 Y34.4350
G01 X38.4388 Y34.2902
G01 X38.2940 Y34.1718
G01 X38.1359 Y34.0873
G01 X37.9594 Y34.0333
G01 X37.7740 Y34.0148
G01 X37.5863 Y34.0338
G00 Z4.0000
G00 X32.8581 Y34.8239
G01 F60.00
G01 Z-0.1500
G01 F120.00
G01 X32.8361 Y34.9127
G01 X32.8199 Y35.0776
G01 X32.8373 Y35.2576
G01 X32.8894 Y35.4267
G01 X32.9271 Y35.5055
G01 X33.0191 Y35.6432
G01 X33.1438 Y35.7689
G01 X33.2943 Y35.8691
G01 X33.4474 Y35.9325
G01 X33.5320 Y35.9541
G01 X33.7100 Y35.9722
G01 X33.8856 Y35.9547
G01 X34.0528 Y35.9035
G01 X34.2023 Y35.8237
G01 X34.3395 Y35.7115
G01 X34.4517 Y35.5743
G01 X34.5340 Y35.4185
G01 X34.5839 Y35.2513
G01 X34.5962 Y35.1648
G01 X34.5977 Y35.0293
G01 X35.6326 Y33.9945
G01 X38.5184 Y33.9945
G01 X39.3793 Y34.8554
G01 X39.3738 Y34.9550
G01 X39.3784 Y35.0483
G01 X39.4150 Y35.2303
G01 X39.4837 Y35.3960
G01 X39.5901 Y35.5548
G01 X39.7206 Y35.6842
G01 X39.8669 Y35.7820
G01 X39.9583 Y35.8252
G01 X40.1349 Y35.8779
G01 X40.2263 Y35.8910
G01 X40.4017 Y35.8910
G01 X40.5827 Y35.8559
G01 X40.7550 Y35.7853
G01 X40.9074 Y35.6842
G01 X41.0432 Y35.5484
G01 X41.1452 Y35.3943
G01 X41.1842 Y35.3107
G01 X41.2352 Y35.1427
G01 X41.2542 Y34.9550
G01 X41.2357 Y34.7696
G01 X41.1808 Y34.5912
G01 X41.0932 Y34.4290
G01 X41.0379 Y34.3552
G01 X40.9138 Y34.2311
G01 X40.7550 Y34.1247
G01 X40.5893 Y34.0560
G01 X40.4073 Y34.0194
G01 X40.3140 Y34.0148
G01 X40.2144 Y34.0203
G01 X39.1409 Y32.9505
G01 X39.0452 Y32.8855
G01 X38.9848 Y32.8569
G01 X38.8802 Y32.8253
G01 X38.7630 Y32.8135
G01 X35.3880 Y32.8135
G01 X35.2772 Y32.8241
G01 X35.2124 Y32.8404
G01 X35.1058 Y32.8855
G01 X35.0169 Y32.9449
G01 X34.9737 Y32.9834
G01 X33.7627 Y34.1943
G01 X33.6216 Y34.1962
G01 X33.4519 Y34.2301
G01 X33.2865 Y34.2991
G01 X33.1438 Y34.3951
G01 X33.0248 Y34.5139
G01 X32.9683 Y34.5897
G01 X32.8894 Y34.7373
G01 X32.8581 Y34.8239
G00 Z4.0000
G00 X26.3190 Y32.5589
G01 F60.00
G01 Z-0.1500
G01 F120.00
G01 X26.2866 Y32.7214
G01 X26.2818 Y32.8130
G01 X26.2866 Y32.9046
G01 X26.3190 Y33.0671
G01 X26.3891 Y33.2365
G01 X26.4811 Y33.3742
G01 X26.5457 Y33.4455
G01 X26.6738 Y33.5506
G01 X26.7485 Y33.5959
G01 X26.8355 Y33.6370
G01 X26.9940 Y33.6851
G01 X27.1676 Y33.7031
G01 X27.5764 Y33.7031
G01 X27.7413 Y33.6869
G01 X27.8261 Y33.6660
G01 X27.9877 Y33.6001
G01 X28.1382 Y33.4999
G01 X28.2589 Y33.3792
G01 X28.3591 Y33.2287
G01 X28.4225 Y33.0756
G01 X28.4447 Y32.9886
G01 X28.4621 Y32.8086
G01 X28.4574 Y32.7214
G01 X28.4323 Y32.5877
G01 X28.6496 Y32.3705
G01 X31.0875 Y32.3705
G01 X31.0875 Y43.7180
G01 X31.0981 Y43.8288
G01 X31.1144 Y43.8936
G01 X31.1553 Y43.9924
G01 X31.1896 Y44.0497
G01 X31.2574 Y44.1323
G01 X33.3321 Y46.2035
G01 X33.4278 Y46.2685
G01 X33.4882 Y46.2971
G01 X33.5928 Y46.3287
G01 X33.7100 Y46.3405
G01 X47.3854 Y46.3405
G01 X48.8095 Y47.7646
G01 X48.8095 Y50.8940
G01 X48.7632 Y50.9838
G01 X48.7383 Y51.0539
G01 X48.7137 Y51.1780
G01 X48.7098 Y51.2500
G01 X48.7128 Y52.1132
G01 X48.7240 Y52.1890
G01 X48.7632 Y52.3162
G01 X48.7935 Y52.3792
G01 X48.8637 Y52.4844
G01 X48.9656 Y52.5863
G01 X49.0708 Y52.6565
G01 X49.1338 Y52.6868
G01 X49.2039 Y52.7117
G01 X49.3280 Y52.7363
G01 X49.4720 Y52.7363
G01 X49.5961 Y52.7117
G01 X49.6662 Y52.6868
G01 X49.7292 Y52.6565
G01 X49.8344 Y52.5863
G01 X49.9323 Y52.4893
G01 X50.0065 Y52.3792
G01 X50.0393 Y52.3100
G01 X50.0765 Y52.1866
G01 X50.0902 Y52.0500
G01 X50.0869 Y51.1822
G01 X50.0591 Y51.0454
G01 X50.0368 Y50.9838
G01 X49.9905 Y50.8940
G01 X49.9905 Y47.5200
G01 X49.9871 Y47.4577
G01 X49.9651 Y47.3489
G01 X49.9185 Y47.2378
G01 X49.8589 Y47.1485
G01 X49.8175 Y47.1025
G01 X48.0475 Y45.3325
G01 X47.9617 Y45.2616
G01 X47.9044 Y45.2273
G01 X47.8518 Y45.2029
G01 X47.7495 Y45.1719
G01 X47.6300 Y45.1595
G01 X33.9546 Y45.1595
G01 X32.2685 Y43.4734
G01 X32.2685 Y32.3705
G01 X37.0164 Y32.3703
G01 X37.1292 Y32.3587
G01 X37.2338 Y32.3271
G01 X37.2942 Y32.2985
G01 X37.3899 Y32.2335
G01 X41.2395 Y28.3875
G01 X41.2809 Y28.3415
G01 X41.3405 Y28.2522
G01 X41.3882 Y28.1371
G01 X41.4091 Y28.0323
G01 X41.4125 Y27.9700
G01 X41.4125 Y25.0396
G01 X45.3846 Y21.0675
G01 X48.1974 Y21.0675
G01 X49.8835 Y22.7536
G01 X49.8835 Y34.2236
G01 X49.8092 Y34.2902
G01 X49.7448 Y34.3616
G01 X49.6470 Y34.5079
G01 X49.6063 Y34.5931
G01 X49.5511 Y34.7759
G01 X49.5339 Y34.9506
G01 X49.5384 Y35.0483
G01 X49.5731 Y35.2237
G01 X49.6063 Y35.3169
G01 X49.6899 Y35.4736
G01 X49.7501 Y35.5548
G01 X49.8742 Y35.6789
G01 X49.9540 Y35.7382
G01 X50.1102 Y35.8218
G01 X50.2053 Y35.8559
G01 X50.3807 Y35.8906
G01 X50.5617 Y35.8910
G01 X50.6617 Y35.8762
G01 X50.8297 Y35.8252
G01 X50.9211 Y35.7820
G01 X51.0674 Y35.6842
G01 X51.1419 Y35.6166
G01 X51.2532 Y35.4810
G01 X51.3417 Y35.3169
G01 X51.3957 Y35.1404
G01 X51.4142 Y34.9550
G01 X51.3969 Y34.7759
G01 X51.3417 Y34.5931
G01 X51.2581 Y34.4364
G01 X51.1419 Y34.2934
G01 X51.0645 Y34.2236
G01 X51.0645 Y22.5090
G01 X51.0539 Y22.3982
G01 X51.0376 Y22.3334
G01 X50.9967 Y22.2346
G01 X50.9624 Y22.1773
G01 X50.8946 Y22.0947
G01 X48.8199 Y20.0235
G01 X48.7242 Y19.9585
G01 X48.6638 Y19.9299
G01 X48.5592 Y19.8983
G01 X48.4464 Y19.8867
G01 X45.1400 Y19.8865
G01 X45.0228 Y19.8983
G01 X44.9119 Y19.9324
G01 X44.8143 Y19.9846
G01 X44.7257 Y20.0564
G01 X40.4045 Y24.3775
G01 X40.3336 Y24.4633
G01 X40.2993 Y24.5206
G01 X40.2569 Y24.6239
G01 X40.2421 Y24.6842
G01 X40.2317 Y24.7906
G01 X40.2315 Y27.7254
G01 X36.7674 Y31.1895
G01 X28.3427 Y31.1929
G01 X28.2379 Y31.2138
G01 X28.1769 Y31.2354
G01 X28.1228 Y31.2615
G01 X28.0335 Y31.3211
G01 X27.4272 Y31.9228
G01 X27.1676 Y31.9229
G01 X26.9964 Y31.9403
G01 X26.8292 Y31.9915
G01 X26.6797 Y32.0713
G01 X26.5425 Y32.1835
G01 X26.4344 Y32.3148
G01 X26.3514 Y32.4683
G01 X26.3190 Y32.5589
G00 Z4.0000
G00 X23.8138 Y33.0979
G01 F60.00
G01 Z-0.1500
G01 F120.00
G01 X23.7929 Y33.2027
G01 X23.7895 Y33.2650
G01 X23.7895 Y51.2500
G01 X23.8013 Y51.3672
G01 X23.8329 Y51.4718
G01 X23.8615 Y51.5322
G01 X23.9211 Y51.6215
G01 X23.9625 Y51.6675
G01 X28.9625 Y56.6675
G01 X29.0483 Y56.7384
G01 X29.1056 Y56.7727
G01 X29.2089 Y56.8151
G01 X29.3177 Y56.8371
G01 X29.3800 Y56.8405
G01 X48.1300 Y56.8405
G01 X48.2408 Y56.8299
G01 X48.3056 Y56.8136
G01 X48.4044 Y56.7727
G01 X48.4617 Y56.7384
G01 X48.5475 Y56.6675
G01 X52.3575 Y52.8575
G01 X52.4284 Y52.7717
G01 X52.4627 Y52.7144
G01 X52.5051 Y52.6111
G01 X52.5276 Y52.4980
G01 X52.5305 Y52.4060
G01 X52.5768 Y52.3162
G01 X52.6017 Y52.2461
G01 X52.6263 Y52.1220
G01 X52.6302 Y52.0500
G01 X52.6269 Y51.1822
G01 X52.5991 Y51.0454
G01 X52.5768 Y50.9838
G01 X52.5305 Y50.8940
G01 X52.5305 Y47.8100
G01 X52.5271 Y47.7477
G01 X52.5051 Y47.6389
G01 X52.4585 Y47.5278
G01 X52.3989 Y47.4385
G01 X52.3575 Y47.3925
G01 X48.5245 Y43.5594
G01 X48.5245 Y38.2264
G01 X48.5988 Y38.1598
G01 X48.6632 Y38.0884
G01 X48.7610 Y37.9421
G01 X48.8017 Y37.8569
G01 X48.8569 Y37.6741
G01 X48.8741 Y37.4994
G01 X48.8696 Y37.4017
G01 X48.8330 Y37.2197
G01 X48.7643 Y37.0540
G01 X48.6632 Y36.9016
G01 X48.5274 Y36.7658
G01 X48.3750 Y36.6647
G01 X48.2093 Y36.5960
G01 X48.0273 Y36.5594
G01 X47.8407 Y36.5594
G01 X47.6587 Y36.5960
G01 X47.4947 Y36.6638
G01 X47.4080 Y36.7158
G01 X47.2692 Y36.8302
G01 X47.1508 Y36.9750
G01 X47.0672 Y37.1312
G01 X47.0331 Y37.2263
G01 X46.9980 Y37.4073
G01 X46.9980 Y37.5827
G01 X47.0111 Y37.6741
G01 X47.0663 Y37.8569
G01 X47.1070 Y37.9421
G01 X47.1916 Y38.0807
G01 X47.2625 Y38.1665
G01 X47.3435 Y38.2338
G01 X47.3435 Y43.8040
G01 X47.3553 Y43.9212
G01 X47.3869 Y44.0258
G01 X47.4155 Y44.0862
G01 X47.4751 Y44.1755
G01 X47.5165 Y44.2215
G01 X51.3495 Y48.0546
G01 X51.3495 Y50.8940
G01 X51.3032 Y50.9838
G01 X51.2783 Y51.0539
G01 X51.2537 Y51.1780
G01 X51.2498 Y51.2500
G01 X51.2499 Y52.0544
G01 X51.2623 Y52.1803
G01 X51.2834 Y52.2616
G01 X47.8854 Y55.6595
G01 X29.6246 Y55.6595
G01 X24.9705 Y51.0054
G01 X24.9705 Y33.5096
G01 X27.3168 Y31.1632
G01 X27.6548 Y31.1592
G01 X27.8346 Y31.1235
G01 X27.9877 Y31.0601
G01 X28.0643 Y31.0147
G01 X28.1401 Y30.9582
G01 X28.2589 Y30.8392
G01 X28.3549 Y30.6965
G01 X28.3960 Y30.6095
G01 X28.4447 Y30.4486
G01 X28.4622 Y30.2730
G01 X28.4459 Y30.1037
G01 X28.4225 Y30.0104
G01 X28.3591 Y29.8573
G01 X28.2629 Y29.7118
G01 X28.1382 Y29.5861
G01 X27.9955 Y29.4901
G01 X27.8301 Y29.4211
G01 X27.6548 Y29.3868
G01 X27.1720 Y29.3828
G01 X26.9964 Y29.4003
G01 X26.8273 Y29.4524
G01 X26.7485 Y29.4901
G01 X26.6108 Y29.5821
G01 X26.5395 Y29.6467
G01 X26.4303 Y29.7807
G01 X26.3514 Y29.9283
G01 X26.3201 Y30.0149
G01 X26.2866 Y30.1814
G01 X26.2818 Y30.2730
G01 X26.2866 Y30.3646
G01 X26.3117 Y30.4983
G01 X23.9625 Y32.8475
G01 X23.9211 Y32.8935
G01 X23.8615 Y32.9828
G01 X23.8138 Y33.0979
G00 Z4.0000
G00 X9.0270 Y38.2459
G01 F60.00
G01 Z-0.1500
G01 F120.00
G01 X8.9946 Y38.4084
G01 X8.9898 Y38.5000
G01 X8.9946 Y38.5916
G01 X9.0281 Y38.7581
G01 X9.0594 Y38.8447
G01 X9.1383 Y38.9923
G01 X9.1931 Y39.0662
G01 X9.2895 Y39.1650
G01 X9.2895 Y48.3445
G01 X9.2241 Y48.4317
G01 X9.1672 Y48.5258
G01 X9.1226 Y48.6198
G01 X9.0855 Y48.7222
G01 X9.0592 Y48.8263
G01 X9.0431 Y48.9340
G01 X9.0378 Y49.0410
G01 X9.0431 Y49.1480
G01 X9.0592 Y49.2557
G01 X9.0855 Y49.3598
G01 X9.1226 Y49.4622
G01 X9.1672 Y49.5562
G01 X9.2828 Y49.7295
G01 X9.3571 Y49.8119
G01 X9.4395 Y49.8862
G01 X9.6128 Y50.0018
G01 X9.7068 Y50.0464
G01 X9.8092 Y50.0835
G01 X9.9133 Y50.1098
G01 X10.0210 Y50.1259
G01 X10.1280 Y50.1312
G01 X10.2350 Y50.1259
G01 X10.3427 Y50.1098
G01 X10.4468 Y50.0835
G01 X10.5492 Y50.0464
G01 X10.6432 Y50.0018
G01 X10.8165 Y49.8862
G01 X10.8989 Y49.8119
G01 X10.9678 Y49.7360
G01 X11.0368 Y49.6429
G01 X11.0888 Y49.5562
G01 X11.1368 Y49.4541
G01 X11.1968 Y49.2557
G01 X11.2129 Y49.1480
G01 X11.2182 Y49.0410
G01 X11.2129 Y48.9340
G01 X11.1980 Y48.8327
G01 X11.1705 Y48.7222
G01 X11.0915 Y48.5310
G01 X11.0319 Y48.4317
G01 X10.9019 Y48.2733
G01 X10.8165 Y48.1958
G01 X10.6432 Y48.0802
G01 X10.4705 Y48.0069
G01 X10.4705 Y39.1650
G01 X10.5652 Y39.0681
G01 X10.6176 Y38.9982
G01 X10.7015 Y38.8428
G01 X10.7527 Y38.6756
G01 X10.7702 Y38.5000
G01 X10.7654 Y38.4084
G01 X10.7330 Y38.2459
G01 X10.6629 Y38.0765
G01 X10.6176 Y38.0018
G01 X10.5125 Y37.8737
G01 X10.3704 Y37.7572
G01 X10.3704 Y34.8231
G01 X20.2015 Y24.9920
G01 X20.3844 Y25.0101
G01 X20.5493 Y24.9939
G01 X20.6381 Y24.9719
G01 X20.7247 Y24.9406
G01 X20.8708 Y24.8625
G01 X21.0125 Y24.7463
G01 X21.1176 Y24.6182
G01 X21.1629 Y24.5435
G01 X21.2305 Y24.3826
G01 X21.2658 Y24.2084
G01 X21.2662 Y24.0372
G01 X21.2319 Y23.8619
G01 X21.1671 Y23.7043
G01 X21.0669 Y23.5538
G01 X20.9462 Y23.4331
G01 X20.8035 Y23.3371
G01 X20.6426 Y23.2695
G01 X20.5493 Y23.2461
G01 X20.3756 Y23.2299
G01 X20.2044 Y23.2473
G01 X20.0372 Y23.2985
G01 X19.8877 Y23.3783
G01 X19.7537 Y23.4875
G01 X19.6375 Y23.6292
G01 X19.5594 Y23.7753
G01 X19.5281 Y23.8619
G01 X19.5061 Y23.9507
G01 X19.4899 Y24.1156
G01 X19.5080 Y24.2985
G01 X9.5022 Y34.3074
G01 X9.4497 Y34.3850
G01 X9.4253 Y34.4365
G01 X9.3994 Y34.5224
G01 X9.3897 Y34.6156
G01 X9.3896 Y37.7572
G01 X9.3119 Y37.8148
G01 X9.1891 Y37.9388
G01 X9.0929 Y38.0843
G01 X9.0270 Y38.2459
G00 Z4.0000
G00 X14.5629 Y47.3969
G01 F60.00
G01 Z-0.1500
G01 F120.00
G01 X14.5481 Y47.4572
G01 X14.5377 Y47.5636
G01 X14.5375 Y47.9508
G01 X14.1151 Y47.9517
G01 X14.0670 Y47.9745
G01 X14.0399 Y48.0214
G01 X14.0378 Y50.0410
G01 X14.0509 Y50.0878
G01 X14.0812 Y50.1181
G01 X14.1280 Y50.1312
G01 X16.1280 Y50.1312
G01 X16.1748 Y50.1181
G01 X16.2051 Y50.0878
G01 X16.2182 Y50.0410
G01 X16.2161 Y48.0214
G01 X16.1890 Y47.9745
G01 X16.1409 Y47.9517
G01 X15.7185 Y47.9508
G01 X15.7185 Y47.8126
G01 X17.7975 Y45.7335
G01 X17.8733 Y45.6403
G01 X17.9237 Y45.5460
G01 X17.9436 Y45.4916
G01 X17.9679 Y45.3695
G01 X17.9705 Y44.1650
G01 X18.0709 Y44.0612
G01 X18.1671 Y43.9157
G01 X18.2319 Y43.7581
G01 X18.2658 Y43.5884
G01 X18.2654 Y43.4084
G01 X18.2330 Y43.2459
G01 X18.2040 Y43.1635
G01 X18.1176 Y43.0018
G01 X18.0652 Y42.9319
G01 X17.9705 Y42.8350
G01 X17.9705 Y31.7446
G01 X25.8391 Y23.8711
G01 X25.8985 Y23.7822
G01 X25.9246 Y23.7281
G01 X25.9462 Y23.6671
G01 X25.9676 Y23.5580
G01 X25.9705 Y22.7850
G01 X26.0652 Y22.6881
G01 X26.1176 Y22.6182
G01 X26.2015 Y22.4628
G01 X26.2527 Y22.2956
G01 X26.2701 Y22.1156
G01 X26.2539 Y21.9507
G01 X26.2319 Y21.8619
G01 X26.2006 Y21.7753
G01 X26.1217 Y21.6277
G01 X26.0652 Y21.5519
G01 X25.9462 Y21.4331
G01 X25.8708 Y21.3775
G01 X25.7228 Y21.2985
G01 X25.5556 Y21.2473
G01 X25.3800 Y21.2298
G01 X25.2044 Y21.2473
G01 X25.0435 Y21.2960
G01 X24.8877 Y21.3783
G01 X24.7537 Y21.4875
G01 X24.6424 Y21.6218
G01 X24.5929 Y21.7043
G01 X24.5295 Y21.8574
G01 X24.5073 Y21.9444
G01 X24.4938 Y22.0372
G01 X24.4942 Y22.2084
G01 X24.5281 Y22.3781
G01 X24.5929 Y22.5357
G01 X24.6891 Y22.6812
G01 X24.7895 Y22.7850
G01 X24.7895 Y23.2554
G01 X16.9625 Y31.0825
G01 X16.8876 Y31.1743
G01 X16.8354 Y31.2719
G01 X16.8013 Y31.3828
G01 X16.7895 Y31.5000
G01 X16.7895 Y42.8350
G01 X16.6948 Y42.9319
G01 X16.6424 Y43.0018
G01 X16.5585 Y43.1572
G01 X16.5073 Y43.3244
G01 X16.4898 Y43.5000
G01 X16.5073 Y43.6756
G01 X16.5585 Y43.8428
G01 X16.6424 Y43.9982
G01 X16.6948 Y44.0681
G01 X16.7895 Y44.1650
G01 X16.7895 Y45.0714
G01 X14.7105 Y47.1505
G01 X14.6691 Y47.1965
G01 X14.6095 Y47.2858
G01 X14.5629 Y47.3969
G00 Z4.0000
G00 X16.9495 Y54.9554
G01 F60.00
G01 Z-0.1500
G01 F120.00
G01 X16.9057 Y54.9870
G01 X16.8878 Y55.0410
G01 X16.8878 Y58.0410
G01 X16.9058 Y58.0951
G01 X16.9396 Y58.1226
G01 X16.9780 Y58.1312
G01 X19.4780 Y58.1312
G01 X19.5321 Y58.1132
G01 X19.5596 Y58.0794
G01 X19.5682 Y58.0410
G01 X19.5682 Y55.0410
G01 X19.5502 Y54.9869
G01 X19.5164 Y54.9594
G01 X19.4780 Y54.9508
G01 X16.9495 Y54.9554
G00 Z4.0000
G00 X21.0281 Y56.1219
G01 F60.00
G01 Z-0.1500
G01 F120.00
G01 X20.9942 Y56.2916
G01 X20.9946 Y56.4716
G01 X21.0270 Y56.6341
G01 X21.0560 Y56.7165
G01 X21.1383 Y56.8723
G01 X21.2505 Y57.0095
G01 X21.3892 Y57.1225
G01 X21.4643 Y57.1671
G01 X21.6174 Y57.2305
G01 X21.7916 Y57.2658
G01 X21.9628 Y57.2662
G01 X22.0556 Y57.2527
G01 X22.1426 Y57.2305
G01 X22.2957 Y57.1671
G01 X22.3782 Y57.1176
G01 X22.5063 Y57.0125
G01 X22.6228 Y56.8704
G01 X27.7498 Y56.8704
G01 X29.7294 Y58.8498
G01 X29.7969 Y58.9052
G01 X29.8457 Y58.9345
G01 X29.9283 Y58.9685
G01 X30.0205 Y58.9875
G01 X47.1769 Y58.9904
G01 X48.9842 Y60.7978
G01 X49.0960 Y60.8813
G01 X49.1929 Y60.9215
G01 X49.3310 Y60.9414
G01 X54.4980 Y60.9414
G01 X54.5956 Y60.9316
G01 X54.6897 Y60.9023
G01 X54.7681 Y60.8602
G01 X54.8448 Y60.7978
G01 X56.5390 Y59.1036
G01 X56.6653 Y59.1378
G01 X56.7776 Y59.1543
G01 X56.9824 Y59.1543
G01 X57.0883 Y59.1390
G01 X57.1988 Y59.1115
G01 X57.3012 Y59.0744
G01 X57.4819 Y58.9778
G01 X57.5685 Y58.9142
G01 X57.6509 Y58.8399
G01 X57.7198 Y58.7640
G01 X57.7888 Y58.6709
G01 X57.8408 Y58.5842
G01 X57.8888 Y58.4821
G01 X57.9488 Y58.2837
G01 X57.9649 Y58.1760
G01 X57.9701 Y58.0734
G01 X57.9644 Y57.9577
G01 X57.9488 Y57.8543
G01 X57.9225 Y57.7502
G01 X57.8435 Y57.5590
G01 X57.7839 Y57.4597
G01 X57.6509 Y57.2981
G01 X57.4893 Y57.1651
G01 X57.3704 Y57.0963
G01 X57.3704 Y56.7428
G01 X57.5125 Y56.6263
G01 X57.6176 Y56.4982
G01 X57.6629 Y56.4235
G01 X57.7330 Y56.2541
G01 X57.7539 Y56.1693
G01 X57.7701 Y56.0044
G01 X57.7527 Y55.8244
G01 X57.7015 Y55.6572
G01 X57.6217 Y55.5077
G01 X57.5104 Y55.3715
G01 X57.5104 Y52.5356
G01 X57.5962 Y52.4297
G01 X57.6568 Y52.3162
G01 X57.6965 Y52.1866
G01 X57.7087 Y52.0837
G01 X57.7561 Y52.0552
G01 X57.8268 Y51.9968
G01 X59.4798 Y50.3436
G01 X59.5392 Y50.2701
G01 X59.5813 Y50.1917
G01 X59.6005 Y50.1381
G01 X59.6179 Y50.0492
G01 X59.6204 Y38.5310
G01 X59.6106 Y38.4334
G01 X59.5813 Y38.3393
G01 X59.5392 Y38.2609
G01 X59.4798 Y38.1874
G01 X59.0073 Y37.7141
G01 X59.0300 Y37.5827
G01 X59.0300 Y37.4073
G01 X59.0152 Y37.3073
G01 X58.9617 Y37.1331
G01 X58.8781 Y36.9764
G01 X58.8179 Y36.8952
G01 X58.6874 Y36.7658
G01 X58.5411 Y36.6680
G01 X58.3693 Y36.5960
G01 X58.1873 Y36.5594
G01 X58.0007 Y36.5594
G01 X57.8187 Y36.5960
G01 X57.6530 Y36.6647
G01 X57.5006 Y36.7658
G01 X57.3701 Y36.8952
G01 X57.2670 Y37.0479
G01 X57.2238 Y37.1393
G01 X57.1723 Y37.3096
G01 X57.1580 Y37.4073
G01 X57.1584 Y37.5883
G01 X57.1931 Y37.7637
G01 X57.2263 Y37.8569
G01 X57.2670 Y37.9421
G01 X57.3648 Y38.0884
G01 X57.4324 Y38.1629
G01 X57.5740 Y38.2782
G01 X57.7302 Y38.3618
G01 X57.8187 Y38.3940
G01 X57.9149 Y38.4179
G01 X58.0896 Y38.4351
G01 X58.1873 Y38.4306
G01 X58.3136 Y38.4082
G01 X58.6396 Y38.7341
G01 X58.6396 Y46.1685
G01 X58.4628 Y46.1338
G01 X58.3756 Y46.1299
G01 X58.2107 Y46.1461
G01 X58.0372 Y46.1985
G01 X57.8818 Y46.2824
G01 X57.7537 Y46.3875
G01 X57.6948 Y46.4519
G01 X57.5929 Y46.6043
G01 X57.5295 Y46.7574
G01 X57.5079 Y46.8420
G01 X57.4898 Y47.0200
G01 X57.5079 Y47.1980
G01 X57.5295 Y47.2826
G01 X57.5929 Y47.4357
G01 X57.6948 Y47.5881
G01 X57.7537 Y47.6525
G01 X57.8818 Y47.7576
G01 X58.0372 Y47.8415
G01 X58.2107 Y47.8939
G01 X58.3756 Y47.9101
G01 X58.4628 Y47.9062
G01 X58.6396 Y47.8715
G01 X58.6396 Y49.7969
G01 X57.5838 Y50.8527
G01 X57.5111 Y50.7652
G01 X57.4593 Y50.7177
G01 X57.3997 Y50.6738
G01 X57.2862 Y50.6132
G01 X57.1503 Y50.5723
G01 X57.0244 Y50.5599
G01 X56.9522 Y50.5631
G01 X56.8810 Y50.5740
G01 X56.7600 Y50.6107
G01 X56.6329 Y50.6787
G01 X56.5352 Y50.7589
G01 X56.4877 Y50.8107
G01 X56.4438 Y50.8703
G01 X56.3832 Y50.9838
G01 X56.3435 Y51.1134
G01 X56.3299 Y51.2456
G01 X56.3331 Y52.1178
G01 X56.3583 Y52.2461
G01 X56.3841 Y52.3182
G01 X56.4487 Y52.4371
G01 X56.5296 Y52.5356
G01 X56.5296 Y55.1820
G01 X56.3892 Y55.2575
G01 X56.3138 Y55.3131
G01 X56.1948 Y55.4319
G01 X56.1383 Y55.5077
G01 X56.0594 Y55.6553
G01 X56.0281 Y55.7419
G01 X55.9946 Y55.9084
G01 X55.9898 Y56.0000
G01 X55.9946 Y56.0916
G01 X56.0270 Y56.2541
G01 X56.0971 Y56.4235
G01 X56.1424 Y56.4982
G01 X56.2475 Y56.6263
G01 X56.3896 Y56.7428
G01 X56.3896 Y57.0963
G01 X56.2707 Y57.1651
G01 X56.1850 Y57.2292
G01 X56.1061 Y57.3013
G01 X55.9761 Y57.4597
G01 X55.9192 Y57.5538
G01 X55.8746 Y57.6478
G01 X55.8375 Y57.7502
G01 X55.8112 Y57.8543
G01 X55.7951 Y57.9620
G01 X55.7899 Y58.0646
G01 X55.7951 Y58.1760
G01 X55.8100 Y58.2773
G01 X55.8454 Y58.4100
G01 X54.2949 Y59.9606
G01 X52.0055 Y59.9606
G01 X52.1781 Y59.8455
G01 X52.2609 Y59.7709
G01 X52.3355 Y59.6881
G01 X52.4493 Y59.5178
G01 X52.4954 Y59.4212
G01 X52.5344 Y59.3122
G01 X52.5744 Y59.1113
G01 X52.5802 Y59.0000
G01 X52.5744 Y58.8887
G01 X52.5344 Y58.6878
G01 X52.4988 Y58.5869
G01 X52.4508 Y58.4848
G01 X52.3939 Y58.3907
G01 X52.2639 Y58.2323
G01 X52.1785 Y58.1548
G01 X52.0805 Y58.0843
G01 X52.0805 Y56.8665
G01 X52.2228 Y56.8215
G01 X52.3782 Y56.7376
G01 X52.5095 Y56.6295
G01 X52.6217 Y56.4923
G01 X52.7015 Y56.3428
G01 X52.7527 Y56.1756
G01 X52.7702 Y56.0000
G01 X52.7520 Y55.8215
G01 X54.8268 Y53.7468
G01 X54.8901 Y53.6687
G01 X54.9485 Y53.5447
G01 X54.9617 Y53.4913
G01 X54.9704 Y53.4000
G01 X54.9704 Y52.5356
G01 X55.0562 Y52.4297
G01 X55.1168 Y52.3162
G01 X55.1565 Y52.1866
G01 X55.1702 Y52.0500
G01 X55.1702 Y51.2500
G01 X55.1577 Y51.1197
G01 X55.1391 Y51.0454
G01 X55.0898 Y50.9268
G01 X55.0513 Y50.8629
G01 X54.9704 Y50.7644
G01 X54.9704 Y48.1200
G01 X54.9617 Y48.0287
G01 X54.9313 Y47.9283
G01 X54.8578 Y47.8074
G01 X54.2520 Y47.1985
G01 X54.2701 Y47.0156
G01 X54.2539 Y46.8507
G01 X54.2319 Y46.7619
G01 X54.1629 Y46.5965
G01 X54.0709 Y46.4588
G01 X54.0095 Y46.3905
G01 X53.9412 Y46.3291
G01 X53.8035 Y46.2371
G01 X53.6381 Y46.1681
G01 X53.5493 Y46.1461
G01 X53.3844 Y46.1299
G01 X53.2015 Y46.1480
G01 X50.9644 Y43.9109
G01 X50.9649 Y38.2957
G01 X51.0674 Y38.2242
G01 X51.1419 Y38.1566
G01 X51.2532 Y38.0210
G01 X51.3043 Y37.9360
G01 X51.3723 Y37.7721
G01 X51.3957 Y37.6804
G01 X51.4100 Y37.5827
G01 X51.4100 Y37.4073
G01 X51.3749 Y37.2263
G01 X51.3408 Y37.1312
G01 X51.2572 Y36.9750
G01 X51.1388 Y36.8302
G01 X51.0000 Y36.7158
G01 X50.9133 Y36.6638
G01 X50.7493 Y36.5960
G01 X50.5673 Y36.5594
G01 X50.3807 Y36.5594
G01 X50.1987 Y36.5960
G01 X50.0330 Y36.6647
G01 X49.8806 Y36.7658
G01 X49.7448 Y36.9016
G01 X49.6437 Y37.0540
G01 X49.5750 Y37.2197
G01 X49.5380 Y37.4073
G01 X49.5380 Y37.5827
G01 X49.5523 Y37.6804
G01 X49.5757 Y37.7721
G01 X49.6437 Y37.9360
G01 X49.6948 Y38.0210
G01 X49.8061 Y38.1566
G01 X49.8806 Y38.2242
G01 X49.9836 Y38.2960
G01 X49.9836 Y44.1140
G01 X50.0035 Y44.2521
G01 X50.0437 Y44.3490
G01 X50.1272 Y44.4608
G01 X52.5080 Y46.8415
G01 X52.4899 Y47.0244
G01 X52.5061 Y47.1893
G01 X52.5281 Y47.2781
G01 X52.5971 Y47.4435
G01 X52.6891 Y47.5812
G01 X52.7505 Y47.6495
G01 X52.8188 Y47.7109
G01 X52.9565 Y47.8029
G01 X53.1219 Y47.8719
G01 X53.2107 Y47.8939
G01 X53.3756 Y47.9101
G01 X53.5585 Y47.8920
G01 X53.9896 Y48.3231
G01 X53.9896 Y50.7644
G01 X53.9038 Y50.8703
G01 X53.8432 Y50.9838
G01 X53.8035 Y51.1134
G01 X53.7898 Y51.2500
G01 X53.7931 Y52.1178
G01 X53.8183 Y52.2461
G01 X53.8441 Y52.3182
G01 X53.9087 Y52.4371
G01 X53.9896 Y52.5356
G01 X53.9896 Y53.1969
G01 X52.0585 Y55.1280
G01 X51.9628 Y55.1138
G01 X51.7884 Y55.1146
G01 X51.6219 Y55.1481
G01 X51.4643 Y55.2129
G01 X51.3818 Y55.2624
G01 X51.2785 Y55.3450
G01 X51.1678 Y55.3915
G01 X51.0721 Y55.4565
G01 X50.9965 Y55.5321
G01 X50.9616 Y55.5783
G01 X50.9054 Y55.6819
G01 X50.8713 Y55.7928
G01 X50.8595 Y55.9100
G01 X50.8713 Y56.0272
G01 X50.8995 Y56.1225
G01 X50.8995 Y58.0843
G01 X50.8015 Y58.1548
G01 X50.7161 Y58.2323
G01 X50.5861 Y58.3907
G01 X50.5292 Y58.4848
G01 X50.4812 Y58.5869
G01 X50.4456 Y58.6878
G01 X50.4056 Y58.8887
G01 X50.3998 Y59.0000
G01 X50.4056 Y59.1113
G01 X50.4456 Y59.3122
G01 X50.4812 Y59.4131
G01 X50.5307 Y59.5178
G01 X50.6445 Y59.6881
G01 X50.7191 Y59.7709
G01 X50.8019 Y59.8455
G01 X50.9745 Y59.9606
G01 X49.5341 Y59.9606
G01 X47.7236 Y58.1502
G01 X47.6501 Y58.0908
G01 X47.5717 Y58.0487
G01 X47.5181 Y58.0295
G01 X47.4325 Y58.0125
G01 X30.2761 Y58.0096
G01 X28.2997 Y56.0332
G01 X28.1880 Y55.9497
G01 X28.0910 Y55.9095
G01 X27.9529 Y55.8896
G01 X22.6228 Y55.8896
G01 X22.5669 Y55.8138
G01 X22.4705 Y55.7150
G01 X22.4705 Y53.2066
G01 X23.5645 Y52.1089
G01 X23.6295 Y52.0132
G01 X23.6581 Y51.9528
G01 X23.6897 Y51.8482
G01 X23.7013 Y51.7354
G01 X23.7015 Y32.2386
G01 X27.3168 Y28.6232
G01 X27.6604 Y28.6188
G01 X27.8261 Y28.5860
G01 X27.9148 Y28.5545
G01 X28.0628 Y28.4755
G01 X28.1401 Y28.4182
G01 X28.2589 Y28.2992
G01 X28.3549 Y28.1565
G01 X28.4225 Y27.9956
G01 X28.4459 Y27.9023
G01 X28.4622 Y27.7330
G01 X28.4447 Y27.5574
G01 X28.3935 Y27.3902
G01 X28.3145 Y27.2422
G01 X28.2572 Y27.1649
G01 X28.1382 Y27.0461
G01 X28.0628 Y26.9905
G01 X27.9148 Y26.9115
G01 X27.8261 Y26.8800
G01 X27.6604 Y26.8472
G01 X27.0892 Y26.8468
G01 X26.9179 Y26.8800
G01 X26.8273 Y26.9124
G01 X26.6797 Y26.9913
G01 X26.5457 Y27.1005
G01 X26.4344 Y27.2348
G01 X26.3849 Y27.3173
G01 X26.3201 Y27.4749
G01 X26.2862 Y27.6446
G01 X26.2862 Y27.8214
G01 X26.3117 Y27.9583
G01 X22.6935 Y31.5765
G01 X22.6521 Y31.6225
G01 X22.5925 Y31.7118
G01 X22.5639 Y31.7722
G01 X22.5323 Y31.8768
G01 X22.5206 Y31.9940
G01 X22.5206 Y51.4864
G01 X21.4594 Y52.5477
G01 X21.4209 Y52.5909
G01 X21.3615 Y52.6798
G01 X21.3149 Y52.7909
G01 X21.2929 Y52.8997
G01 X21.2895 Y52.9620
G01 X21.2895 Y55.7150
G01 X21.1931 Y55.8138
G01 X21.1383 Y55.8877
G01 X21.0594 Y56.0353
G01 X21.0281 Y56.1219
G00 Z4.0000
G00 X33.5300 Y54.1800
G01 F60.00
G01 Z-0.1500
G01 F120.00
G01 X33.6625 Y54.1318
G01 X33.7768 Y54.0468
G01 X39.0390 Y48.7846
G01 X39.1653 Y48.8188
G01 X39.2776 Y48.8353
G01 X39.4824 Y48.8353
G01 X39.5970 Y48.8183
G01 X39.7931 Y48.7588
G01 X39.8952 Y48.7108
G01 X40.0685 Y48.5952
G01 X40.1539 Y48.5177
G01 X40.2252 Y48.4385
G01 X40.2888 Y48.3519
G01 X40.3408 Y48.2652
G01 X40.3888 Y48.1631
G01 X40.4488 Y47.9647
G01 X40.4649 Y47.8570
G01 X40.4702 Y47.7500
G01 X40.4649 Y47.6430
G01 X40.4488 Y47.5353
G01 X40.4225 Y47.4312
G01 X40.3854 Y47.3288
G01 X40.3408 Y47.2348
G01 X40.2839 Y47.1407
G01 X40.2198 Y47.0550
G01 X40.1477 Y46.9761
G01 X39.9893 Y46.8461
G01 X39.8952 Y46.7892
G01 X39.8012 Y46.7446
G01 X39.6988 Y46.7075
G01 X39.5947 Y46.6812
G01 X39.4870 Y46.6651
G01 X39.3844 Y46.6599
G01 X39.2730 Y46.6651
G01 X39.1653 Y46.6812
G01 X38.9669 Y46.7412
G01 X38.8648 Y46.7892
G01 X38.7781 Y46.8412
G01 X38.6850 Y46.9102
G01 X38.5402 Y47.0550
G01 X38.4712 Y47.1481
G01 X38.3746 Y47.3288
G01 X38.3356 Y47.4378
G01 X38.2956 Y47.6387
G01 X38.2898 Y47.7500
G01 X38.2951 Y47.8570
G01 X38.3100 Y47.9583
G01 X38.3454 Y48.0910
G01 X33.2269 Y53.2096
G01 X31.9702 Y53.2096
G01 X31.9693 Y52.6871
G01 X31.9438 Y52.6362
G01 X31.8929 Y52.6107
G01 X29.8800 Y52.6098
G01 X29.8322 Y52.6235
G01 X29.7976 Y52.6634
G01 X29.7898 Y52.7000
G01 X29.7898 Y54.7000
G01 X29.8035 Y54.7478
G01 X29.8434 Y54.7824
G01 X29.8800 Y54.7902
G01 X31.8929 Y54.7893
G01 X31.9438 Y54.7638
G01 X31.9693 Y54.7129
G01 X31.9702 Y54.1904
G01 X33.4300 Y54.1904
G01 X33.5300 Y54.1800
G00 Z4.0000
G00 X38.5531 Y51.1822
G01 F60.00
G01 Z-0.1500
G01 F120.00
G01 X38.5531 Y52.1178
G01 X38.5809 Y52.2546
G01 X38.6293 Y52.3714
G01 X38.6638 Y52.4297
G01 X38.7094 Y52.4912
G01 X38.8056 Y52.5863
G01 X38.9168 Y52.6598
G01 X39.0354 Y52.7091
G01 X39.1680 Y52.7363
G01 X39.2444 Y52.7401
G01 X39.3766 Y52.7265
G01 X39.5000 Y52.6893
G01 X39.6197 Y52.6262
G01 X39.6812 Y52.5806
G01 X39.7723 Y52.4893
G01 X39.8507 Y52.3714
G01 X39.8991 Y52.2546
G01 X39.9263 Y52.1220
G01 X39.9302 Y51.7948
G01 X42.5296 Y49.1955
G01 X44.7143 Y49.1955
G01 X44.7902 Y49.3000
G01 X44.9350 Y49.4448
G01 X45.0281 Y49.5138
G01 X45.2088 Y49.6104
G01 X45.3178 Y49.6494
G01 X45.4153 Y49.6738
G01 X45.5230 Y49.6899
G01 X45.6300 Y49.6952
G01 X45.7324 Y49.6903
G01 X45.8470 Y49.6733
G01 X45.9488 Y49.6475
G01 X46.0512 Y49.6104
G01 X46.2319 Y49.5138
G01 X46.3181 Y49.4505
G01 X46.4009 Y49.3759
G01 X46.4698 Y49.3000
G01 X46.5339 Y49.2143
G01 X46.5908 Y49.1202
G01 X46.6354 Y49.0262
G01 X46.6725 Y48.9238
G01 X46.6988 Y48.8197
G01 X46.7153 Y48.7074
G01 X46.7153 Y48.5026
G01 X46.7000 Y48.3967
G01 X46.6725 Y48.2862
G01 X46.6388 Y48.1919
G01 X46.5893 Y48.0872
G01 X46.4752 Y47.9165
G01 X46.3977 Y47.8311
G01 X46.2393 Y47.7011
G01 X46.1400 Y47.6415
G01 X45.9488 Y47.5625
G01 X45.8383 Y47.5350
G01 X45.6344 Y47.5149
G01 X45.5230 Y47.5201
G01 X45.4130 Y47.5367
G01 X45.2169 Y47.5962
G01 X45.1148 Y47.6442
G01 X45.0207 Y47.7011
G01 X44.8623 Y47.8311
G01 X44.7848 Y47.9165
G01 X44.7143 Y48.0145
G01 X42.2850 Y48.0145
G01 X42.1678 Y48.0263
G01 X42.0632 Y48.0579
G01 X41.9593 Y48.1126
G01 X41.8675 Y48.1875
G01 X39.4589 Y50.5960
G01 X39.3032 Y50.5628
G01 X39.1768 Y50.5628
G01 X39.1034 Y50.5735
G01 X39.0354 Y50.5909
G01 X38.9186 Y50.6393
G01 X38.7988 Y50.7194
G01 X38.7077 Y50.8107
G01 X38.6302 Y50.9268
G01 X38.5783 Y51.0539
G01 X38.5531 Y51.1822
G00 Z4.0000
G00 X41.0928 Y51.1868
G01 F60.00
G01 Z-0.1500
G01 F120.00
G01 X41.0931 Y52.1178
G01 X41.1183 Y52.2461
G01 X41.1432 Y52.3162
G01 X41.2038 Y52.4297
G01 X41.2477 Y52.4893
G01 X41.3407 Y52.5823
G01 X41.4568 Y52.6598
G01 X41.5839 Y52.7117
G01 X41.7122 Y52.7369
G01 X41.8478 Y52.7369
G01 X41.9846 Y52.7091
G01 X42.1032 Y52.6598
G01 X42.2193 Y52.5823
G01 X42.3123 Y52.4893
G01 X42.3898 Y52.3732
G01 X42.4417 Y52.2461
G01 X42.4672 Y52.1132
G01 X42.4669 Y51.1822
G01 X42.4417 Y51.0539
G01 X42.4168 Y50.9838
G01 X42.3562 Y50.8703
G01 X42.3123 Y50.8107
G01 X42.2212 Y50.7194
G01 X42.1597 Y50.6738
G01 X42.0482 Y50.6141
G01 X41.9761 Y50.5883
G01 X41.8520 Y50.5637
G01 X41.7800 Y50.5598
G01 X41.6497 Y50.5723
G01 X41.5754 Y50.5909
G01 X41.4586 Y50.6393
G01 X41.3929 Y50.6787
G01 X41.2952 Y50.7589
G01 X41.2477 Y50.8107
G01 X41.2038 Y50.8703
G01 X41.1432 Y50.9838
G01 X41.1040 Y51.1110
G01 X41.0928 Y51.1868
G00 Z4.0000
G00 X43.6331 Y51.1822
G01 F60.00
G01 Z-0.1500
G01 F120.00
G01 X43.6331 Y52.1178
G01 X43.6583 Y52.2461
G01 X43.6832 Y52.3162
G01 X43.7438 Y52.4297
G01 X43.7877 Y52.4893
G01 X43.8807 Y52.5823
G01 X43.9968 Y52.6598
G01 X44.1239 Y52.7117
G01 X44.2522 Y52.7369
G01 X44.3878 Y52.7369
G01 X44.5246 Y52.7091
G01 X44.6432 Y52.6598
G01 X44.7593 Y52.5823
G01 X44.8523 Y52.4893
G01 X44.9298 Y52.3732
G01 X44.9817 Y52.2461
G01 X45.0072 Y52.1132
G01 X45.0069 Y51.1822
G01 X44.9817 Y51.0539
G01 X44.9568 Y50.9838
G01 X44.8962 Y50.8703
G01 X44.8523 Y50.8107
G01 X44.7612 Y50.7194
G01 X44.6997 Y50.6738
G01 X44.5882 Y50.6141
G01 X44.5161 Y50.5883
G01 X44.3920 Y50.5637
G01 X44.3200 Y50.5598
G01 X44.1897 Y50.5723
G01 X44.1154 Y50.5909
G01 X43.9986 Y50.6393
G01 X43.9329 Y50.6787
G01 X43.8352 Y50.7589
G01 X43.7877 Y50.8107
G01 X43.7438 Y50.8703
G01 X43.6832 Y50.9838
G01 X43.6583 Y51.0539
G01 X43.6331 Y51.1822
G00 Z4.0000
G00 X46.1731 Y51.1822
G01 F60.00
G01 Z-0.1500
G01 F120.00
G01 X46.1731 Y52.1178
G01 X46.1983 Y52.2461
G01 X46.2232 Y52.3162
G01 X46.2838 Y52.4297
G01 X46.3277 Y52.4893
G01 X46.4207 Y52.5823
G01 X46.5368 Y52.6598
G01 X46.6639 Y52.7117
G01 X46.7922 Y52.7369
G01 X46.9278 Y52.7369
G01 X47.0646 Y52.7091
G01 X47.1832 Y52.6598
G01 X47.2993 Y52.5823
G01 X47.3923 Y52.4893
G01 X47.4698 Y52.3732
G01 X47.5217 Y52.2461
G01 X47.5472 Y52.1132
G01 X47.5469 Y51.1822
G01 X47.5217 Y51.0539
G01 X47.4968 Y50.9838
G01 X47.4362 Y50.8703
G01 X47.3923 Y50.8107
G01 X47.3012 Y50.7194
G01 X47.2397 Y50.6738
G01 X47.1282 Y50.6141
G01 X47.0561 Y50.5883
G01 X46.9320 Y50.5637
G01 X46.8600 Y50.5598
G01 X46.7297 Y50.5723
G01 X46.6554 Y50.5909
G01 X46.5386 Y50.6393
G01 X46.4729 Y50.6787
G01 X46.3752 Y50.7589
G01 X46.3277 Y50.8107
G01 X46.2838 Y50.8703
G01 X46.2232 Y50.9838
G01 X46.1983 Y51.0539
G01 X46.1731 Y51.1822
G00 Z4.0000
G00 X44.5612 Y43.3103
G01 F60.00
G01 Z-0.1500
G01 F120.00
G01 X44.5451 Y43.4180
G01 X44.5398 Y43.5250
G01 X44.5451 Y43.6320
G01 X44.5612 Y43.7397
G01 X44.6212 Y43.9381
G01 X44.6692 Y44.0402
G01 X44.7212 Y44.1269
G01 X44.7848 Y44.2135
G01 X44.8591 Y44.2959
G01 X45.0207 Y44.4289
G01 X45.1148 Y44.4858
G01 X45.2088 Y44.5304
G01 X45.3112 Y44.5675
G01 X45.4153 Y44.5938
G01 X45.5230 Y44.6099
G01 X45.6300 Y44.6152
G01 X45.7370 Y44.6099
G01 X45.8447 Y44.5938
G01 X46.0431 Y44.5338
G01 X46.1452 Y44.4858
G01 X46.2319 Y44.4338
G01 X46.3185 Y44.3702
G01 X46.4009 Y44.2959
G01 X46.5339 Y44.1343
G01 X46.5908 Y44.0402
G01 X46.6354 Y43.9462
G01 X46.6725 Y43.8438
G01 X46.6988 Y43.7397
G01 X46.7149 Y43.6320
G01 X46.7202 Y43.5250
G01 X46.7149 Y43.4180
G01 X46.6988 Y43.3103
G01 X46.6388 Y43.1119
G01 X46.5908 Y43.0098
G01 X46.5388 Y42.9231
G01 X46.4752 Y42.8365
G01 X46.4009 Y42.7541
G01 X46.2393 Y42.6211
G01 X46.1452 Y42.5642
G01 X46.0512 Y42.5196
G01 X45.8844 Y42.4661
G01 X45.8849 Y38.2957
G01 X45.9938 Y38.2189
G01 X46.1179 Y38.0948
G01 X46.1781 Y38.0136
G01 X46.2617 Y37.8569
G01 X46.2949 Y37.7637
G01 X46.3296 Y37.5883
G01 X46.3341 Y37.4906
G01 X46.3169 Y37.3159
G01 X46.2923 Y37.2179
G01 X46.2243 Y37.0540
G01 X46.1235 Y36.9020
G01 X46.0556 Y36.8271
G01 X45.9140 Y36.7118
G01 X45.7578 Y36.6282
G01 X45.6627 Y36.5941
G01 X45.4905 Y36.5599
G01 X45.3007 Y36.5594
G01 X45.1187 Y36.5960
G01 X44.9530 Y36.6647
G01 X44.8006 Y36.7658
G01 X44.6648 Y36.9016
G01 X44.5637 Y37.0540
G01 X44.4950 Y37.2197
G01 X44.4589 Y37.3985
G01 X44.4539 Y37.4994
G01 X44.4723 Y37.6804
G01 X44.4957 Y37.7721
G01 X44.5637 Y37.9360
G01 X44.6148 Y38.0210
G01 X44.7261 Y38.1566
G01 X44.8006 Y38.2242
G01 X44.9036 Y38.2960
G01 X44.9036 Y42.7136
G01 X44.7848 Y42.8365
G01 X44.6692 Y43.0098
G01 X44.6212 Y43.1119
G01 X44.5612 Y43.3103
G00 Z4.0000
G00 X38.3100 Y42.0417
G01 F60.00
G01 Z-0.1500
G01 F120.00
G01 X38.2899 Y42.2456
G01 X38.2951 Y42.3570
G01 X38.3117 Y42.4670
G01 X38.3712 Y42.6631
G01 X38.4192 Y42.7652
G01 X38.4761 Y42.8593
G01 X38.5402 Y42.9450
G01 X38.6850 Y43.0898
G01 X38.7707 Y43.1539
G01 X38.8700 Y43.2135
G01 X39.0593 Y43.2919
G01 X39.1653 Y43.3188
G01 X39.2776 Y43.3353
G01 X39.4824 Y43.3353
G01 X39.5947 Y43.3188
G01 X39.6988 Y43.2925
G01 X39.8012 Y43.2554
G01 X39.8952 Y43.2108
G01 X39.9893 Y43.1539
G01 X40.0750 Y43.0898
G01 X40.1509 Y43.0209
G01 X40.2252 Y42.9385
G01 X40.2888 Y42.8519
G01 X40.3527 Y42.7404
G01 X40.6344 Y42.7403
G01 X40.7276 Y42.7306
G01 X40.8572 Y42.6845
G01 X40.9426 Y42.6278
G01 X43.2008 Y40.3728
G01 X43.2632 Y40.2961
G01 X43.3053 Y40.2177
G01 X43.3245 Y40.1641
G01 X43.3424 Y40.0697
G01 X43.3444 Y38.2960
G01 X43.4474 Y38.2242
G01 X43.5188 Y38.1598
G01 X43.6372 Y38.0150
G01 X43.6852 Y37.9343
G01 X43.7523 Y37.7721
G01 X43.7896 Y37.5883
G01 X43.7896 Y37.4017
G01 X43.7523 Y37.2179
G01 X43.7208 Y37.1312
G01 X43.6381 Y36.9764
G01 X43.5188 Y36.8302
G01 X43.3726 Y36.7109
G01 X43.2178 Y36.6282
G01 X43.1293 Y36.5960
G01 X42.9417 Y36.5590
G01 X42.7663 Y36.5590
G01 X42.6686 Y36.5733
G01 X42.5769 Y36.5967
G01 X42.4147 Y36.6638
G01 X42.3340 Y36.7118
G01 X42.2542 Y36.7711
G01 X42.1301 Y36.8952
G01 X42.0748 Y36.9690
G01 X42.0237 Y37.0540
G01 X41.9838 Y37.1393
G01 X41.9323 Y37.3096
G01 X41.9139 Y37.4906
G01 X41.9189 Y37.5915
G01 X41.9550 Y37.7703
G01 X42.0237 Y37.9360
G01 X42.1248 Y38.0884
G01 X42.2542 Y38.2189
G01 X42.3636 Y38.2960
G01 X42.3636 Y39.8229
G01 X40.4269 Y41.7596
G01 X40.3527 Y41.7596
G01 X40.2839 Y41.6407
G01 X40.1509 Y41.4791
G01 X39.9893 Y41.3461
G01 X39.8900 Y41.2865
G01 X39.7007 Y41.2081
G01 X39.5947 Y41.1812
G01 X39.4870 Y41.1651
G01 X39.3844 Y41.1599
G01 X39.2687 Y41.1656
G01 X39.0678 Y41.2056
G01 X38.9588 Y41.2446
G01 X38.7781 Y41.3412
G01 X38.6915 Y41.4048
G01 X38.6123 Y41.4761
G01 X38.5348 Y41.5615
G01 X38.4192 Y41.7348
G01 X38.3746 Y41.8288
G01 X38.3381 Y41.9293
G01 X38.3100 Y42.0417
G00 Z4.0000
G00 X51.8112 Y43.2853
G01 F60.00
G01 Z-0.1500
G01 F120.00
G01 X51.7951 Y43.3930
G01 X51.7898 Y43.5000
G01 X51.7951 Y43.6070
G01 X51.8112 Y43.7147
G01 X51.8712 Y43.9131
G01 X51.9192 Y44.0152
G01 X51.9712 Y44.1019
G01 X52.0348 Y44.1885
G01 X52.1091 Y44.2709
G01 X52.2707 Y44.4039
G01 X52.3648 Y44.4608
G01 X52.4588 Y44.5054
G01 X52.5612 Y44.5425
G01 X52.6653 Y44.5688
G01 X52.7730 Y44.5849
G01 X52.8800 Y44.5902
G01 X52.9870 Y44.5849
G01 X53.0947 Y44.5688
G01 X53.2931 Y44.5088
G01 X53.3952 Y44.4608
G01 X53.4819 Y44.4088
G01 X53.5685 Y44.3452
G01 X53.6509 Y44.2709
G01 X53.7839 Y44.1093
G01 X53.8408 Y44.0152
G01 X53.8854 Y43.9212
G01 X53.9225 Y43.8188
G01 X53.9488 Y43.7147
G01 X53.9653 Y43.6024
G01 X53.9653 Y43.3976
G01 X53.9488 Y43.2853
G01 X53.9225 Y43.1812
G01 X53.8854 Y43.0788
G01 X53.7888 Y42.8981
G01 X53.7198 Y42.8050
G01 X53.6045 Y42.6869
G01 X53.6045 Y38.2264
G01 X53.6788 Y38.1598
G01 X53.7432 Y38.0884
G01 X53.8410 Y37.9421
G01 X53.8817 Y37.8569
G01 X53.9369 Y37.6741
G01 X53.9541 Y37.4994
G01 X53.9496 Y37.4017
G01 X53.9149 Y37.2263
G01 X53.8817 Y37.1331
G01 X53.7981 Y36.9764
G01 X53.7379 Y36.8952
G01 X53.6074 Y36.7658
G01 X53.4611 Y36.6680
G01 X53.3697 Y36.6248
G01 X53.1994 Y36.5733
G01 X53.0140 Y36.5548
G01 X52.8286 Y36.5733
G01 X52.6521 Y36.6273
G01 X52.4940 Y36.7118
G01 X52.3492 Y36.8302
G01 X52.2308 Y36.9750
G01 X52.1463 Y37.1331
G01 X52.0923 Y37.3096
G01 X52.0780 Y37.4073
G01 X52.0784 Y37.5883
G01 X52.0928 Y37.6827
G01 X52.1438 Y37.8507
G01 X52.1870 Y37.9421
G01 X52.2845 Y38.0880
G01 X52.3492 Y38.1598
G01 X52.4235 Y38.2264
G01 X52.4235 Y42.5112
G01 X52.2781 Y42.5912
G01 X52.1915 Y42.6548
G01 X52.1091 Y42.7291
G01 X52.0348 Y42.8115
G01 X51.9712 Y42.8981
G01 X51.8746 Y43.0788
G01 X51.8375 Y43.1812
G01 X51.8112 Y43.2853
G00 Z4.0000
G00 X54.4852 Y40.7853
G01 F60.00
G01 Z-0.1500
G01 F120.00
G01 X54.4691 Y40.8930
G01 X54.4638 Y41.0000
G01 X54.4691 Y41.1070
G01 X54.4852 Y41.2147
G01 X54.5452 Y41.4131
G01 X54.5932 Y41.5152
G01 X54.6452 Y41.6019
G01 X54.7142 Y41.6950
G01 X54.7831 Y41.7709
G01 X54.8659 Y41.8455
G01 X55.0388 Y41.9608
G01 X55.1409 Y42.0088
G01 X55.2418 Y42.0444
G01 X55.3393 Y42.0688
G01 X55.4470 Y42.0849
G01 X55.5540 Y42.0902
G01 X55.6610 Y42.0849
G01 X55.7687 Y42.0688
G01 X55.8728 Y42.0425
G01 X55.9752 Y42.0054
G01 X56.0692 Y41.9608
G01 X56.2425 Y41.8452
G01 X56.3249 Y41.7709
G01 X56.3992 Y41.6885
G01 X56.5148 Y41.5152
G01 X56.5594 Y41.4212
G01 X56.5965 Y41.3188
G01 X56.6228 Y41.2147
G01 X56.6384 Y41.1113
G01 X56.6441 Y40.9956
G01 X56.6389 Y40.8930
G01 X56.6228 Y40.7853
G01 X56.5628 Y40.5869
G01 X56.5148 Y40.4848
G01 X56.4628 Y40.3981
G01 X56.3938 Y40.3050
G01 X56.2490 Y40.1602
G01 X56.1445 Y40.0843
G01 X56.1445 Y38.2264
G01 X56.2188 Y38.1598
G01 X56.2835 Y38.0880
G01 X56.3810 Y37.9421
G01 X56.4242 Y37.8507
G01 X56.4752 Y37.6827
G01 X56.4896 Y37.5883
G01 X56.4941 Y37.4906
G01 X56.4769 Y37.3159
G01 X56.4530 Y37.2197
G01 X56.4208 Y37.1312
G01 X56.3381 Y36.9764
G01 X56.2779 Y36.8952
G01 X56.1538 Y36.7711
G01 X56.0740 Y36.7118
G01 X55.9178 Y36.6282
G01 X55.8293 Y36.5960
G01 X55.6473 Y36.5594
G01 X55.4607 Y36.5594
G01 X55.2787 Y36.5960
G01 X55.1130 Y36.6647
G01 X54.9606 Y36.7658
G01 X54.8248 Y36.9016
G01 X54.7237 Y37.0540
G01 X54.6550 Y37.2197
G01 X54.6311 Y37.3159
G01 X54.6138 Y37.4950
G01 X54.6311 Y37.6741
G01 X54.6550 Y37.7703
G01 X54.6872 Y37.8588
G01 X54.7708 Y38.0150
G01 X54.8861 Y38.1566
G01 X54.9635 Y38.2264
G01 X54.9635 Y40.0843
G01 X54.8655 Y40.1548
G01 X54.7831 Y40.2291
G01 X54.6501 Y40.3907
G01 X54.5932 Y40.4848
G01 X54.5486 Y40.5788
G01 X54.5115 Y40.6812
G01 X54.4852 Y40.7853
G00 Z4.0000
G00 X64.8949 Y39.2289
G01 F60.00
G01 Z-0.1500
G01 F120.00
G01 X64.8729 Y39.3377
G01 X64.8695 Y39.4000
G01 X64.8695 Y47.0200
G01 X64.8801 Y47.1308
G01 X64.8964 Y47.1956
G01 X64.9415 Y47.3022
G01 X65.0011 Y47.3915
G01 X65.9315 Y48.3265
G01 X65.9775 Y48.3679
G01 X66.0668 Y48.4275
G01 X66.1779 Y48.4741
G01 X66.2955 Y48.4969
G01 X67.1145 Y48.4995
G01 X67.2078 Y48.6092
G01 X67.3602 Y48.7338
G01 X67.5270 Y48.8229
G01 X67.7129 Y48.8798
G01 X67.9080 Y48.8992
G01 X69.1080 Y48.8992
G01 X69.2968 Y48.8809
G01 X69.3978 Y48.8558
G01 X69.4890 Y48.8229
G01 X69.6558 Y48.7338
G01 X69.8082 Y48.6092
G01 X69.9015 Y48.4995
G01 X70.9116 Y48.4995
G01 X70.9712 Y48.6019
G01 X71.0402 Y48.6950
G01 X71.1850 Y48.8398
G01 X71.2707 Y48.9039
G01 X71.3648 Y48.9608
G01 X71.4669 Y49.0088
G01 X71.5678 Y49.0444
G01 X71.7687 Y49.0844
G01 X71.8800 Y49.0902
G01 X71.9870 Y49.0849
G01 X72.0947 Y49.0688
G01 X72.1988 Y49.0425
G01 X72.3012 Y49.0054
G01 X72.3952 Y48.9608
G01 X72.5685 Y48.8452
G01 X72.6539 Y48.7677
G01 X72.7839 Y48.6093
G01 X72.8408 Y48.5152
G01 X72.8888 Y48.4131
G01 X72.9483 Y48.2170
G01 X72.9649 Y48.1070
G01 X72.9702 Y48.0000
G01 X72.9653 Y47.8976
G01 X72.9488 Y47.7853
G01 X72.9219 Y47.6793
G01 X72.8435 Y47.4900
G01 X72.7888 Y47.3981
G01 X72.7198 Y47.3050
G01 X72.5750 Y47.1602
G01 X72.4819 Y47.0912
G01 X72.3012 Y46.9946
G01 X72.1988 Y46.9575
G01 X72.0883 Y46.9300
G01 X71.9870 Y46.9151
G01 X71.8800 Y46.9098
G01 X71.7730 Y46.9151
G01 X71.6717 Y46.9300
G01 X71.5612 Y46.9575
G01 X71.3700 Y47.0365
G01 X71.2707 Y47.0961
G01 X71.1123 Y47.2261
G01 X71.0296 Y47.3185
G01 X69.9015 Y47.3185
G01 X69.8082 Y47.2088
G01 X69.6558 Y47.0842
G01 X69.4890 Y46.9951
G01 X69.3031 Y46.9382
G01 X69.1080 Y46.9188
G01 X67.8154 Y46.9232
G01 X67.7129 Y46.9382
G01 X67.6182 Y46.9622
G01 X67.4399 Y47.0364
G01 X67.2776 Y47.1454
G01 X67.2048 Y47.2120
G01 X67.1145 Y47.3185
G01 X66.5936 Y47.3185
G01 X66.0505 Y46.7754
G01 X66.0505 Y39.6446
G01 X67.8636 Y37.8315
G01 X69.2557 Y37.8315
G01 X69.3262 Y37.9294
G01 X69.4008 Y38.0122
G01 X69.4779 Y38.0823
G01 X69.5698 Y38.1503
G01 X69.7506 Y38.2469
G01 X69.8512 Y38.2833
G01 X69.9591 Y38.3107
G01 X70.0650 Y38.3264
G01 X70.1720 Y38.3317
G01 X72.5720 Y38.3317
G01 X72.6790 Y38.3264
G01 X72.7849 Y38.3107
G01 X72.8843 Y38.2859
G01 X72.9934 Y38.2469
G01 X73.1742 Y38.1503
G01 X73.2699 Y38.0789
G01 X73.3955 Y38.0239
G01 X73.5382 Y37.9279
G01 X73.6589 Y37.8072
G01 X73.7591 Y37.6567
G01 X73.8239 Y37.4991
G01 X73.8578 Y37.3294
G01 X73.8621 Y37.2366
G01 X73.8459 Y37.0717
G01 X73.7935 Y36.8982
G01 X73.7549 Y36.8175
G01 X73.6629 Y36.6798
G01 X73.5382 Y36.5541
G01 X73.3955 Y36.4581
G01 X73.2699 Y36.4031
G01 X73.1779 Y36.3341
G01 X73.0822 Y36.2771
G01 X72.8928 Y36.1987
G01 X72.7891 Y36.1722
G01 X72.6790 Y36.1556
G01 X72.5720 Y36.1503
G01 X71.8318 Y36.1503
G01 X69.0907 Y33.4092
G01 X69.0907 Y20.0907
G01 X70.4755 Y20.0858
G01 X70.5859 Y20.0697
G01 X70.6893 Y20.0438
G01 X70.7925 Y20.0068
G01 X70.8832 Y19.9639
G01 X70.9826 Y19.9043
G01 X71.1410 Y19.7743
G01 X71.3143 Y19.6010
G01 X71.3813 Y19.5271
G01 X71.4469 Y19.4389
G01 X71.5459 Y19.2544
G01 X71.5838 Y19.1493
G01 X71.6105 Y19.0414
G01 X71.6306 Y18.8374
G01 X71.6249 Y18.7217
G01 X71.6097 Y18.6201
G01 X71.5838 Y18.5167
G01 X71.5459 Y18.4116
G01 X71.4469 Y18.2271
G01 X71.3802 Y18.1377
G01 X71.2341 Y17.9917
G01 X71.1459 Y17.9261
G01 X71.0580 Y17.8733
G01 X70.9533 Y17.8237
G01 X70.8563 Y17.7892
G01 X70.7529 Y17.7633
G01 X70.6470 Y17.7476
G01 X70.5356 Y17.7424
G01 X70.3316 Y17.7625
G01 X70.2237 Y17.7892
G01 X70.1186 Y17.8271
G01 X69.9619 Y17.9093
G01 X69.0907 Y17.9093
G01 X69.0907 Y6.8318
G01 X70.3708 Y5.5517
G01 X78.0532 Y5.5517
G01 X84.8925 Y12.3910
G01 X84.8978 Y13.5482
G01 X84.9135 Y13.6541
G01 X84.9409 Y13.7620
G01 X84.9773 Y13.8626
G01 X85.0739 Y14.0434
G01 X85.1419 Y14.1353
G01 X85.2120 Y14.2124
G01 X87.3363 Y16.3368
G01 X87.3363 Y19.7912
G01 X81.1988 Y25.9288
G01 X81.1287 Y26.0059
G01 X81.0607 Y26.0978
G01 X80.9641 Y26.2786
G01 X80.9262 Y26.3837
G01 X80.8995 Y26.4916
G01 X80.8794 Y26.6956
G01 X80.8793 Y30.1036
G01 X80.8846 Y30.2106
G01 X80.8995 Y30.3120
G01 X80.9262 Y30.4199
G01 X80.9632 Y30.5231
G01 X81.0103 Y30.6216
G01 X81.0631 Y30.7095
G01 X81.1287 Y30.7977
G01 X81.1988 Y30.8748
G01 X81.2759 Y30.9449
G01 X81.3641 Y31.0105
G01 X81.4520 Y31.0633
G01 X81.5505 Y31.1104
G01 X81.6537 Y31.1474
G01 X81.7571 Y31.1733
G01 X81.8630 Y31.1890
G01 X81.9700 Y31.1943
G01 X82.0770 Y31.1890
G01 X82.2004 Y31.1690
G01 X85.7689 Y34.7375
G01 X85.8149 Y34.7789
G01 X85.9042 Y34.8385
G01 X86.0153 Y34.8851
G01 X86.1329 Y34.9079
G01 X87.1870 Y34.9105
G01 X87.2839 Y35.0052
G01 X87.3538 Y35.0576
G01 X87.5155 Y35.1440
G01 X87.6827 Y35.1939
G01 X87.8476 Y35.2101
G01 X87.9348 Y35.2062
G01 X88.1146 Y35.1705
G01 X88.2677 Y35.1071
G01 X88.3502 Y35.0576
G01 X88.4783 Y34.9525
G01 X88.5389 Y34.8862
G01 X88.6349 Y34.7435
G01 X88.6760 Y34.6565
G01 X88.7247 Y34.4956
G01 X88.7421 Y34.3244
G01 X88.7374 Y34.2284
G01 X88.7050 Y34.0659
G01 X88.6726 Y33.9753
G01 X88.5937 Y33.8277
G01 X88.4845 Y33.6937
G01 X88.4132 Y33.6291
G01 X88.2677 Y33.5329
G01 X88.1101 Y33.4681
G01 X87.9404 Y33.4342
G01 X87.7692 Y33.4338
G01 X87.5939 Y33.4681
G01 X87.4363 Y33.5329
G01 X87.2908 Y33.6291
G01 X87.1870 Y33.7295
G01 X86.4310 Y33.7295
G01 X83.0354 Y30.3340
G01 X83.0554 Y30.2106
G01 X83.0607 Y30.1036
G01 X83.0607 Y27.1518
G01 X89.1982 Y21.0142
G01 X89.2683 Y20.9371
G01 X89.3339 Y20.8489
G01 X89.4329 Y20.6644
G01 X89.4708 Y20.5593
G01 X89.4975 Y20.4514
G01 X89.5176 Y20.2474
G01 X89.5177 Y16.9757
G01 X92.4054 Y16.9756
G01 X92.5080 Y16.9704
G01 X92.6139 Y16.9547
G01 X92.7173 Y16.9288
G01 X92.8143 Y16.8943
G01 X92.9112 Y16.8489
G01 X93.0069 Y16.7919
G01 X93.0951 Y16.7263
G01 X93.1690 Y16.6593
G01 X93.2423 Y16.5791
G01 X93.3053 Y16.4946
G01 X93.3649 Y16.3952
G01 X93.4078 Y16.3045
G01 X93.4448 Y16.2014
G01 X93.4707 Y16.0979
G01 X93.4864 Y15.9920
G01 X93.4917 Y15.8850
G01 X93.4864 Y15.7780
G01 X93.4707 Y15.6721
G01 X93.4448 Y15.5687
G01 X93.4069 Y15.4636
G01 X93.3079 Y15.2791
G01 X93.2412 Y15.1897
G01 X93.0963 Y15.0448
G01 X93.0032 Y14.9757
G01 X92.8224 Y14.8791
G01 X92.7173 Y14.8412
G01 X92.6094 Y14.8145
G01 X92.5080 Y14.7996
G01 X92.4010 Y14.7943
G01 X88.8788 Y14.7943
G01 X87.0739 Y12.9894
G01 X87.0739 Y11.9392
G01 X87.0681 Y11.8279
G01 X87.0281 Y11.6269
G01 X86.9900 Y11.5197
G01 X86.8925 Y11.3370
G01 X86.8245 Y11.2451
G01 X79.2762 Y3.6897
G01 X79.1991 Y3.6197
G01 X79.1109 Y3.5541
G01 X79.0152 Y3.4971
G01 X78.9183 Y3.4517
G01 X78.8213 Y3.4172
G01 X78.7179 Y3.3913
G01 X78.6120 Y3.3756
G01 X78.5050 Y3.3703
G01 X69.9190 Y3.3703
G01 X69.8120 Y3.3756
G01 X69.7061 Y3.3913
G01 X69.5982 Y3.4187
G01 X69.4088 Y3.4971
G01 X69.3094 Y3.5567
G01 X69.1510 Y3.6867
G01 X67.2257 Y5.6120
G01 X67.1587 Y5.6859
G01 X67.0931 Y5.7741
G01 X67.0361 Y5.8698
G01 X66.9907 Y5.9667
G01 X66.9562 Y6.0637
G01 X66.9303 Y6.1671
G01 X66.9146 Y6.2730
G01 X66.9093 Y6.3800
G01 X66.9142 Y33.9635
G01 X66.9312 Y34.0781
G01 X66.9562 Y34.1773
G01 X66.9932 Y34.2805
G01 X67.0907 Y34.4632
G01 X67.1587 Y34.5551
G01 X69.2471 Y36.6505
G01 X67.6146 Y36.6507
G01 X67.5082 Y36.6611
G01 X67.4519 Y36.6748
G01 X67.3368 Y36.7225
G01 X67.2475 Y36.7821
G01 X67.2015 Y36.8235
G01 X65.0425 Y38.9825
G01 X65.0011 Y39.0285
G01 X64.9415 Y39.1178
G01 X64.8949 Y39.2289
G00 Z4.0000
G00 X66.3112 Y40.7853
G01 F60.00
G01 Z-0.1500
G01 F120.00
G01 X66.2947 Y40.8976
G01 X66.2947 Y41.1024
G01 X66.3112 Y41.2147
G01 X66.3375 Y41.3188
G01 X66.3746 Y41.4212
G01 X66.4712 Y41.6019
G01 X66.5348 Y41.6885
G01 X66.6091 Y41.7709
G01 X66.6915 Y41.8452
G01 X66.7781 Y41.9088
G01 X66.9588 Y42.0054
G01 X67.0612 Y42.0425
G01 X67.1653 Y42.0688
G01 X67.2730 Y42.0849
G01 X67.6354 Y42.0905
G01 X70.5115 Y44.9665
G01 X70.6033 Y45.0414
G01 X70.7009 Y45.0936
G01 X70.8118 Y45.1277
G01 X70.9290 Y45.1395
G01 X75.5510 Y45.1395
G01 X75.6682 Y45.1277
G01 X75.7791 Y45.0936
G01 X75.8767 Y45.0414
G01 X75.9685 Y44.9665
G01 X77.3075 Y43.6275
G01 X77.3489 Y43.5815
G01 X77.4085 Y43.4922
G01 X77.4371 Y43.4318
G01 X77.4681 Y43.3295
G01 X77.4805 Y43.2100
G01 X77.4805 Y38.2476
G01 X80.1368 Y35.5912
G01 X80.5964 Y35.5911
G01 X80.7700 Y35.5731
G01 X80.9285 Y35.5250
G01 X81.0155 Y35.4839
G01 X81.1532 Y35.3919
G01 X81.2215 Y35.3305
G01 X81.2829 Y35.2622
G01 X81.3749 Y35.1245
G01 X81.4160 Y35.0375
G01 X81.4647 Y34.8766
G01 X81.4782 Y34.7838
G01 X81.4778 Y34.6126
G01 X81.4450 Y34.4469
G01 X81.4135 Y34.3582
G01 X81.3749 Y34.2775
G01 X81.2829 Y34.1398
G01 X81.1582 Y34.0141
G01 X81.0077 Y33.9139
G01 X80.8546 Y33.8505
G01 X80.7676 Y33.8283
G01 X80.5920 Y33.8108
G01 X79.7036 Y33.8152
G01 X79.5294 Y33.8505
G01 X79.3763 Y33.9139
G01 X79.2997 Y33.9593
G01 X79.1657 Y34.0685
G01 X79.1011 Y34.1398
G01 X79.0049 Y34.2853
G01 X78.9401 Y34.4429
G01 X78.9062 Y34.6126
G01 X78.9058 Y34.7838
G01 X78.9390 Y34.9551
G01 X78.9845 Y35.0735
G01 X76.4725 Y37.5855
G01 X76.3976 Y37.6773
G01 X76.3463 Y37.7730
G01 X76.3249 Y37.8319
G01 X76.3029 Y37.9407
G01 X76.2995 Y38.0030
G01 X76.2995 Y42.9654
G01 X75.3064 Y43.9585
G01 X71.1736 Y43.9585
G01 X68.4450 Y41.2300
G01 X68.4653 Y41.1024
G01 X68.4702 Y41.0000
G01 X68.4649 Y40.8930
G01 X68.4483 Y40.7830
G01 X68.3888 Y40.5869
G01 X68.3393 Y40.4822
G01 X68.2252 Y40.3115
G01 X68.1509 Y40.2291
G01 X68.0750 Y40.1602
G01 X67.9819 Y40.0912
G01 X67.8012 Y39.9946
G01 X67.7007 Y39.9581
G01 X67.5947 Y39.9312
G01 X67.4870 Y39.9151
G01 X67.3756 Y39.9099
G01 X67.1717 Y39.9300
G01 X67.0612 Y39.9575
G01 X66.9588 Y39.9946
G01 X66.7781 Y40.0912
G01 X66.6915 Y40.1548
G01 X66.6091 Y40.2291
G01 X66.5348 Y40.3115
G01 X66.4712 Y40.3981
G01 X66.3746 Y40.5788
G01 X66.3375 Y40.6812
G01 X66.3112 Y40.7853
G00 Z4.0000
G00 X66.3100 Y43.2917
G01 F60.00
G01 Z-0.1500
G01 F120.00
G01 X66.2947 Y43.3976
G01 X66.2947 Y43.6024
G01 X66.3112 Y43.7147
G01 X66.3375 Y43.8188
G01 X66.3746 Y43.9212
G01 X66.4712 Y44.1019
G01 X66.5348 Y44.1885
G01 X66.6091 Y44.2709
G01 X66.6915 Y44.3452
G01 X66.7781 Y44.4088
G01 X66.9588 Y44.5054
G01 X67.0612 Y44.5425
G01 X67.1717 Y44.5700
G01 X67.3756 Y44.5901
G01 X67.4870 Y44.5849
G01 X67.6100 Y44.5650
G01 X69.2157 Y46.1706
G01 X69.2589 Y46.2091
G01 X69.3478 Y46.2685
G01 X69.4589 Y46.3151
G01 X69.5677 Y46.3371
G01 X69.6300 Y46.3405
G01 X76.8900 Y46.3405
G01 X77.0072 Y46.3287
G01 X77.1181 Y46.2946
G01 X77.2157 Y46.2424
G01 X77.3075 Y46.1675
G01 X78.5775 Y44.8975
G01 X78.6189 Y44.8515
G01 X78.6785 Y44.7622
G01 X78.7071 Y44.7018
G01 X78.7381 Y44.5995
G01 X78.7505 Y44.4800
G01 X78.7505 Y39.5176
G01 X80.1368 Y38.1312
G01 X80.5964 Y38.1311
G01 X80.7700 Y38.1131
G01 X80.9285 Y38.0650
G01 X81.0155 Y38.0239
G01 X81.1532 Y37.9319
G01 X81.2215 Y37.8705
G01 X81.2829 Y37.8022
G01 X81.3749 Y37.6645
G01 X81.4160 Y37.5775
G01 X81.4647 Y37.4166
G01 X81.4782 Y37.3238
G01 X81.4778 Y37.1526
G01 X81.4450 Y36.9869
G01 X81.4135 Y36.8982
G01 X81.3749 Y36.8175
G01 X81.2829 Y36.6798
G01 X81.1582 Y36.5541
G01 X81.0077 Y36.4539
G01 X80.8546 Y36.3905
G01 X80.7676 Y36.3683
G01 X80.5920 Y36.3508
G01 X79.7092 Y36.3548
G01 X79.5339 Y36.3891
G01 X79.3685 Y36.4581
G01 X79.2258 Y36.5541
G01 X79.1051 Y36.6748
G01 X79.0091 Y36.8175
G01 X78.9415 Y36.9784
G01 X78.9062 Y37.1526
G01 X78.9058 Y37.3238
G01 X78.9390 Y37.4951
G01 X78.9845 Y37.6135
G01 X77.7425 Y38.8555
G01 X77.7011 Y38.9015
G01 X77.6415 Y38.9908
G01 X77.5938 Y39.1059
G01 X77.5729 Y39.2107
G01 X77.5695 Y39.2730
G01 X77.5695 Y44.2354
G01 X76.6454 Y45.1595
G01 X69.8746 Y45.1595
G01 X68.4450 Y43.7300
G01 X68.4653 Y43.6024
G01 X68.4702 Y43.5000
G01 X68.4649 Y43.3930
G01 X68.4488 Y43.2853
G01 X68.4244 Y43.1878
G01 X68.3854 Y43.0788
G01 X68.2888 Y42.8981
G01 X68.2252 Y42.8115
G01 X68.1539 Y42.7323
G01 X68.0685 Y42.6548
G01 X67.8952 Y42.5392
G01 X67.7931 Y42.4912
G01 X67.6922 Y42.4556
G01 X67.4913 Y42.4156
G01 X67.3800 Y42.4098
G01 X67.2730 Y42.4151
G01 X67.1630 Y42.4317
G01 X66.9669 Y42.4912
G01 X66.8700 Y42.5365
G01 X66.7781 Y42.5912
G01 X66.6915 Y42.6548
G01 X66.6091 Y42.7291
G01 X66.5345 Y42.8119
G01 X66.4712 Y42.8981
G01 X66.3746 Y43.0788
G01 X66.3375 Y43.1812
G01 X66.3100 Y43.2917
G00 Z4.0000
G00 X71.3190 Y42.0669
G01 F60.00
G01 Z-0.1500
G01 F120.00
G01 X71.2981 Y42.1517
G01 X71.2819 Y42.3166
G01 X71.2981 Y42.4903
G01 X71.3505 Y42.6638
G01 X71.4295 Y42.8118
G01 X71.5425 Y42.9505
G01 X71.6797 Y43.0627
G01 X71.8292 Y43.1425
G01 X72.0027 Y43.1949
G01 X72.1720 Y43.2112
G01 X72.9764 Y43.2111
G01 X73.1476 Y43.1937
G01 X73.3085 Y43.1450
G01 X73.4702 Y43.0586
G01 X73.5983 Y42.9535
G01 X73.6589 Y42.8872
G01 X73.7145 Y42.8118
G01 X73.7926 Y42.6657
G01 X73.8459 Y42.4903
G01 X73.8622 Y42.3210
G01 X73.8447 Y42.1454
G01 X73.7935 Y41.9782
G01 X73.7137 Y41.8287
G01 X73.6015 Y41.6915
G01 X73.4643 Y41.5793
G01 X73.3148 Y41.4995
G01 X73.1413 Y41.4471
G01 X72.9720 Y41.4308
G01 X72.1720 Y41.4308
G01 X72.0027 Y41.4471
G01 X71.9094 Y41.4705
G01 X71.7563 Y41.5339
G01 X71.6812 Y41.5785
G01 X71.5425 Y41.6915
G01 X71.4811 Y41.7598
G01 X71.3891 Y41.8975
G01 X71.3190 Y42.0669
G00 Z4.0000
G00 X71.3201 Y39.5229
G01 F60.00
G01 Z-0.1500
G01 F120.00
G01 X71.2862 Y39.6926
G01 X71.2866 Y39.8726
G01 X71.3215 Y40.0436
G01 X71.3849 Y40.1967
G01 X71.4295 Y40.2718
G01 X71.5425 Y40.4105
G01 X71.6797 Y40.5227
G01 X71.8292 Y40.6025
G01 X72.0027 Y40.6549
G01 X72.1720 Y40.6712
G01 X72.9764 Y40.6711
G01 X73.1476 Y40.6537
G01 X73.3085 Y40.6050
G01 X73.4702 Y40.5186
G01 X73.5983 Y40.4135
G01 X73.6589 Y40.3472
G01 X73.7145 Y40.2718
G01 X73.7926 Y40.1257
G01 X73.8459 Y39.9503
G01 X73.8622 Y39.7810
G01 X73.8447 Y39.6054
G01 X73.7935 Y39.4382
G01 X73.7137 Y39.2887
G01 X73.6015 Y39.1515
G01 X73.4643 Y39.0393
G01 X73.3148 Y38.9595
G01 X73.1413 Y38.9071
G01 X72.9720 Y38.8908
G01 X72.1720 Y38.8908
G01 X72.0027 Y38.9071
G01 X71.9094 Y38.9305
G01 X71.7563 Y38.9939
G01 X71.6812 Y39.0385
G01 X71.5425 Y39.1515
G01 X71.4811 Y39.2198
G01 X71.3891 Y39.3575
G01 X71.3201 Y39.5229
G00 Z4.0000
G00 X71.3201 Y34.4429
G01 F60.00
G01 Z-0.1500
G01 F120.00
G01 X71.2862 Y34.6126
G01 X71.2858 Y34.7838
G01 X71.2999 Y34.8790
G01 X71.3505 Y35.0438
G01 X71.4295 Y35.1918
G01 X71.4868 Y35.2691
G01 X71.6058 Y35.3879
G01 X71.7485 Y35.4839
G01 X71.9179 Y35.5540
G01 X72.0027 Y35.5749
G01 X72.1676 Y35.5911
G01 X72.9764 Y35.5911
G01 X73.1413 Y35.5749
G01 X73.2301 Y35.5529
G01 X73.3167 Y35.5216
G01 X73.4643 Y35.4427
G01 X73.5401 Y35.3862
G01 X73.6589 Y35.2672
G01 X73.7549 Y35.1245
G01 X73.8239 Y34.9591
G01 X73.8582 Y34.7838
G01 X73.8621 Y34.6966
G01 X73.8513 Y34.5685
G01 X74.9707 Y33.4492
G01 X75.0456 Y33.3574
G01 X75.0978 Y33.2597
G01 X75.1319 Y33.1488
G01 X75.1437 Y33.0316
G01 X75.1437 Y22.5758
G01 X77.8638 Y19.8556
G01 X77.9639 Y19.8947
G01 X78.0922 Y19.9199
G01 X78.2278 Y19.9199
G01 X78.3561 Y19.8947
G01 X78.4814 Y19.8437
G01 X78.5471 Y19.8043
G01 X78.6480 Y19.7210
G01 X78.7313 Y19.6201
G01 X78.7993 Y19.4930
G01 X78.8360 Y19.3720
G01 X78.8469 Y19.3008
G01 X78.8502 Y18.4330
G01 X78.8377 Y18.3027
G01 X78.7959 Y18.1648
G01 X78.7362 Y18.0533
G01 X78.6923 Y17.9937
G01 X78.5944 Y17.8967
G01 X78.4892 Y17.8265
G01 X78.4262 Y17.7962
G01 X78.3561 Y17.7713
G01 X78.2278 Y17.7461
G01 X78.0968 Y17.7458
G01 X78.0234 Y17.7565
G01 X77.9554 Y17.7739
G01 X77.8368 Y17.8232
G01 X77.7729 Y17.8617
G01 X77.6720 Y17.9450
G01 X77.5838 Y18.0533
G01 X77.5493 Y18.1116
G01 X77.5009 Y18.2284
G01 X77.4731 Y18.3652
G01 X77.4698 Y18.5796
G01 X74.1357 Y21.9137
G01 X74.0608 Y22.0055
G01 X74.0086 Y22.1031
G01 X73.9745 Y22.2140
G01 X73.9627 Y22.3312
G01 X73.9627 Y32.7871
G01 X72.9390 Y33.8108
G01 X72.0892 Y33.8148
G01 X71.9940 Y33.8289
G01 X71.8355 Y33.8770
G01 X71.6797 Y33.9593
G01 X71.5395 Y34.0747
G01 X71.4344 Y34.2028
G01 X71.3891 Y34.2775
G01 X71.3201 Y34.4429
G00 Z4.0000
G00 X71.2876 Y31.5490
G01 F60.00
G01 Z-0.1500
G01 F120.00
G01 X71.2818 Y31.6110
G01 X71.2836 Y32.7455
G01 X71.3061 Y32.8371
G01 X71.3417 Y32.9036
G01 X71.4028 Y32.9711
G01 X71.4638 Y33.0122
G01 X71.5513 Y33.0437
G01 X71.6220 Y33.0512
G01 X73.5509 Y33.0499
G01 X73.6250 Y33.0352
G01 X73.7073 Y32.9962
G01 X73.7656 Y32.9484
G01 X73.8232 Y32.8692
G01 X73.8547 Y32.7817
G01 X73.8622 Y32.7110
G01 X73.8622 Y31.6110
G01 X73.8476 Y31.5125
G01 X73.8232 Y31.4528
G01 X73.7821 Y31.3918
G01 X73.7347 Y31.3456
G01 X73.6802 Y31.3098
G01 X73.6205 Y31.2854
G01 X73.5565 Y31.2726
G01 X73.3657 Y31.2708
G01 X73.3657 Y21.9224
G01 X75.4011 Y19.8870
G01 X75.4897 Y19.9107
G01 X75.6244 Y19.9231
G01 X75.7566 Y19.9095
G01 X75.8800 Y19.8723
G01 X75.9997 Y19.8092
G01 X76.0612 Y19.7636
G01 X76.1523 Y19.6723
G01 X76.2265 Y19.5622
G01 X76.2791 Y19.4376
G01 X76.3072 Y19.2962
G01 X76.3102 Y18.4330
G01 X76.2965 Y18.2964
G01 X76.2791 Y18.2284
G01 X76.2307 Y18.1116
G01 X76.1506 Y17.9918
G01 X76.0612 Y17.9024
G01 X76.0071 Y17.8617
G01 X75.9414 Y17.8223
G01 X75.8246 Y17.7739
G01 X75.6832 Y17.7458
G01 X75.5568 Y17.7458
G01 X75.4810 Y17.7570
G01 X75.3600 Y17.7937
G01 X75.2968 Y17.8232
G01 X75.2329 Y17.8617
G01 X75.1320 Y17.9450
G01 X75.0837 Y17.9986
G01 X75.0135 Y18.1038
G01 X74.9583 Y18.2369
G01 X74.9328 Y18.3698
G01 X74.9298 Y18.6882
G01 X72.3577 Y21.2603
G01 X72.2819 Y21.3535
G01 X72.2315 Y21.4478
G01 X72.2116 Y21.5022
G01 X72.1953 Y21.5670
G01 X72.1847 Y21.6778
G01 X72.1847 Y31.2708
G01 X71.6220 Y31.2708
G01 X71.5235 Y31.2854
G01 X71.4367 Y31.3258
G01 X71.3619 Y31.3918
G01 X71.3095 Y31.4768
G01 X71.2876 Y31.5490
G00 Z4.0000
G00 X78.9390 Y42.0669
G01 F60.00
G01 Z-0.1500
G01 F120.00
G01 X78.9181 Y42.1517
G01 X78.9019 Y42.3166
G01 X78.9181 Y42.4903
G01 X78.9705 Y42.6638
G01 X79.0495 Y42.8118
G01 X79.1625 Y42.9505
G01 X79.2997 Y43.0627
G01 X79.4492 Y43.1425
G01 X79.6227 Y43.1949
G01 X79.7920 Y43.2112
G01 X80.5964 Y43.2111
G01 X80.7676 Y43.1937
G01 X80.9285 Y43.1450
G01 X81.0902 Y43.0586
G01 X81.2183 Y42.9535
G01 X81.2789 Y42.8872
G01 X81.3345 Y42.8118
G01 X81.4126 Y42.6657
G01 X81.4659 Y42.4903
G01 X81.4822 Y42.3210
G01 X81.4647 Y42.1454
G01 X81.4135 Y41.9782
G01 X81.3337 Y41.8287
G01 X81.2215 Y41.6915
G01 X81.0843 Y41.5793
G01 X80.9348 Y41.4995
G01 X80.7613 Y41.4471
G01 X80.5920 Y41.4308
G01 X79.7920 Y41.4308
G01 X79.6227 Y41.4471
G01 X79.5294 Y41.4705
G01 X79.3763 Y41.5339
G01 X79.3012 Y41.5785
G01 X79.1625 Y41.6915
G01 X79.1011 Y41.7598
G01 X79.0091 Y41.8975
G01 X78.9390 Y42.0669
G00 Z4.0000
G00 X85.1448 Y37.0827
G01 F60.00
G01 Z-0.1500
G01 F120.00
G01 X85.1378 Y37.1510
G01 X85.1378 Y37.8510
G01 X85.1436 Y37.9130
G01 X85.1621 Y37.9771
G01 X85.1977 Y38.0436
G01 X85.2588 Y38.1111
G01 X85.3198 Y38.1522
G01 X85.4073 Y38.1837
G01 X85.4780 Y38.1912
G01 X87.1780 Y38.1912
G01 X87.2765 Y38.1766
G01 X87.3422 Y38.1488
G01 X87.4186 Y38.0916
G01 X87.4826 Y38.0019
G01 X87.5885 Y37.9185
G01 X90.2968 Y35.2102
G01 X91.1566 Y35.2101
G01 X91.1988 Y35.1971
G01 X91.2285 Y35.1678
G01 X91.2422 Y35.1200
G01 X91.2422 Y34.2648
G01 X91.3204 Y34.1697
G01 X91.3726 Y34.0721
G01 X91.4067 Y33.9612
G01 X91.4183 Y33.8484
G01 X91.4185 Y29.6912
G01 X91.6065 Y29.6866
G01 X91.6502 Y29.6551
G01 X91.6681 Y29.6056
G01 X91.6682 Y27.1010
G01 X91.6551 Y27.0542
G01 X91.6258 Y27.0245
G01 X91.5780 Y27.0108
G01 X90.0734 Y27.0109
G01 X90.0414 Y27.0186
G01 X90.0170 Y27.0345
G01 X89.9899 Y27.0814
G01 X89.9882 Y29.6100
G01 X90.0058 Y29.6551
G01 X90.0495 Y29.6866
G01 X90.2375 Y29.6912
G01 X90.2375 Y33.4298
G01 X89.5474 Y33.4299
G01 X89.5136 Y33.4384
G01 X89.4855 Y33.4590
G01 X89.4696 Y33.4834
G01 X89.4619 Y33.5154
G01 X89.4618 Y34.3752
G01 X87.0262 Y36.8108
G01 X85.4403 Y36.8130
G01 X85.3438 Y36.8385
G01 X85.2927 Y36.8658
G01 X85.2406 Y36.9074
G01 X85.1768 Y36.9928
G01 X85.1448 Y37.0827
G00 Z4.0000
G00 X86.3576 Y29.5471
G01 F60.00
G01 Z-0.1500
G01 F120.00
G01 X86.5106 Y29.6288
G01 X86.6598 Y29.6741
G01 X86.7455 Y29.6871
G01 X86.9147 Y29.6866
G01 X87.0676 Y29.6562
G01 X87.1454 Y29.6288
G01 X87.2925 Y29.5511
G01 X87.4252 Y29.4419
G01 X87.4802 Y29.3805
G01 X87.5668 Y29.2509
G01 X87.6332 Y29.0906
G01 X87.6636 Y28.9377
G01 X87.6682 Y28.8510
G01 X87.6681 Y27.8466
G01 X87.6528 Y27.6914
G01 X87.6332 Y27.6114
G01 X87.5668 Y27.4511
G01 X87.4802 Y27.3215
G01 X87.4221 Y27.2569
G01 X87.3575 Y27.1988
G01 X87.2279 Y27.1122
G01 X87.0676 Y27.0458
G01 X86.9105 Y27.0149
G01 X86.7455 Y27.0149
G01 X86.5818 Y27.0477
G01 X86.4306 Y27.1107
G01 X86.2916 Y27.2044
G01 X86.1758 Y27.3215
G01 X86.0877 Y27.4536
G01 X86.0228 Y27.6114
G01 X85.9924 Y27.7643
G01 X85.9878 Y27.8510
G01 X85.9878 Y28.8510
G01 X86.0032 Y29.0106
G01 X86.0527 Y29.1746
G01 X86.1279 Y29.3155
G01 X86.2339 Y29.4451
G01 X86.3576 Y29.5471
G00 Z4.0000
G00 X84.3868 Y26.5609
G01 F60.00
G01 Z-0.1500
G01 F120.00
G01 X84.2704 Y26.6023
G01 X84.1631 Y26.6535
G01 X84.0691 Y26.7099
G01 X83.9764 Y26.7782
G01 X83.8864 Y26.8594
G01 X83.8055 Y26.9490
G01 X83.7360 Y27.0435
G01 X83.6772 Y27.1421
G01 X83.6302 Y27.2415
G01 X83.5898 Y27.3532
G01 X83.5599 Y27.4732
G01 X83.5436 Y27.5832
G01 X83.5379 Y27.6966
G01 X83.5378 Y29.0010
G01 X83.5436 Y29.1188
G01 X83.5611 Y29.2352
G01 X83.5898 Y29.3488
G01 X83.6293 Y29.4586
G01 X83.6772 Y29.5599
G01 X83.7369 Y29.6599
G01 X83.8055 Y29.7530
G01 X83.8864 Y29.8426
G01 X83.9760 Y29.9235
G01 X84.0691 Y29.9921
G01 X84.1691 Y30.0518
G01 X84.2704 Y30.0997
G01 X84.3802 Y30.1392
G01 X84.4938 Y30.1679
G01 X84.6102 Y30.1854
G01 X84.7280 Y30.1912
G01 X84.8458 Y30.1854
G01 X84.9645 Y30.1674
G01 X85.0758 Y30.1392
G01 X85.1793 Y30.1022
G01 X85.2869 Y30.0518
G01 X85.3929 Y29.9881
G01 X85.4800 Y29.9235
G01 X85.5664 Y29.8457
G01 X85.6505 Y29.7530
G01 X85.7191 Y29.6599
G01 X85.7755 Y29.5659
G01 X85.8267 Y29.4586
G01 X85.8662 Y29.3488
G01 X85.8949 Y29.2352
