(G-code generated by FlatCAM Evo vUnstable - Version Date: 2023/6/31)

(Name: 8bots-Edge_Cuts_cutout_1_cnc)
(Type: G-code from Geometry)
(Units: MM)

(Created on Wednesday, 05 March 2025 at 22:49)

(This preprocessor is the default preprocessor.)
(It is made to work with MACH3 compatible motion controllers.)

(TOOL DIAMETER: 2.0 mm)
(Feedrate_XY: 120.0 mm/min)
(Feedrate_Z: 60.0 mm/min)
(Feedrate rapids 1500.0 mm/min)

(Z_Cut: -1.8 mm)
(DepthPerCut: 0.6 mm <=>3 passes)
(Z_Move: 2.0 mm)
(Z Start: None mm)
(Z End: 15.0 mm)
(X,Y End: None mm)
(Steps per circle: 16)
(Preprocessor Geometry: default)

(X range:   -1.1850 ...  100.0650  mm)
(Y range:    0.3750 ...   76.6250  mm)

(Spindle Speed: 12000.0 RPM)
G21
G90
G94

G01 F120.00
G00 Z2.0000

M03 S12000.0
G01 F120.00
G00 X98.9650 Y0.3750
G01 F60.00
G01 Z-0.6000
G01 F120.00
G01 X-0.0850 Y0.3750
G01 X-0.1928 Y0.3803
G01 X-0.2996 Y0.3961
G01 X-0.4043 Y0.4224
G01 X-0.5060 Y0.4587
G01 X-0.6035 Y0.5049
G01 X-0.6961 Y0.5604
G01 X-0.7828 Y0.6247
G01 X-0.8628 Y0.6972
G01 X-0.9353 Y0.7772
G01 X-0.9996 Y0.8639
G01 X-1.0551 Y0.9565
G01 X-1.1013 Y1.0540
G01 X-1.1376 Y1.1557
G01 X-1.1639 Y1.2604
G01 X-1.1797 Y1.3672
G01 X-1.1850 Y1.4750
G01 X-1.1850 Y75.5250
G01 X-1.1797 Y75.6328
G01 X-1.1639 Y75.7396
G01 X-1.1376 Y75.8443
G01 X-1.1013 Y75.9460
G01 X-1.0551 Y76.0435
G01 X-0.9996 Y76.1361
G01 X-0.9353 Y76.2228
G01 X-0.8628 Y76.3028
G01 X-0.7828 Y76.3753
G01 X-0.6961 Y76.4396
G01 X-0.6035 Y76.4951
G01 X-0.5060 Y76.5413
G01 X-0.4043 Y76.5776
G01 X-0.2996 Y76.6039
G01 X-0.1928 Y76.6197
G01 X-0.0850 Y76.6250
G01 X98.9650 Y76.6250
G01 X99.0728 Y76.6197
G01 X99.1796 Y76.6039
G01 X99.2843 Y76.5776
G01 X99.3860 Y76.5413
G01 X99.4835 Y76.4951
G01 X99.5761 Y76.4396
G01 X99.6628 Y76.3753
G01 X99.7428 Y76.3028
G01 X99.8153 Y76.2228
G01 X99.8796 Y76.1361
G01 X99.9351 Y76.0435
G01 X99.9813 Y75.9460
G01 X100.0176 Y75.8443
G01 X100.0439 Y75.7396
G01 X100.0597 Y75.6328
G01 X100.0650 Y75.5250
G01 X100.0650 Y1.4750
G01 X100.0597 Y1.3672
G01 X100.0439 Y1.2604
G01 X100.0176 Y1.1557
G01 X99.9813 Y1.0540
G01 X99.9351 Y0.9565
G01 X99.8796 Y0.8639
G01 X99.8153 Y0.7772
G01 X99.7428 Y0.6972
G01 X99.6628 Y0.6247
G01 X99.5761 Y0.5604
G01 X99.4835 Y0.5049
G01 X99.3860 Y0.4587
G01 X99.2843 Y0.4224
G01 X99.1796 Y0.3961
G01 X99.0728 Y0.3803
G01 X98.9650 Y0.3750
G00 X98.9650 Y0.3750
G01 F60.00
G01 Z-1.2000
G01 F120.00
G01 X99.0728 Y0.3803
G01 X99.1796 Y0.3961
G01 X99.2843 Y0.4224
G01 X99.3860 Y0.4587
G01 X99.4835 Y0.5049
G01 X99.5761 Y0.5604
G01 X99.6628 Y0.6247
G01 X99.7428 Y0.6972
G01 X99.8153 Y0.7772
G01 X99.8796 Y0.8639
G01 X99.9351 Y0.9565
G01 X99.9813 Y1.0540
G01 X100.0176 Y1.1557
G01 X100.0439 Y1.2604
G01 X100.0597 Y1.3672
G01 X100.0650 Y1.4750
G01 X100.0650 Y75.5250
G01 X100.0597 Y75.6328
G01 X100.0439 Y75.7396
G01 X100.0176 Y75.8443
G01 X99.9813 Y75.9460
G01 X99.9351 Y76.0435
G01 X99.8796 Y76.1361
G01 X99.8153 Y76.2228
G01 X99.7428 Y76.3028
G01 X99.6628 Y76.3753
G01 X99.5761 Y76.4396
G01 X99.4835 Y76.4951
G01 X99.3860 Y76.5413
G01 X99.2843 Y76.5776
G01 X99.1796 Y76.6039
G01 X99.0728 Y76.6197
G01 X98.9650 Y76.6250
G01 X-0.0850 Y76.6250
G01 X-0.1928 Y76.6197
G01 X-0.2996 Y76.6039
G01 X-0.4043 Y76.5776
G01 X-0.5060 Y76.5413
G01 X-0.6035 Y76.4951
G01 X-0.6961 Y76.4396
G01 X-0.7828 Y76.3753
G01 X-0.8628 Y76.3028
G01 X-0.9353 Y76.2228
G01 X-0.9996 Y76.1361
G01 X-1.0551 Y76.0435
G01 X-1.1013 Y75.9460
G01 X-1.1376 Y75.8443
G01 X-1.1639 Y75.7396
G01 X-1.1797 Y75.6328
G01 X-1.1850 Y75.5250
G01 X-1.1850 Y1.4750
G01 X-1.1797 Y1.3672
G01 X-1.1639 Y1.2604
G01 X-1.1376 Y1.1557
G01 X-1.1013 Y1.0540
G01 X-1.0551 Y0.9565
G01 X-0.9996 Y0.8639
G01 X-0.9353 Y0.7772
G01 X-0.8628 Y0.6972
G01 X-0.7828 Y0.6247
G01 X-0.6961 Y0.5604
G01 X-0.6035 Y0.5049
G01 X-0.5060 Y0.4587
G01 X-0.4043 Y0.4224
G01 X-0.2996 Y0.3961
G01 X-0.1928 Y0.3803
G01 X-0.0850 Y0.3750
G01 X98.9650 Y0.3750
G00 X98.9650 Y0.3750
G01 F60.00
G01 Z-1.8000
G01 F120.00
G01 X-0.0850 Y0.3750
G01 X-0.1928 Y0.3803
G01 X-0.2996 Y0.3961
G01 X-0.4043 Y0.4224
G01 X-0.5060 Y0.4587
G01 X-0.6035 Y0.5049
G01 X-0.6961 Y0.5604
G01 X-0.7828 Y0.6247
G01 X-0.8628 Y0.6972
G01 X-0.9353 Y0.7772
G01 X-0.9996 Y0.8639
G01 X-1.0551 Y0.9565
G01 X-1.1013 Y1.0540
G01 X-1.1376 Y1.1557
G01 X-1.1639 Y1.2604
G01 X-1.1797 Y1.3672
G01 X-1.1850 Y1.4750
G01 X-1.1850 Y75.5250
G01 X-1.1797 Y75.6328
G01 X-1.1639 Y75.7396
G01 X-1.1376 Y75.8443
G01 X-1.1013 Y75.9460
G01 X-1.0551 Y76.0435
G01 X-0.9996 Y76.1361
G01 X-0.9353 Y76.2228
G01 X-0.8628 Y76.3028
G01 X-0.7828 Y76.3753
G01 X-0.6961 Y76.4396
G01 X-0.6035 Y76.4951
G01 X-0.5060 Y76.5413
G01 X-0.4043 Y76.5776
G01 X-0.2996 Y76.6039
G01 X-0.1928 Y76.6197
G01 X-0.0850 Y76.6250
G01 X98.9650 Y76.6250
G01 X99.0728 Y76.6197
G01 X99.1796 Y76.6039
G01 X99.2843 Y76.5776
G01 X99.3860 Y76.5413
G01 X99.4835 Y76.4951
G01 X99.5761 Y76.4396
G01 X99.6628 Y76.3753
G01 X99.7428 Y76.3028
G01 X99.8153 Y76.2228
G01 X99.8796 Y76.1361
G01 X99.9351 Y76.0435
G01 X99.9813 Y75.9460
G01 X100.0176 Y75.8443
G01 X100.0439 Y75.7396
G01 X100.0597 Y75.6328
G01 X100.0650 Y75.5250
G01 X100.0650 Y1.4750
G01 X100.0597 Y1.3672
G01 X100.0439 Y1.2604
G01 X100.0176 Y1.1557
G01 X99.9813 Y1.0540
G01 X99.9351 Y0.9565
G01 X99.8796 Y0.8639
G01 X99.8153 Y0.7772
G01 X99.7428 Y0.6972
G01 X99.6628 Y0.6247
G01 X99.5761 Y0.5604
G01 X99.4835 Y0.5049
G01 X99.3860 Y0.4587
G01 X99.2843 Y0.4224
G01 X99.1796 Y0.3961
G01 X99.0728 Y0.3803
G01 X98.9650 Y0.3750
G00 Z2.0000
M05
G00 Z2.0000
G00 Z15.00


