(G-code generated by FlatCAM Evo vUnstable - Version Date: 2023/6/31)

(Name: 8bots.drl Merged_cnc)
(Type: G-code from Excellon)
(Units: MM)

(Created on Wednesday, 05 March 2025 at 22:45)

(This preprocessor is the default preprocessor.)
(It is made to work with MACH3 compatible motion controllers.)


(TOOLS DIAMETER: )
(Tool: 1 -> Dia: 1.0)

(FEEDRATE Z: )
(Tool: 1 -> Feedrate: 100.0)

(FEEDRATE RAPIDS: )
(Tool: 1 -> Feedrate Rapids: 1500)

(Z_CUT: )
(Tool: 1 -> Z_Cut: -1.7)

(Tools Offset: )
(Tool: 1 -> Offset Z: 0.0)

(Z_MOVE: )
(Tool: 1 -> Z_Move: 4.0)

(Z Start: None mm)
(Z End: 15 mm)
(X,Y End: None mm)
(Steps per circle: 16)
(Preprocessor Excellon: default)

(X range:    6.0280 ...   93.9280  mm)
(Y range:    4.0000 ...   72.7850  mm)

(Spindle Speed: 12000 RPM)
G21
G90
G94

G01 F100.00
G00 Z4.0000

M03 S12000
G00 X81.3690 Y47.9880
G01 Z-1.7000
G01 Z0
G00 Z4.0000
G00 X83.7480 Y47.9090
G01 Z-1.7000
G01 Z0
G00 Z4.0000
G00 X83.7480 Y50.4490
G01 Z-1.7000
G01 Z0
G00 Z4.0000
G00 X83.7480 Y52.9890
G01 Z-1.7000
G01 Z0
G00 Z4.0000
G00 X83.7480 Y55.5290
G01 Z-1.7000
G01 Z0
G00 Z4.0000
G00 X83.7480 Y58.0690
G01 Z-1.7000
G01 Z0
G00 Z4.0000
G00 X83.7480 Y60.6090
G01 Z-1.7000
G01 Z0
G00 Z4.0000
G00 X83.7480 Y63.1490
G01 Z-1.7000
G01 Z0
G00 Z4.0000
G00 X83.7480 Y65.6890
G01 Z-1.7000
G01 Z0
G00 Z4.0000
G00 X72.0640 Y65.3590
G01 Z-1.7000
G01 Z0
G00 Z4.0000
G00 X72.0640 Y70.3880
G01 Z-1.7000
G01 Z0
G00 Z4.0000
G00 X76.6360 Y70.8960
G01 Z-1.7000
G01 Z0
G00 Z4.0000
G00 X79.1760 Y70.8960
G01 Z-1.7000
G01 Z0
G00 Z4.0000
G00 X81.7160 Y70.8960
G01 Z-1.7000
G01 Z0
G00 Z4.0000
G00 X84.2560 Y70.8960
G01 Z-1.7000
G01 Z0
G00 Z4.0000
G00 X86.7960 Y70.8960
G01 Z-1.7000
G01 Z0
G00 Z4.0000
G00 X89.8440 Y62.7280
G01 Z-1.7000
G01 Z0
G00 Z4.0000
G00 X89.8440 Y60.2280
G01 Z-1.7000
G01 Z0
G00 Z4.0000
G00 X89.5900 Y54.0050
G01 Z-1.7000
G01 Z0
G00 Z4.0000
G00 X89.5900 Y51.5050
G01 Z-1.7000
G01 Z0
G00 Z4.0000
G00 X88.5490 Y45.6230
G01 Z-1.7000
G01 Z0
G00 Z4.0000
G00 X91.0490 Y45.6230
G01 Z-1.7000
G01 Z0
G00 Z4.0000
G00 X90.3520 Y34.3200
G01 Z-1.7000
G01 Z0
G00 Z4.0000
G00 X87.8520 Y34.3200
G01 Z-1.7000
G01 Z0
G00 Z4.0000
G00 X80.1920 Y32.1610
G01 Z-1.7000
G01 Z0
G00 Z4.0000
G00 X72.5720 Y32.1610
G01 Z-1.7000
G01 Z0
G00 Z4.0000
G00 X68.0000 Y22.2500
G01 Z-1.7000
G01 Z0
G00 Z4.0000
G00 X70.5400 Y18.8330
G01 Z-1.7000
G01 Z0
G00 Z4.0000
G00 X73.0800 Y18.8330
G01 Z-1.7000
G01 Z0
G00 Z4.0000
G00 X75.6200 Y18.8330
G01 Z-1.7000
G01 Z0
G00 Z4.0000
G00 X78.1600 Y18.8330
G01 Z-1.7000
G01 Z0
G00 Z4.0000
G00 X80.7000 Y18.8330
G01 Z-1.7000
G01 Z0
G00 Z4.0000
G00 X82.7320 Y22.7630
G01 Z-1.7000
G01 Z0
G00 Z4.0000
G00 X86.8280 Y28.3510
G01 Z-1.7000
G01 Z0
G00 Z4.0000
G00 X88.8280 Y28.3510
G01 Z-1.7000
G01 Z0
G00 Z4.0000
G00 X90.8280 Y28.3510
G01 Z-1.7000
G01 Z0
G00 Z4.0000
G00 X92.8920 Y22.7630
G01 Z-1.7000
G01 Z0
G00 Z4.0000
G00 X92.4010 Y15.8850
G01 Z-1.7000
G01 Z0
G00 Z4.0000
G00 X92.4010 Y13.3850
G01 Z-1.7000
G01 Z0
G00 Z4.0000
G00 X86.7960 Y8.5390
G01 Z-1.7000
G01 Z0
G00 Z4.0000
G00 X85.9830 Y13.4410
G01 Z-1.7000
G01 Z0
G00 Z4.0000
G00 X83.4830 Y13.4410
G01 Z-1.7000
G01 Z0
G00 Z4.0000
G00 X71.5560 Y8.5390
G01 Z-1.7000
G01 Z0
G00 Z4.0000
G00 X58.0940 Y9.5550
G01 Z-1.7000
G01 Z0
G00 Z4.0000
G00 X58.0940 Y7.0150
G01 Z-1.7000
G01 Z0
G00 Z4.0000
G00 X55.5540 Y7.0150
G01 Z-1.7000
G01 Z0
G00 Z4.0000
G00 X55.5540 Y9.5550
G01 Z-1.7000
G01 Z0
G00 Z4.0000
G00 X53.0140 Y9.5550
G01 Z-1.7000
G01 Z0
G00 Z4.0000
G00 X53.0140 Y7.0150
G01 Z-1.7000
G01 Z0
G00 Z4.0000
G00 X50.4740 Y7.0150
G01 Z-1.7000
G01 Z0
G00 Z4.0000
G00 X50.4740 Y9.5550
G01 Z-1.7000
G01 Z0
G00 Z4.0000
G00 X47.9340 Y9.5550
G01 Z-1.7000
G01 Z0
G00 Z4.0000
G00 X47.9340 Y7.0150
G01 Z-1.7000
G01 Z0
G00 Z4.0000
G00 X45.3940 Y7.0150
G01 Z-1.7000
G01 Z0
G00 Z4.0000
G00 X45.3940 Y9.5550
G01 Z-1.7000
G01 Z0
G00 Z4.0000
G00 X42.8540 Y9.5550
G01 Z-1.7000
G01 Z0
G00 Z4.0000
G00 X42.8540 Y7.0150
G01 Z-1.7000
G01 Z0
G00 Z4.0000
G00 X40.3140 Y7.0150
G01 Z-1.7000
G01 Z0
G00 Z4.0000
G00 X40.3140 Y9.5550
G01 Z-1.7000
G01 Z0
G00 Z4.0000
G00 X37.7740 Y9.5550
G01 Z-1.7000
G01 Z0
G00 Z4.0000
G00 X37.7740 Y7.0150
G01 Z-1.7000
G01 Z0
G00 Z4.0000
G00 X25.3800 Y6.8800
G01 Z-1.7000
G01 Z0
G00 Z4.0000
G00 X20.3800 Y8.8800
G01 Z-1.7000
G01 Z0
G00 Z4.0000
G00 X15.3800 Y4.5000
G01 Z-1.7000
G01 Z0
G00 Z4.0000
G00 X10.8500 Y8.6660
G01 Z-1.7000
G01 Z0
G00 Z4.0000
G00 X10.8500 Y9.9360
G01 Z-1.7000
G01 Z0
G00 Z4.0000
G00 X10.8500 Y11.2060
G01 Z-1.7000
G01 Z0
G00 Z4.0000
G00 X10.8500 Y12.4760
G01 Z-1.7000
G01 Z0
G00 Z4.0000
G00 X15.3800 Y10.7500
G01 Z-1.7000
G01 Z0
G00 Z4.0000
G00 X20.3800 Y24.1200
G01 Z-1.7000
G01 Z0
G00 Z4.0000
G00 X9.8800 Y38.5000
G01 Z-1.7000
G01 Z0
G00 Z4.0000
G00 X14.8800 Y38.5000
G01 Z-1.7000
G01 Z0
G00 Z4.0000
G00 X17.3800 Y43.5000
G01 Z-1.7000
G01 Z0
G00 Z4.0000
G00 X12.3800 Y43.5000
G01 Z-1.7000
G01 Z0
G00 Z4.0000
G00 X10.1280 Y49.0410
G01 Z-1.7000
G01 Z0
G00 Z4.0000
G00 X12.6280 Y49.0410
G01 Z-1.7000
G01 Z0
G00 Z4.0000
G00 X15.1280 Y49.0410
G01 Z-1.7000
G01 Z0
G00 Z4.0000
G00 X21.8800 Y56.3800
G01 Z-1.7000
G01 Z0
G00 Z4.0000
G00 X15.1280 Y63.5410
G01 Z-1.7000
G01 Z0
G00 Z4.0000
G00 X10.1280 Y63.5410
G01 Z-1.7000
G01 Z0
G00 Z4.0000
G00 X10.1280 Y66.9590
G01 Z-1.7000
G01 Z0
G00 Z4.0000
G00 X15.1280 Y66.9590
G01 Z-1.7000
G01 Z0
G00 Z4.0000
G00 X21.8800 Y71.6200
G01 Z-1.7000
G01 Z0
G00 Z4.0000
G00 X30.6620 Y71.5310
G01 Z-1.7000
G01 Z0
G00 Z4.0000
G00 X33.2020 Y71.5310
G01 Z-1.7000
G01 Z0
G00 Z4.0000
G00 X39.2980 Y71.5310
G01 Z-1.7000
G01 Z0
G00 Z4.0000
G00 X39.2980 Y68.9910
G01 Z-1.7000
G01 Z0
G00 Z4.0000
G00 X30.8800 Y61.3000
G01 Z-1.7000
G01 Z0
G00 Z4.0000
G00 X30.8800 Y53.7000
G01 Z-1.7000
G01 Z0
G00 Z4.0000
G00 X39.2400 Y51.6500
G01 Z-1.7000
G01 Z0
G00 Z4.0000
G00 X39.3800 Y47.7500
G01 Z-1.7000
G01 Z0
G00 Z4.0000
G00 X39.3800 Y42.2500
G01 Z-1.7000
G01 Z0
G00 Z4.0000
G00 X40.3140 Y37.4950
G01 Z-1.7000
G01 Z0
G00 Z4.0000
G00 X42.8540 Y37.4950
G01 Z-1.7000
G01 Z0
G00 Z4.0000
G00 X42.8540 Y34.9550
G01 Z-1.7000
G01 Z0
G00 Z4.0000
G00 X40.3140 Y34.9550
G01 Z-1.7000
G01 Z0
G00 Z4.0000
G00 X37.7740 Y34.9550
G01 Z-1.7000
G01 Z0
G00 Z4.0000
G00 X37.7740 Y37.4950
G01 Z-1.7000
G01 Z0
G00 Z4.0000
G00 X33.7100 Y35.0820
G01 Z-1.7000
G01 Z0
G00 Z4.0000
G00 X27.3720 Y32.8130
G01 Z-1.7000
G01 Z0
G00 Z4.0000
G00 X27.3720 Y30.2730
G01 Z-1.7000
G01 Z0
G00 Z4.0000
G00 X27.3720 Y27.7330
G01 Z-1.7000
G01 Z0
G00 Z4.0000
G00 X27.3720 Y25.1930
G01 Z-1.7000
G01 Z0
G00 Z4.0000
G00 X25.3800 Y22.1200
G01 Z-1.7000
G01 Z0
G00 Z4.0000
G00 X32.1860 Y17.9370
G01 Z-1.7000
G01 Z0
G00 Z4.0000
G00 X32.4400 Y22.5090
G01 Z-1.7000
G01 Z0
G00 Z4.0000
G00 X32.4400 Y26.8270
G01 Z-1.7000
G01 Z0
G00 Z4.0000
G00 X33.7100 Y30.0820
G01 Z-1.7000
G01 Z0
G00 Z4.0000
G00 X47.6800 Y26.8270
G01 Z-1.7000
G01 Z0
G00 Z4.0000
G00 X47.6800 Y22.5090
G01 Z-1.7000
G01 Z0
G00 Z4.0000
G00 X47.4260 Y17.9370
G01 Z-1.7000
G01 Z0
G00 Z4.0000
G00 X55.3000 Y22.0000
G01 Z-1.7000
G01 Z0
G00 Z4.0000
G00 X55.3000 Y25.4700
G01 Z-1.7000
G01 Z0
G00 Z4.0000
G00 X55.3000 Y30.4700
G01 Z-1.7000
G01 Z0
G00 Z4.0000
G00 X55.5540 Y34.9550
G01 Z-1.7000
G01 Z0
G00 Z4.0000
G00 X58.0940 Y34.9550
G01 Z-1.7000
G01 Z0
G00 Z4.0000
G00 X58.0940 Y37.4950
G01 Z-1.7000
G01 Z0
G00 Z4.0000
G00 X58.3800 Y47.0200
G01 Z-1.7000
G01 Z0
G00 Z4.0000
G00 X57.0200 Y51.6500
G01 Z-1.7000
G01 Z0
G00 Z4.0000
G00 X56.8800 Y58.0690
G01 Z-1.7000
G01 Z0
G00 Z4.0000
G00 X56.8800 Y56.0000
G01 Z-1.7000
G01 Z0
G00 Z4.0000
G00 X54.4800 Y51.6500
G01 Z-1.7000
G01 Z0
G00 Z4.0000
G00 X53.3800 Y47.0200
G01 Z-1.7000
G01 Z0
G00 Z4.0000
G00 X52.8800 Y43.5000
G01 Z-1.7000
G01 Z0
G00 Z4.0000
G00 X55.5540 Y41.0000
G01 Z-1.7000
G01 Z0
G00 Z4.0000
G00 X55.5540 Y37.4950
G01 Z-1.7000
G01 Z0
G00 Z4.0000
G00 X53.0140 Y37.4950
G01 Z-1.7000
G01 Z0
G00 Z4.0000
G00 X53.0140 Y34.9550
G01 Z-1.7000
G01 Z0
G00 Z4.0000
G00 X50.4740 Y34.9550
G01 Z-1.7000
G01 Z0
G00 Z4.0000
G00 X50.4740 Y37.4950
G01 Z-1.7000
G01 Z0
G00 Z4.0000
G00 X47.9340 Y37.4950
G01 Z-1.7000
G01 Z0
G00 Z4.0000
G00 X47.9340 Y34.9550
G01 Z-1.7000
G01 Z0
G00 Z4.0000
G00 X45.3940 Y34.9550
G01 Z-1.7000
G01 Z0
G00 Z4.0000
G00 X45.3940 Y37.4950
G01 Z-1.7000
G01 Z0
G00 Z4.0000
G00 X45.6300 Y43.5250
G01 Z-1.7000
G01 Z0
G00 Z4.0000
G00 X45.6300 Y48.6050
G01 Z-1.7000
G01 Z0
G00 Z4.0000
G00 X41.7800 Y51.6500
G01 Z-1.7000
G01 Z0
G00 Z4.0000
G00 X44.3200 Y51.6500
G01 Z-1.7000
G01 Z0
G00 Z4.0000
G00 X46.8600 Y51.6500
G01 Z-1.7000
G01 Z0
G00 Z4.0000
G00 X49.4000 Y51.6500
G01 Z-1.7000
G01 Z0
G00 Z4.0000
G00 X51.9400 Y51.6500
G01 Z-1.7000
G01 Z0
G00 Z4.0000
G00 X51.8800 Y56.0000
G01 Z-1.7000
G01 Z0
G00 Z4.0000
G00 X51.4900 Y59.0000
G01 Z-1.7000
G01 Z0
G00 Z4.0000
G00 X48.8990 Y66.8830
G01 Z-1.7000
G01 Z0
G00 Z4.0000
G00 X51.4900 Y72.2850
G01 Z-1.7000
G01 Z0
G00 Z4.0000
G00 X61.8730 Y72.2850
G01 Z-1.7000
G01 Z0
G00 Z4.0000
G00 X64.3730 Y72.2850
G01 Z-1.7000
G01 Z0
G00 Z4.0000
G00 X64.1390 Y66.8830
G01 Z-1.7000
G01 Z0
G00 Z4.0000
G00 X68.5080 Y65.6890
G01 Z-1.7000
G01 Z0
G00 Z4.0000
G00 X68.5080 Y63.1490
G01 Z-1.7000
G01 Z0
G00 Z4.0000
G00 X68.5080 Y60.6090
G01 Z-1.7000
G01 Z0
G00 Z4.0000
G00 X64.8250 Y58.0690
G01 Z-1.7000
G01 Z0
G00 Z4.0000
G00 X68.5080 Y58.0690
G01 Z-1.7000
G01 Z0
G00 Z4.0000
G00 X68.5080 Y55.5290
G01 Z-1.7000
G01 Z0
G00 Z4.0000
G00 X68.5080 Y52.9890
G01 Z-1.7000
G01 Z0
G00 Z4.0000
G00 X68.5080 Y50.4490
G01 Z-1.7000
G01 Z0
G00 Z4.0000
G00 X68.5080 Y47.9090
G01 Z-1.7000
G01 Z0
G00 Z4.0000
G00 X71.8800 Y48.0000
G01 Z-1.7000
G01 Z0
G00 Z4.0000
G00 X67.3800 Y43.5000
G01 Z-1.7000
G01 Z0
G00 Z4.0000
G00 X67.3800 Y41.0000
G01 Z-1.7000
G01 Z0
G00 Z4.0000
G00 X72.5720 Y42.3210
G01 Z-1.7000
G01 Z0
G00 Z4.0000
G00 X72.5720 Y39.7810
G01 Z-1.7000
G01 Z0
G00 Z4.0000
G00 X72.5720 Y37.2410
G01 Z-1.7000
G01 Z0
G00 Z4.0000
G00 X72.5720 Y34.7010
G01 Z-1.7000
G01 Z0
G00 Z4.0000
G00 X80.1920 Y34.7010
G01 Z-1.7000
G01 Z0
G00 Z4.0000
G00 X80.1920 Y37.2410
G01 Z-1.7000
G01 Z0
G00 Z4.0000
G00 X80.1920 Y39.7810
G01 Z-1.7000
G01 Z0
G00 Z4.0000
G00 X80.1920 Y42.3210
G01 Z-1.7000
G01 Z0
G00 Z4.0000
M05
G00 Z15.00


